%
O0000(CORTE NERVIOS)
(DATE=DD-MM-YY - 30-09-15 TIME=HH:MM - 22:33)
(MCX FILE - C:\USERS\CAMPY\DESKTOP\PANELES ULTICAMPY V3 CAM\PANEL_TRASERO_V2.SLDPRT)
(NC FILE - C:\USERS\CAMPY\DESKTOP\PANELES ULTICAMPY V3 CAM\MACH3\PANEL TRASERO\CORTE NERVIOS.NC)
(MATERIAL - ALUMINUM MM - 2024)
( T2 | FRESA 3MM CAJA AZUL | H2 | XY STOCK TO LEAVE - -.05 | Z STOCK TO LEAVE - 0. )
N100 G21
N110 G0 G17 G40 G49 G80 G90
N120 T2 M6 Z5
N130 G0 G90 G54 X1.6 Y320.216 A0. S15000 M3
N140 G43 H2 Z5.
N150 G1 Z-6.2 F500.
N160 Y297.316
N170 G0 Z5.
N180 Y96.758
N190 G1 Z-6.2
N200 Y93.25
N210 G2 X1.45 Y93.1 I-.15 J0.
N220 G1 X-1.15
N230 G3 X-2.55 Y91.7 I0. J-1.4
N240 G1 Y81.7
N250 G3 X-1.15 Y80.3 I1.4 J0.
N260 G1 X1.008
N270 G0 Z5.
N280 X128.451 Y8.6
N290 G1 Z-6.2
N300 X151.351
N310 G0 Z5.
N320 X362.024 Y-1.4
N330 G1 Z-6.2
N340 X373.7
N350 G3 X381.089 Y5.6 I0. J7.4
N360 G0 Z5.
N370 X381.1 Y201.387
N380 G1 Z-6.2
N390 Y224.287
N400 G0 Z5.
N410 X369.35 Y411.5
N420 G1 Z-6.2
N430 X347.7
N440 G2 X346.456 Y411.61 I0. J7.1
N450 G0 Z5.
N460 X135.551 Y421.4
N470 G1 Z-6.2
N480 X112.651
N490 G0 Z5.
N500 M5
N510 G91 Z5
N520 X0. Y0. A0.
N530 M30
%
