%
O0000(PANEL_TRASERO_V2)
(DATE=DD-MM-YY - 30-09-15 TIME=HH:MM - 22:33)
(MCX FILE - C:\USERS\CAMPY\DESKTOP\PANELES ULTICAMPY V3 CAM\PANEL_TRASERO_V2.SLDPRT)
(NC FILE - C:\USERS\CAMPY\DESKTOP\PANELES ULTICAMPY V3 CAM\MACH3\PANEL TRASERO\PANEL_TRASERO_V2.NC)
(MATERIAL - ALUMINUM MM - 2024)
( T2 | FRESA 3MM CAJA AZUL | H2 | XY STOCK TO LEAVE - -.05 | Z STOCK TO LEAVE - 0. )
N100 G21
N110 G0 G17 G40 G49 G80 G90
N120 T2 M6 Z5
N130 G0 G90 G54 X98.1 Y43. A0. S15000 M3
N140 G43 H2 Z5.
N150 G1 Z-2.067 F150.
N160 G3 X98. Y43.1 I-.1 J0. F500.
N170 X97.9 Y43. I0. J-.1
N180 X98. Y42.9 I.1 J0.
N190 X98.1 Y43. I0. J.1
N200 G1 Z-4.133 F150.
N210 G3 X98. Y43.1 I-.1 J0. F500.
N220 X97.9 Y43. I0. J-.1
N230 X98. Y42.9 I.1 J0.
N240 X98.1 Y43. I0. J.1
N250 G1 Z-6.2 F150.
N260 G3 X98. Y43.1 I-.1 J0. F500.
N270 X97.9 Y43. I0. J-.1
N280 X98. Y42.9 I.1 J0.
N290 X98.1 Y43. I0. J.1
N300 G0 Z-1.2
N310 Z5.
N320 X55.2 Y70.
N330 G1 Z-2.067 F150.
N340 G3 X55. Y70.2 I-.2 J0. F500.
N350 X54.8 Y70. I0. J-.2
N360 X55. Y69.8 I.2 J0.
N370 X55.2 Y70. I0. J.2
N380 G1 Z-4.133 F150.
N390 G3 X55. Y70.2 I-.2 J0. F500.
N400 X54.8 Y70. I0. J-.2
N410 X55. Y69.8 I.2 J0.
N420 X55.2 Y70. I0. J.2
N430 G1 Z-6.2 F150.
N440 G3 X55. Y70.2 I-.2 J0. F500.
N450 X54.8 Y70. I0. J-.2
N460 X55. Y69.8 I.2 J0.
N470 X55.2 Y70. I0. J.2
N480 G0 Z-1.2
N490 Z5.
N500 X48.5 Y63.
N510 G1 Z-2.067 F150.
N520 G3 X48.4 Y63.1 I-.1 J0. F500.
N530 X48.3 Y63. I0. J-.1
N540 X48.4 Y62.9 I.1 J0.
N550 X48.5 Y63. I0. J.1
N560 G1 Z-4.133 F150.
N570 G3 X48.4 Y63.1 I-.1 J0. F500.
N580 X48.3 Y63. I0. J-.1
N590 X48.4 Y62.9 I.1 J0.
N600 X48.5 Y63. I0. J.1
N610 G1 Z-6.2 F150.
N620 G3 X48.4 Y63.1 I-.1 J0. F500.
N630 X48.3 Y63. I0. J-.1
N640 X48.4 Y62.9 I.1 J0.
N650 X48.5 Y63. I0. J.1
N660 G0 Z-1.2
N670 Z5.
N680 X49.7 Y23.
N690 G1 Z-2.067 F150.
N700 G3 X49.6 Y23.1 I-.1 J0. F500.
N710 X49.5 Y23. I0. J-.1
N720 X49.6 Y22.9 I.1 J0.
N730 X49.7 Y23. I0. J.1
N740 G1 Z-4.133 F150.
N750 G3 X49.6 Y23.1 I-.1 J0. F500.
N760 X49.5 Y23. I0. J-.1
N770 X49.6 Y22.9 I.1 J0.
N780 X49.7 Y23. I0. J.1
N790 G1 Z-6.2 F150.
N800 G3 X49.6 Y23.1 I-.1 J0. F500.
N810 X49.5 Y23. I0. J-.1
N820 X49.6 Y22.9 I.1 J0.
N830 X49.7 Y23. I0. J.1
N840 G0 Z-1.2
N850 Z5.
N860 X53.126 Y223.6
N870 G1 Z-2.067 F150.
N880 G3 X52.926 Y223.8 I-.2 J0. F500.
N890 X52.726 Y223.6 I0. J-.2
N900 X52.926 Y223.4 I.2 J0.
N910 X53.126 Y223.6 I0. J.2
N920 G1 Z-4.133 F150.
N930 G3 X52.926 Y223.8 I-.2 J0. F500.
N940 X52.726 Y223.6 I0. J-.2
N950 X52.926 Y223.4 I.2 J0.
N960 X53.126 Y223.6 I0. J.2
N970 G1 Z-6.2 F150.
N980 G3 X52.926 Y223.8 I-.2 J0. F500.
N990 X52.726 Y223.6 I0. J-.2
N1000 X52.926 Y223.4 I.2 J0.
N1010 X53.126 Y223.6 I0. J.2
N1020 G0 Z-1.2
N1030 Z5.
N1040 Y254.6
N1050 G1 Z-2.067 F150.
N1060 G3 X52.926 Y254.8 I-.2 J0. F500.
N1070 X52.726 Y254.6 I0. J-.2
N1080 X52.926 Y254.4 I.2 J0.
N1090 X53.126 Y254.6 I0. J.2
N1100 G1 Z-4.133 F150.
N1110 G3 X52.926 Y254.8 I-.2 J0. F500.
N1120 X52.726 Y254.6 I0. J-.2
N1130 X52.926 Y254.4 I.2 J0.
N1140 X53.126 Y254.6 I0. J.2
N1150 G1 Z-6.2 F150.
N1160 G3 X52.926 Y254.8 I-.2 J0. F500.
N1170 X52.726 Y254.6 I0. J-.2
N1180 X52.926 Y254.4 I.2 J0.
N1190 X53.126 Y254.6 I0. J.2
N1200 G0 Z-1.2
N1210 Z5.
N1220 X22.126
N1230 G1 Z-2.067 F150.
N1240 G3 X21.926 Y254.8 I-.2 J0. F500.
N1250 X21.726 Y254.6 I0. J-.2
N1260 X21.926 Y254.4 I.2 J0.
N1270 X22.126 Y254.6 I0. J.2
N1280 G1 Z-4.133 F150.
N1290 G3 X21.926 Y254.8 I-.2 J0. F500.
N1300 X21.726 Y254.6 I0. J-.2
N1310 X21.926 Y254.4 I.2 J0.
N1320 X22.126 Y254.6 I0. J.2
N1330 G1 Z-6.2 F150.
N1340 G3 X21.926 Y254.8 I-.2 J0. F500.
N1350 X21.726 Y254.6 I0. J-.2
N1360 X21.926 Y254.4 I.2 J0.
N1370 X22.126 Y254.6 I0. J.2
N1380 G0 Z-1.2
N1390 Z5.
N1400 Y223.6
N1410 G1 Z-2.067 F150.
N1420 G3 X21.926 Y223.8 I-.2 J0. F500.
N1430 X21.726 Y223.6 I0. J-.2
N1440 X21.926 Y223.4 I.2 J0.
N1450 X22.126 Y223.6 I0. J.2
N1460 G1 Z-4.133 F150.
N1470 G3 X21.926 Y223.8 I-.2 J0. F500.
N1480 X21.726 Y223.6 I0. J-.2
N1490 X21.926 Y223.4 I.2 J0.
N1500 X22.126 Y223.6 I0. J.2
N1510 G1 Z-6.2 F150.
N1520 G3 X21.926 Y223.8 I-.2 J0. F500.
N1530 X21.726 Y223.6 I0. J-.2
N1540 X21.926 Y223.4 I.2 J0.
N1550 X22.126 Y223.6 I0. J.2
N1560 G0 Z-1.2
N1570 Z5.
N1580 X172.27 Y332.753
N1590 G1 Z-2.067 F150.
N1600 G3 X172.17 Y332.853 I-.1 J0. F500.
N1610 X172.07 Y332.753 I0. J-.1
N1620 X172.17 Y332.653 I.1 J0.
N1630 X172.27 Y332.753 I0. J.1
N1640 G1 Z-4.133 F150.
N1650 G3 X172.17 Y332.853 I-.1 J0. F500.
N1660 X172.07 Y332.753 I0. J-.1
N1670 X172.17 Y332.653 I.1 J0.
N1680 X172.27 Y332.753 I0. J.1
N1690 G1 Z-6.2 F150.
N1700 G3 X172.17 Y332.853 I-.1 J0. F500.
N1710 X172.07 Y332.753 I0. J-.1
N1720 X172.17 Y332.653 I.1 J0.
N1730 X172.27 Y332.753 I0. J.1
N1740 G0 Z-1.2
N1750 Z5.
N1760 X191.55 Y341.753
N1770 G1 Z-2.067 F150.
N1780 G3 X191.35 Y341.953 I-.2 J0. F500.
N1790 X191.15 Y341.753 I0. J-.2
N1800 X191.35 Y341.553 I.2 J0.
N1810 X191.55 Y341.753 I0. J.2
N1820 G1 Z-4.133 F150.
N1830 G3 X191.35 Y341.953 I-.2 J0. F500.
N1840 X191.15 Y341.753 I0. J-.2
N1850 X191.35 Y341.553 I.2 J0.
N1860 X191.55 Y341.753 I0. J.2
N1870 G1 Z-6.2 F150.
N1880 G3 X191.35 Y341.953 I-.2 J0. F500.
N1890 X191.15 Y341.753 I0. J-.2
N1900 X191.35 Y341.553 I.2 J0.
N1910 X191.55 Y341.753 I0. J.2
N1920 G0 Z-1.2
N1930 Z5.
N1940 X210.63 Y332.753
N1950 G1 Z-2.067 F150.
N1960 G3 X210.53 Y332.853 I-.1 J0. F500.
N1970 X210.43 Y332.753 I0. J-.1
N1980 X210.53 Y332.653 I.1 J0.
N1990 X210.63 Y332.753 I0. J.1
N2000 G1 Z-4.133 F150.
N2010 G3 X210.53 Y332.853 I-.1 J0. F500.
N2020 X210.43 Y332.753 I0. J-.1
N2030 X210.53 Y332.653 I.1 J0.
N2040 X210.63 Y332.753 I0. J.1
N2050 G1 Z-6.2 F150.
N2060 G3 X210.53 Y332.853 I-.1 J0. F500.
N2070 X210.43 Y332.753 I0. J-.1
N2080 X210.53 Y332.653 I.1 J0.
N2090 X210.63 Y332.753 I0. J.1
N2100 G0 Z-1.2
N2110 Z5.
N2120 X191.55 Y412.
N2130 G1 Z-2.067 F150.
N2140 G3 X191.35 Y412.2 I-.2 J0. F500.
N2150 X191.15 Y412. I0. J-.2
N2160 X191.35 Y411.8 I.2 J0.
N2170 X191.55 Y412. I0. J.2
N2180 G1 Z-4.133 F150.
N2190 G3 X191.35 Y412.2 I-.2 J0. F500.
N2200 X191.15 Y412. I0. J-.2
N2210 X191.35 Y411.8 I.2 J0.
N2220 X191.55 Y412. I0. J.2
N2230 G1 Z-6.2 F150.
N2240 G3 X191.35 Y412.2 I-.2 J0. F500.
N2250 X191.15 Y412. I0. J-.2
N2260 X191.35 Y411.8 I.2 J0.
N2270 X191.55 Y412. I0. J.2
N2280 G0 Z-1.2
N2290 Z5.
N2300 X327.5
N2310 G1 Z-2.067 F150.
N2320 G3 X327.7 Y411.8 I.2 J0. F500.
N2330 X327.9 Y412. I0. J.2
N2340 X327.7 Y412.2 I-.2 J0.
N2350 X327.5 Y412. I0. J-.2
N2360 G1 Z-4.133 F150.
N2370 G3 X327.7 Y411.8 I.2 J0. F500.
N2380 X327.9 Y412. I0. J.2
N2390 X327.7 Y412.2 I-.2 J0.
N2400 X327.5 Y412. I0. J-.2
N2410 G1 Z-6.2 F150.
N2420 G3 X327.7 Y411.8 I.2 J0. F500.
N2430 X327.9 Y412. I0. J.2
N2440 X327.7 Y412.2 I-.2 J0.
N2450 X327.5 Y412. I0. J-.2
N2460 G0 Z-1.2
N2470 Z5.
N2480 X329.574 Y254.6
N2490 G1 Z-2.067 F150.
N2500 G3 X329.774 Y254.4 I.2 J0. F500.
N2510 X329.974 Y254.6 I0. J.2
N2520 X329.774 Y254.8 I-.2 J0.
N2530 X329.574 Y254.6 I0. J-.2
N2540 G1 Z-4.133 F150.
N2550 G3 X329.774 Y254.4 I.2 J0. F500.
N2560 X329.974 Y254.6 I0. J.2
N2570 X329.774 Y254.8 I-.2 J0.
N2580 X329.574 Y254.6 I0. J-.2
N2590 G1 Z-6.2 F150.
N2600 G3 X329.774 Y254.4 I.2 J0. F500.
N2610 X329.974 Y254.6 I0. J.2
N2620 X329.774 Y254.8 I-.2 J0.
N2630 X329.574 Y254.6 I0. J-.2
N2640 G0 Z-1.2
N2650 Z5.
N2660 Y223.6
N2670 G1 Z-2.067 F150.
N2680 G3 X329.774 Y223.4 I.2 J0. F500.
N2690 X329.974 Y223.6 I0. J.2
N2700 X329.774 Y223.8 I-.2 J0.
N2710 X329.574 Y223.6 I0. J-.2
N2720 G1 Z-4.133 F150.
N2730 G3 X329.774 Y223.4 I.2 J0. F500.
N2740 X329.974 Y223.6 I0. J.2
N2750 X329.774 Y223.8 I-.2 J0.
N2760 X329.574 Y223.6 I0. J-.2
N2770 G1 Z-6.2 F150.
N2780 G3 X329.774 Y223.4 I.2 J0. F500.
N2790 X329.974 Y223.6 I0. J.2
N2800 X329.774 Y223.8 I-.2 J0.
N2810 X329.574 Y223.6 I0. J-.2
N2820 G0 Z-1.2
N2830 Z5.
N2840 X360.574
N2850 G1 Z-2.067 F150.
N2860 G3 X360.774 Y223.4 I.2 J0. F500.
N2870 X360.974 Y223.6 I0. J.2
N2880 X360.774 Y223.8 I-.2 J0.
N2890 X360.574 Y223.6 I0. J-.2
N2900 G1 Z-4.133 F150.
N2910 G3 X360.774 Y223.4 I.2 J0. F500.
N2920 X360.974 Y223.6 I0. J.2
N2930 X360.774 Y223.8 I-.2 J0.
N2940 X360.574 Y223.6 I0. J-.2
N2950 G1 Z-6.2 F150.
N2960 G3 X360.774 Y223.4 I.2 J0. F500.
N2970 X360.974 Y223.6 I0. J.2
N2980 X360.774 Y223.8 I-.2 J0.
N2990 X360.574 Y223.6 I0. J-.2
N3000 G0 Z-1.2
N3010 Z5.
N3020 Y254.6
N3030 G1 Z-2.067 F150.
N3040 G3 X360.774 Y254.4 I.2 J0. F500.
N3050 X360.974 Y254.6 I0. J.2
N3060 X360.774 Y254.8 I-.2 J0.
N3070 X360.574 Y254.6 I0. J-.2
N3080 G1 Z-4.133 F150.
N3090 G3 X360.774 Y254.4 I.2 J0. F500.
N3100 X360.974 Y254.6 I0. J.2
N3110 X360.774 Y254.8 I-.2 J0.
N3120 X360.574 Y254.6 I0. J-.2
N3130 G1 Z-6.2 F150.
N3140 G3 X360.774 Y254.4 I.2 J0. F500.
N3150 X360.974 Y254.6 I0. J.2
N3160 X360.774 Y254.8 I-.2 J0.
N3170 X360.574 Y254.6 I0. J-.2
N3180 G0 Z-1.2
N3190 Z5.
N3200 X327.5 Y70.
N3210 G1 Z-2.067 F150.
N3220 G3 X327.7 Y69.8 I.2 J0. F500.
N3230 X327.9 Y70. I0. J.2
N3240 X327.7 Y70.2 I-.2 J0.
N3250 X327.5 Y70. I0. J-.2
N3260 G1 Z-4.133 F150.
N3270 G3 X327.7 Y69.8 I.2 J0. F500.
N3280 X327.9 Y70. I0. J.2
N3290 X327.7 Y70.2 I-.2 J0.
N3300 X327.5 Y70. I0. J-.2
N3310 G1 Z-6.2 F150.
N3320 G3 X327.7 Y69.8 I.2 J0. F500.
N3330 X327.9 Y70. I0. J.2
N3340 X327.7 Y70.2 I-.2 J0.
N3350 X327.5 Y70. I0. J-.2
N3360 G0 Z-1.2
N3370 Z5.
N3380 X128.1 Y43.
N3390 G1 Z-2.067 F150.
N3400 G3 X128. Y43.1 I-.1 J0. F500.
N3410 X127.9 Y43. I0. J-.1
N3420 X128. Y42.9 I.1 J0.
N3430 X128.1 Y43. I0. J.1
N3440 G1 Z-4.133 F150.
N3450 G3 X128. Y43.1 I-.1 J0. F500.
N3460 X127.9 Y43. I0. J-.1
N3470 X128. Y42.9 I.1 J0.
N3480 X128.1 Y43. I0. J.1
N3490 G1 Z-6.2 F150.
N3500 G3 X128. Y43.1 I-.1 J0. F500.
N3510 X127.9 Y43. I0. J-.1
N3520 X128. Y42.9 I.1 J0.
N3530 X128.1 Y43. I0. J.1
N3540 G0 Z-1.2
N3550 Z5.
N3560 X55.2 Y412.
N3570 G1 Z-2.067 F150.
N3580 G3 X55. Y412.2 I-.2 J0. F500.
N3590 X54.8 Y412. I0. J-.2
N3600 X55. Y411.8 I.2 J0.
N3610 X55.2 Y412. I0. J.2
N3620 G1 Z-4.133 F150.
N3630 G3 X55. Y412.2 I-.2 J0. F500.
N3640 X54.8 Y412. I0. J-.2
N3650 X55. Y411.8 I.2 J0.
N3660 X55.2 Y412. I0. J.2
N3670 G1 Z-6.2 F150.
N3680 G3 X55. Y412.2 I-.2 J0. F500.
N3690 X54.8 Y412. I0. J-.2
N3700 X55. Y411.8 I.2 J0.
N3710 X55.2 Y412. I0. J.2
N3720 G0 Z-1.2
N3730 Z5.
N3740 X340.597 Y321.1
N3750 G1 Z-2.067 F150.
N3760 Y312.6 F500.
N3770 G3 X340.851 Y312.346 I.254 J0.
N3780 X341.104 Y312.6 I0. J.254
N3790 G1 X341.103 Y321.1
N3800 G3 X340.85 Y321.353 I-.253 J0.
N3810 X340.597 Y321.1 I0. J-.253
N3820 G1 Z-4.133 F150.
N3830 Y312.6 F500.
N3840 G3 X340.851 Y312.346 I.254 J0.
N3850 X341.104 Y312.6 I0. J.254
N3860 G1 X341.103 Y321.1
N3870 G3 X340.85 Y321.353 I-.253 J0.
N3880 X340.597 Y321.1 I0. J-.253
N3890 G1 Z-6.2 F150.
N3900 Y312.6 F500.
N3910 G3 X340.851 Y312.346 I.254 J0.
N3920 X341.104 Y312.6 I0. J.254
N3930 G1 X341.103 Y321.1
N3940 G3 X340.85 Y321.353 I-.253 J0.
N3950 X340.597 Y321.1 I0. J-.253
N3960 G0 Z-1.2
N3970 Z5.
N3980 Y290.1
N3990 G1 Z-2.067 F150.
N4000 Y281.6 F500.
N4010 G3 X340.851 Y281.346 I.254 J0.
N4020 X341.104 Y281.6 I0. J.254
N4030 G1 X341.103 Y290.1
N4040 G3 X340.85 Y290.353 I-.253 J0.
N4050 X340.597 Y290.1 I0. J-.253
N4060 G1 Z-4.133 F150.
N4070 Y281.6 F500.
N4080 G3 X340.851 Y281.346 I.254 J0.
N4090 X341.104 Y281.6 I0. J.254
N4100 G1 X341.103 Y290.1
N4110 G3 X340.85 Y290.353 I-.253 J0.
N4120 X340.597 Y290.1 I0. J-.253
N4130 G1 Z-6.2 F150.
N4140 Y281.6 F500.
N4150 G3 X340.851 Y281.346 I.254 J0.
N4160 X341.104 Y281.6 I0. J.254
N4170 G1 X341.103 Y290.1
N4180 G3 X340.85 Y290.353 I-.253 J0.
N4190 X340.597 Y290.1 I0. J-.253
N4200 G0 Z-1.2
N4210 Z5.
N4220 X371.597
N4230 G1 Z-2.067 F150.
N4240 Y281.6 F500.
N4250 G3 X371.851 Y281.346 I.254 J0.
N4260 X372.104 Y281.6 I0. J.254
N4270 G1 X372.103 Y290.1
N4280 G3 X371.85 Y290.353 I-.253 J0.
N4290 X371.597 Y290.1 I0. J-.253
N4300 G1 Z-4.133 F150.
N4310 Y281.6 F500.
N4320 G3 X371.851 Y281.346 I.254 J0.
N4330 X372.104 Y281.6 I0. J.254
N4340 G1 X372.103 Y290.1
N4350 G3 X371.85 Y290.353 I-.253 J0.
N4360 X371.597 Y290.1 I0. J-.253
N4370 G1 Z-6.2 F150.
N4380 Y281.6 F500.
N4390 G3 X371.851 Y281.346 I.254 J0.
N4400 X372.104 Y281.6 I0. J.254
N4410 G1 X372.103 Y290.1
N4420 G3 X371.85 Y290.353 I-.253 J0.
N4430 X371.597 Y290.1 I0. J-.253
N4440 G0 Z-1.2
N4450 Z5.
N4460 Y312.6
N4470 G1 Z-2.067 F150.
N4480 G3 X371.851 Y312.346 I.254 J0. F500.
N4490 X372.104 Y312.6 I0. J.254
N4500 G1 X372.103 Y321.1
N4510 G3 X371.85 Y321.353 I-.253 J0.
N4520 X371.597 Y321.1 I0. J-.253
N4530 G1 Y312.6
N4540 Z-4.133 F150.
N4550 G3 X371.851 Y312.346 I.254 J0. F500.
N4560 X372.104 Y312.6 I0. J.254
N4570 G1 X372.103 Y321.1
N4580 G3 X371.85 Y321.353 I-.253 J0.
N4590 X371.597 Y321.1 I0. J-.253
N4600 G1 Y312.6
N4610 Z-6.2 F150.
N4620 G3 X371.851 Y312.346 I.254 J0. F500.
N4630 X372.104 Y312.6 I0. J.254
N4640 G1 X372.103 Y321.1
N4650 G3 X371.85 Y321.353 I-.253 J0.
N4660 X371.597 Y321.1 I0. J-.253
N4670 G1 Y312.6
N4680 G0 Z5.
N4690 X47.45 Y238.6
N4700 G1 Z-2.067 F150.
N4710 G3 X37.85 Y248.2 I-9.6 J0. F500.
N4720 X28.25 Y238.6 I0. J-9.6
N4730 X37.85 Y229. I9.6 J0.
N4740 X47.45 Y238.6 I0. J9.6
N4750 G1 Z-4.133 F150.
N4760 G3 X37.85 Y248.2 I-9.6 J0. F500.
N4770 X28.25 Y238.6 I0. J-9.6
N4780 X37.85 Y229. I9.6 J0.
N4790 X47.45 Y238.6 I0. J9.6
N4800 G1 Z-6.2 F150.
N4810 G3 X37.85 Y248.2 I-9.6 J0. F500.
N4820 X28.25 Y238.6 I0. J-9.6
N4830 X37.85 Y229. I9.6 J0.
N4840 X47.45 Y238.6 I0. J9.6
N4850 G1 X47.95
N4860 G3 X37.85 Y248.7 I-10.1 J0.
N4870 X27.75 Y238.6 I0. J-10.1
N4880 X37.85 Y228.5 I10.1 J0.
N4890 X47.95 Y238.6 I0. J10.1
N4900 G0 Z-1.2
N4910 Z5.
N4920 X42.75 Y202.6
N4930 G1 Z-2.067 F150.
N4940 Y196.6 F500.
N4950 G3 X50.85 Y188.5 I8.1 J0.
N4960 X58.95 Y196.6 I0. J8.1
N4970 G1 Y202.6
N4980 G3 X50.85 Y210.7 I-8.1 J0.
N4990 X42.75 Y202.6 I0. J-8.1
N5000 G1 Z-4.133 F150.
N5010 Y196.6 F500.
N5020 G3 X50.85 Y188.5 I8.1 J0.
N5030 X58.95 Y196.6 I0. J8.1
N5040 G1 Y202.6
N5050 G3 X50.85 Y210.7 I-8.1 J0.
N5060 X42.75 Y202.6 I0. J-8.1
N5070 G1 Z-6.2 F150.
N5080 Y196.6 F500.
N5090 G3 X50.85 Y188.5 I8.1 J0.
N5100 X58.95 Y196.6 I0. J8.1
N5110 G1 Y202.6
N5120 G3 X50.85 Y210.7 I-8.1 J0.
N5130 X42.75 Y202.6 I0. J-8.1
N5140 G1 X42.25
N5150 Y196.6
N5160 G3 X50.85 Y188. I8.6 J0.
N5170 X59.45 Y196.6 I0. J8.6
N5180 G1 Y202.6
N5190 G3 X50.85 Y211.2 I-8.6 J0.
N5200 X42.25 Y202.6 I0. J-8.6
N5210 G0 Z-1.2
N5220 Z5.
N5230 X167.703 Y209.666
N5240 G1 Z-2.067 F150.
N5250 X170.171 F500.
N5260 G2 X169.51 Y215. I21.179 J5.334
N5270 X169.84 Y218.784 I21.84 J0.
N5280 G1 X167.406
N5290 G3 X167.109 Y215. I23.944 J-3.784
N5300 X167.703 Y209.666 I24.241 J0.
N5310 G1 Z-4.133 F150.
N5320 X170.171 F500.
N5330 G2 X169.51 Y215. I21.179 J5.334
N5340 X169.84 Y218.784 I21.84 J0.
N5350 G1 X167.406
N5360 G3 X167.109 Y215. I23.944 J-3.784
N5370 X167.703 Y209.666 I24.241 J0.
N5380 G1 Z-6.2 F150.
N5390 X170.171 F500.
N5400 G2 X169.51 Y215. I21.179 J5.334
N5410 X169.84 Y218.784 I21.84 J0.
N5420 G1 X167.406
N5430 G3 X167.109 Y215. I23.944 J-3.784
N5440 X167.703 Y209.666 I24.241 J0.
N5450 G1 X167.279 Y209.282
N5460 G3 X167.425 Y209.166 I.146 J.034
N5470 G1 X170.624
N5480 G3 X170.774 Y209.316 I0. J.15
N5490 X170.769 Y209.356 I-.15 J0.
N5500 G2 X170.009 Y215. I20.581 J5.644
N5510 X170.408 Y219.105 I21.341 J0.
N5520 G3 X170.411 Y219.134 I-.148 J.029
N5530 X170.26 Y219.284 I-.151 J0.
N5540 G1 X167.109
N5550 G3 X166.961 Y219.159 I0. J-.15
N5560 X166.609 Y215. I24.389 J-4.159
N5570 X167.279 Y209.282 I24.741 J0.
N5580 G0 Z-1.2
N5590 Z5.
N5600 X175.498 Y226.507
N5610 G1 Z-2.067 F150.
N5620 X207.202 F500.
N5630 X206.62 Y233.157
N5640 G3 X191.35 Y238.724 I-15.27 J-18.157
N5650 X176.08 Y233.157 I0. J-23.724
N5660 G1 X175.498 Y226.507
N5670 Z-4.133 F150.
N5680 X207.202 F500.
N5690 X206.62 Y233.157
N5700 G3 X191.35 Y238.724 I-15.27 J-18.157
N5710 X176.08 Y233.157 I0. J-23.724
N5720 G1 X175.498 Y226.507
N5730 Z-6.2 F150.
N5740 X207.202 F500.
N5750 X206.62 Y233.157
N5760 G3 X191.35 Y238.724 I-15.27 J-18.157
N5770 X176.08 Y233.157 I0. J-23.724
N5780 G1 X175.498 Y226.507
N5790 X175.117 Y226.007
N5800 X207.583
N5810 G3 X207.733 Y226.157 I0. J.15
N5820 G1 X207.732 Y226.17
N5830 X207.105 Y233.344
N5840 G3 X207.053 Y233.445 I-.149 J-.013
N5850 X191.35 Y239.224 I-15.703 J-18.445
N5860 X175.647 Y233.445 I0. J-24.224
N5870 X175.595 Y233.344 I.097 J-.114
N5880 G1 X174.967 Y226.17
N5890 G3 X174.966 Y226.157 I.15 J-.013
N5900 X175.117 Y226.007 I.151 J0.
N5910 G0 Z-1.2
N5920 Z5.
N5930 X212.86 Y218.784
N5940 G1 Z-2.067 F150.
N5950 G2 X213.19 Y215. I-21.51 J-3.784 F500.
N5960 X212.529 Y209.666 I-21.84 J0.
N5970 G1 X214.997
N5980 G3 X215.591 Y215. I-23.647 J5.334
N5990 X215.294 Y218.784 I-24.241 J0.
N6000 G1 X212.86
N6010 Z-4.133 F150.
N6020 G2 X213.19 Y215. I-21.51 J-3.784 F500.
N6030 X212.529 Y209.666 I-21.84 J0.
N6040 G1 X214.997
N6050 G3 X215.591 Y215. I-23.647 J5.334
N6060 X215.294 Y218.784 I-24.241 J0.
N6070 G1 X212.86
N6080 Z-6.2 F150.
N6090 G2 X213.19 Y215. I-21.51 J-3.784 F500.
N6100 X212.529 Y209.666 I-21.84 J0.
N6110 G1 X214.997
N6120 G3 X215.591 Y215. I-23.647 J5.334
N6130 X215.294 Y218.784 I-24.241 J0.
N6140 G1 X212.86
N6150 X212.292 Y219.105
N6160 G2 X212.691 Y215. I-20.942 J-4.105
N6170 X211.931 Y209.356 I-21.341 J0.
N6180 G3 X211.926 Y209.316 I.145 J-.04
N6190 X212.076 Y209.166 I.15 J0.
N6200 G1 X215.275
N6210 G3 X215.421 Y209.282 I0. J.15
N6220 X216.091 Y215. I-24.071 J5.718
N6230 X215.739 Y219.159 I-24.741 J0.
N6240 X215.591 Y219.284 I-.148 J-.025
N6250 G1 X212.44
N6260 G3 X212.29 Y219.134 I0. J-.15
N6270 X212.292 Y219.105 I.15 J0.
N6280 G0 Z-1.2
N6290 Z5.
N6300 X335.25 Y238.6
N6310 G1 Z-2.067 F150.
N6320 G3 X344.85 Y229. I9.6 J0. F500.
N6330 X354.45 Y238.6 I0. J9.6
N6340 X344.85 Y248.2 I-9.6 J0.
N6350 X335.25 Y238.6 I0. J-9.6
N6360 G1 Z-4.133 F150.
N6370 G3 X344.85 Y229. I9.6 J0. F500.
N6380 X354.45 Y238.6 I0. J9.6
N6390 X344.85 Y248.2 I-9.6 J0.
N6400 X335.25 Y238.6 I0. J-9.6
N6410 G1 Z-6.2 F150.
N6420 G3 X344.85 Y229. I9.6 J0. F500.
N6430 X354.45 Y238.6 I0. J9.6
N6440 X344.85 Y248.2 I-9.6 J0.
N6450 X335.25 Y238.6 I0. J-9.6
N6460 G1 X334.75
N6470 G3 X344.85 Y228.5 I10.1 J0.
N6480 X354.95 Y238.6 I0. J10.1
N6490 X344.85 Y248.7 I-10.1 J0.
N6500 X334.75 Y238.6 I0. J-10.1
N6510 G0 Z-1.2
N6520 Z5.
N6530 X360.2 Y379.6
N6540 G1 Z-2.067 F150.
N6550 G3 X357.85 Y381.95 I-2.35 J0. F500.
N6560 X355.5 Y379.6 I0. J-2.35
N6570 X357.85 Y377.25 I2.35 J0.
N6580 X360.2 Y379.6 I0. J2.35
N6590 G1 Z-4.133 F150.
N6600 G3 X357.85 Y381.95 I-2.35 J0. F500.
N6610 X355.5 Y379.6 I0. J-2.35
N6620 X357.85 Y377.25 I2.35 J0.
N6630 X360.2 Y379.6 I0. J2.35
N6640 G1 Z-6.2 F150.
N6650 G3 X357.85 Y381.95 I-2.35 J0. F500.
N6660 X355.5 Y379.6 I0. J-2.35
N6670 X357.85 Y377.25 I2.35 J0.
N6680 X360.2 Y379.6 I0. J2.35
N6690 G1 X360.7
N6700 G3 X357.85 Y382.45 I-2.85 J0.
N6710 X355. Y379.6 I0. J-2.85
N6720 X357.85 Y376.75 I2.85 J0.
N6730 X360.7 Y379.6 I0. J2.85
N6740 G0 Z-1.2
N6750 Z5.
N6760 X30.35
N6770 G1 Z-2.067 F150.
N6780 G3 X28. Y381.95 I-2.35 J0. F500.
N6790 X25.65 Y379.6 I0. J-2.35
N6800 X28. Y377.25 I2.35 J0.
N6810 X30.35 Y379.6 I0. J2.35
N6820 G1 Z-4.133 F150.
N6830 G3 X28. Y381.95 I-2.35 J0. F500.
N6840 X25.65 Y379.6 I0. J-2.35
N6850 X28. Y377.25 I2.35 J0.
N6860 X30.35 Y379.6 I0. J2.35
N6870 G1 Z-6.2 F150.
N6880 G3 X28. Y381.95 I-2.35 J0. F500.
N6890 X25.65 Y379.6 I0. J-2.35
N6900 X28. Y377.25 I2.35 J0.
N6910 X30.35 Y379.6 I0. J2.35
N6920 G1 X30.85
N6930 G3 X28. Y382.45 I-2.85 J0.
N6940 X25.15 Y379.6 I0. J-2.85
N6950 X28. Y376.75 I2.85 J0.
N6960 X30.85 Y379.6 I0. J2.85
N6970 G0 Z-1.2
N6980 Z5.
N6990 X26.9 Y55.1
N7000 G1 Z-2.067 F150.
N7010 Y30.9 F500.
N7020 X71.1
N7030 Y55.1
N7040 X26.9
N7050 Z-4.133 F150.
N7060 Y30.9 F500.
N7070 X71.1
N7080 Y55.1
N7090 X26.9
N7100 Z-6.2 F150.
N7110 Y30.9 F500.
N7120 X71.1
N7130 Y55.1
N7140 X26.9
N7150 X26.4 Y55.6
N7160 Y30.4
N7170 X71.6
N7180 Y55.6
N7190 X26.4
N7200 G0 Z-1.2
N7210 Z5.
N7220 X108.9 Y46.268
N7230 G1 Z-2.067 F150.
N7240 Y38.068 F500.
N7250 X117.1
N7260 Y46.268
N7270 X108.9
N7280 Z-4.133 F150.
N7290 Y38.068 F500.
N7300 X117.1
N7310 Y46.268
N7320 X108.9
N7330 Z-6.2 F150.
N7340 Y38.068 F500.
N7350 X117.1
N7360 Y46.268
N7370 X108.9
N7380 X108.4 Y46.768
N7390 Y37.568
N7400 X117.6
N7410 Y46.768
N7420 X108.4
N7430 G0 Z5.
N7440 X247.547 Y341.753
N7450 G1 Z-2.067 F150.
N7460 G3 X247.35 Y341.95 I-.197 J0. F500.
N7470 X247.153 Y341.753 I0. J-.197
N7480 G1 Y318.585
N7490 G3 X247.35 Y318.388 I.197 J0.
N7500 X247.547 Y318.585 I0. J.197
N7510 G1 Y341.753
N7520 Z-4.133 F150.
N7530 G3 X247.35 Y341.95 I-.197 J0. F500.
N7540 X247.153 Y341.753 I0. J-.197
N7550 G1 Y318.585
N7560 G3 X247.35 Y318.388 I.197 J0.
N7570 X247.547 Y318.585 I0. J.197
N7580 G1 Y341.753
N7590 Z-6.2 F150.
N7600 G3 X247.35 Y341.95 I-.197 J0. F500.
N7610 X247.153 Y341.753 I0. J-.197
N7620 G1 Y318.585
N7630 G3 X247.35 Y318.388 I.197 J0.
N7640 X247.547 Y318.585 I0. J.197
N7650 G1 Y341.753
N7660 G0 Z5.
N7670 X311.85 Y413.975
N7680 G1 Z-2.2 F150.
N7690 X301.85 F500.
N7700 G3 X301.375 Y413.5 I0. J-.475
N7710 X301.85 Y413.025 I.475 J0.
N7720 G1 X311.85
N7730 G3 X312.325 Y413.5 I0. J.475
N7740 X311.85 Y413.975 I-.475 J0.
N7750 G1 Y414.7
N7760 X301.85
N7770 G3 X300.65 Y413.5 I0. J-1.2
N7780 X301.85 Y412.3 I1.2 J0.
N7790 G1 X311.85
N7800 G3 X313.05 Y413.5 I0. J1.2
N7810 X311.85 Y414.7 I-1.2 J0.
N7820 G1 Y413.975
N7830 Z-4.4 F150.
N7840 X301.85 F500.
N7850 G3 X301.375 Y413.5 I0. J-.475
N7860 X301.85 Y413.025 I.475 J0.
N7870 G1 X311.85
N7880 G3 X312.325 Y413.5 I0. J.475
N7890 X311.85 Y413.975 I-.475 J0.
N7900 G1 Y414.7
N7910 X301.85
N7920 G3 X300.65 Y413.5 I0. J-1.2
N7930 X301.85 Y412.3 I1.2 J0.
N7940 G1 X311.85
N7950 G3 X313.05 Y413.5 I0. J1.2
N7960 X311.85 Y414.7 I-1.2 J0.
N7970 G1 Y415.2
N7980 F150.
N7990 X301.85 F500.
N8000 G3 X300.15 Y413.5 I0. J-1.7
N8010 X301.85 Y411.8 I1.7 J0.
N8020 G1 X311.85
N8030 G3 X313.55 Y413.5 I0. J1.7
N8040 X311.85 Y415.2 I-1.7 J0.
N8050 G0 Z.6
N8060 Z5.
N8070 X358.15 Y379.6
N8080 G1 Z-2.2 F150.
N8090 G3 X357.85 Y379.9 I-.3 J0. F500.
N8100 X357.55 Y379.6 I0. J-.3
N8110 X357.85 Y379.3 I.3 J0.
N8120 X358.15 Y379.6 I0. J.3
N8130 G1 X359.6
N8140 G3 X357.85 Y381.35 I-1.75 J0.
N8150 X356.1 Y379.6 I0. J-1.75
N8160 X357.85 Y377.85 I1.75 J0.
N8170 X359.6 Y379.6 I0. J1.75
N8180 G1 X361.05
N8190 G3 X357.85 Y382.8 I-3.2 J0.
N8200 X354.65 Y379.6 I0. J-3.2
N8210 X357.85 Y376.4 I3.2 J0.
N8220 X361.05 Y379.6 I0. J3.2
N8230 G1 X362.5
N8240 G3 X357.85 Y384.25 I-4.65 J0.
N8250 X353.2 Y379.6 I0. J-4.65
N8260 X357.85 Y374.95 I4.65 J0.
N8270 X362.5 Y379.6 I0. J4.65
N8280 G1 X363.95
N8290 G3 X357.85 Y385.7 I-6.1 J0.
N8300 X351.75 Y379.6 I0. J-6.1
N8310 X357.85 Y373.5 I6.1 J0.
N8320 X363.95 Y379.6 I0. J6.1
N8330 G1 X358.15
N8340 Z-4.4 F150.
N8350 G3 X357.85 Y379.9 I-.3 J0. F500.
N8360 X357.55 Y379.6 I0. J-.3
N8370 X357.85 Y379.3 I.3 J0.
N8380 X358.15 Y379.6 I0. J.3
N8390 G1 X359.6
N8400 G3 X357.85 Y381.35 I-1.75 J0.
N8410 X356.1 Y379.6 I0. J-1.75
N8420 X357.85 Y377.85 I1.75 J0.
N8430 X359.6 Y379.6 I0. J1.75
N8440 G1 X361.05
N8450 G3 X357.85 Y382.8 I-3.2 J0.
N8460 X354.65 Y379.6 I0. J-3.2
N8470 X357.85 Y376.4 I3.2 J0.
N8480 X361.05 Y379.6 I0. J3.2
N8490 G1 X362.5
N8500 G3 X357.85 Y384.25 I-4.65 J0.
N8510 X353.2 Y379.6 I0. J-4.65
N8520 X357.85 Y374.95 I4.65 J0.
N8530 X362.5 Y379.6 I0. J4.65
N8540 G1 X363.95
N8550 G3 X357.85 Y385.7 I-6.1 J0.
N8560 X351.75 Y379.6 I0. J-6.1
N8570 X357.85 Y373.5 I6.1 J0.
N8580 X363.95 Y379.6 I0. J6.1
N8590 G1 X364.45
N8600 F150.
N8610 G3 X357.85 Y386.2 I-6.6 J0. F500.
N8620 X351.25 Y379.6 I0. J-6.6
N8630 X357.85 Y373. I6.6 J0.
N8640 X364.45 Y379.6 I0. J6.6
N8650 G0 Z.6
N8660 Z5.
N8670 X221.35 Y413.025
N8680 G1 Z-2.2 F150.
N8690 G3 X221.825 Y413.5 I0. J.475 F500.
N8700 X221.35 Y413.975 I-.475 J0.
N8710 G1 X211.35
N8720 G3 X210.875 Y413.5 I0. J-.475
N8730 X211.35 Y413.025 I.475 J0.
N8740 G1 X221.35
N8750 Y412.3
N8760 G3 X222.55 Y413.5 I0. J1.2
N8770 X221.35 Y414.7 I-1.2 J0.
N8780 G1 X211.35
N8790 G3 X210.15 Y413.5 I0. J-1.2
N8800 X211.35 Y412.3 I1.2 J0.
N8810 G1 X221.35
N8820 Y413.025
N8830 Z-4.4 F150.
N8840 G3 X221.825 Y413.5 I0. J.475 F500.
N8850 X221.35 Y413.975 I-.475 J0.
N8860 G1 X211.35
N8870 G3 X210.875 Y413.5 I0. J-.475
N8880 X211.35 Y413.025 I.475 J0.
N8890 G1 X221.35
N8900 Y412.3
N8910 G3 X222.55 Y413.5 I0. J1.2
N8920 X221.35 Y414.7 I-1.2 J0.
N8930 G1 X211.35
N8940 G3 X210.15 Y413.5 I0. J-1.2
N8950 X211.35 Y412.3 I1.2 J0.
N8960 G1 X221.35
N8970 Y411.8
N8980 F150.
N8990 G3 X223.05 Y413.5 I0. J1.7 F500.
N9000 X221.35 Y415.2 I-1.7 J0.
N9010 G1 X211.35
N9020 G3 X209.65 Y413.5 I0. J-1.7
N9030 X211.35 Y411.8 I1.7 J0.
N9040 G1 X221.35
N9050 G0 Z.6
N9060 Z5.
N9070 X171.35 Y413.025
N9080 G1 Z-2.2 F150.
N9090 G3 X171.825 Y413.5 I0. J.475 F500.
N9100 X171.35 Y413.975 I-.475 J0.
N9110 G1 X161.35
N9120 G3 X160.875 Y413.5 I0. J-.475
N9130 X161.35 Y413.025 I.475 J0.
N9140 G1 X171.35
N9150 Y412.3
N9160 G3 X172.55 Y413.5 I0. J1.2
N9170 X171.35 Y414.7 I-1.2 J0.
N9180 G1 X161.35
N9190 G3 X160.15 Y413.5 I0. J-1.2
N9200 X161.35 Y412.3 I1.2 J0.
N9210 G1 X171.35
N9220 Y413.025
N9230 Z-4.4 F150.
N9240 G3 X171.825 Y413.5 I0. J.475 F500.
N9250 X171.35 Y413.975 I-.475 J0.
N9260 G1 X161.35
N9270 G3 X160.875 Y413.5 I0. J-.475
N9280 X161.35 Y413.025 I.475 J0.
N9290 G1 X171.35
N9300 Y412.3
N9310 G3 X172.55 Y413.5 I0. J1.2
N9320 X171.35 Y414.7 I-1.2 J0.
N9330 G1 X161.35
N9340 G3 X160.15 Y413.5 I0. J-1.2
N9350 X161.35 Y412.3 I1.2 J0.
N9360 G1 X171.35
N9370 Y411.8
N9380 F150.
N9390 G3 X173.05 Y413.5 I0. J1.7 F500.
N9400 X171.35 Y415.2 I-1.7 J0.
N9410 G1 X161.35
N9420 G3 X159.65 Y413.5 I0. J-1.7
N9430 X161.35 Y411.8 I1.7 J0.
N9440 G1 X171.35
N9450 G0 Z.6
N9460 Z5.
N9470 X80.85 Y413.025
N9480 G1 Z-2.2 F150.
N9490 G3 X81.325 Y413.5 I0. J.475 F500.
N9500 X80.85 Y413.975 I-.475 J0.
N9510 G1 X70.85
N9520 G3 X70.375 Y413.5 I0. J-.475
N9530 X70.85 Y413.025 I.475 J0.
N9540 G1 X80.85
N9550 Y412.3
N9560 G3 X82.05 Y413.5 I0. J1.2
N9570 X80.85 Y414.7 I-1.2 J0.
N9580 G1 X70.85
N9590 G3 X69.65 Y413.5 I0. J-1.2
N9600 X70.85 Y412.3 I1.2 J0.
N9610 G1 X80.85
N9620 Y413.025
N9630 Z-4.4 F150.
N9640 G3 X81.325 Y413.5 I0. J.475 F500.
N9650 X80.85 Y413.975 I-.475 J0.
N9660 G1 X70.85
N9670 G3 X70.375 Y413.5 I0. J-.475
N9680 X70.85 Y413.025 I.475 J0.
N9690 G1 X80.85
N9700 Y412.3
N9710 G3 X82.05 Y413.5 I0. J1.2
N9720 X80.85 Y414.7 I-1.2 J0.
N9730 G1 X70.85
N9740 G3 X69.65 Y413.5 I0. J-1.2
N9750 X70.85 Y412.3 I1.2 J0.
N9760 G1 X80.85
N9770 Y411.8
N9780 F150.
N9790 G3 X82.55 Y413.5 I0. J1.7 F500.
N9800 X80.85 Y415.2 I-1.7 J0.
N9810 G1 X70.85
N9820 G3 X69.15 Y413.5 I0. J-1.7
N9830 X70.85 Y411.8 I1.7 J0.
N9840 G1 X80.85
N9850 G0 Z.6
N9860 Z5.
N9870 X28.3 Y379.6
N9880 G1 Z-2.2 F150.
N9890 G3 X28. Y379.9 I-.3 J0. F500.
N9900 X27.7 Y379.6 I0. J-.3
N9910 X28. Y379.3 I.3 J0.
N9920 X28.3 Y379.6 I0. J.3
N9930 G1 X29.75
N9940 G3 X28. Y381.35 I-1.75 J0.
N9950 X26.25 Y379.6 I0. J-1.75
N9960 X28. Y377.85 I1.75 J0.
N9970 X29.75 Y379.6 I0. J1.75
N9980 G1 X31.2
N9990 G3 X28. Y382.8 I-3.2 J0.
N100 X24.8 Y379.6 I0. J-3.2
N110 X28. Y376.4 I3.2 J0.
N120 X31.2 Y379.6 I0. J3.2
N130 G1 X32.65
N140 G3 X28. Y384.25 I-4.65 J0.
N150 X23.35 Y379.6 I0. J-4.65
N160 X28. Y374.95 I4.65 J0.
N170 X32.65 Y379.6 I0. J4.65
N180 G1 X34.1
N190 G3 X28. Y385.7 I-6.1 J0.
N200 X21.9 Y379.6 I0. J-6.1
N210 X28. Y373.5 I6.1 J0.
N220 X34.1 Y379.6 I0. J6.1
N230 G1 X28.3
N240 Z-4.4 F150.
N250 G3 X28. Y379.9 I-.3 J0. F500.
N260 X27.7 Y379.6 I0. J-.3
N270 X28. Y379.3 I.3 J0.
N280 X28.3 Y379.6 I0. J.3
N290 G1 X29.75
N300 G3 X28. Y381.35 I-1.75 J0.
N310 X26.25 Y379.6 I0. J-1.75
N320 X28. Y377.85 I1.75 J0.
N330 X29.75 Y379.6 I0. J1.75
N340 G1 X31.2
N350 G3 X28. Y382.8 I-3.2 J0.
N360 X24.8 Y379.6 I0. J-3.2
N370 X28. Y376.4 I3.2 J0.
N380 X31.2 Y379.6 I0. J3.2
N390 G1 X32.65
N400 G3 X28. Y384.25 I-4.65 J0.
N410 X23.35 Y379.6 I0. J-4.65
N420 X28. Y374.95 I4.65 J0.
N430 X32.65 Y379.6 I0. J4.65
N440 G1 X34.1
N450 G3 X28. Y385.7 I-6.1 J0.
N460 X21.9 Y379.6 I0. J-6.1
N470 X28. Y373.5 I6.1 J0.
N480 X34.1 Y379.6 I0. J6.1
N490 G1 X34.6
N500 F150.
N510 G3 X28. Y386.2 I-6.6 J0. F500.
N520 X21.4 Y379.6 I0. J-6.6
N530 X28. Y373. I6.6 J0.
N540 X34.6 Y379.6 I0. J6.6
N550 G0 Z.6
N560 Z5.
N570 X70.85 Y71.975
N580 G1 Z-2.2 F150.
N590 G3 X70.375 Y71.5 I0. J-.475 F500.
N600 X70.85 Y71.025 I.475 J0.
N610 G1 X80.85
N620 G3 X81.325 Y71.5 I0. J.475
N630 X80.85 Y71.975 I-.475 J0.
N640 G1 X70.85
N650 Y72.7
N660 G3 X69.65 Y71.5 I0. J-1.2
N670 X70.85 Y70.3 I1.2 J0.
N680 G1 X80.85
N690 G3 X82.05 Y71.5 I0. J1.2
N700 X80.85 Y72.7 I-1.2 J0.
N710 G1 X70.85
N720 Y71.975
N730 Z-4.4 F150.
N740 G3 X70.375 Y71.5 I0. J-.475 F500.
N750 X70.85 Y71.025 I.475 J0.
N760 G1 X80.85
N770 G3 X81.325 Y71.5 I0. J.475
N780 X80.85 Y71.975 I-.475 J0.
N790 G1 X70.85
N800 Y72.7
N810 G3 X69.65 Y71.5 I0. J-1.2
N820 X70.85 Y70.3 I1.2 J0.
N830 G1 X80.85
N840 G3 X82.05 Y71.5 I0. J1.2
N850 X80.85 Y72.7 I-1.2 J0.
N860 G1 X70.85
N870 Y73.2
N880 F150.
N890 G3 X69.15 Y71.5 I0. J-1.7 F500.
N900 X70.85 Y69.8 I1.7 J0.
N910 G1 X80.85
N920 G3 X82.55 Y71.5 I0. J1.7
N930 X80.85 Y73.2 I-1.7 J0.
N940 G1 X70.85
N950 G0 Z.6
N960 Z5.
N970 X161.35 Y71.975
N980 G1 Z-2.2 F150.
N990 G3 X160.875 Y71.5 I0. J-.475 F500.
N1000 X161.35 Y71.025 I.475 J0.
N1010 G1 X171.35
N1020 G3 X171.825 Y71.5 I0. J.475
N1030 X171.35 Y71.975 I-.475 J0.
N1040 G1 X161.35
N1050 Y72.7
N1060 G3 X160.15 Y71.5 I0. J-1.2
N1070 X161.35 Y70.3 I1.2 J0.
N1080 G1 X171.35
N1090 G3 X172.55 Y71.5 I0. J1.2
N1100 X171.35 Y72.7 I-1.2 J0.
N1110 G1 X161.35
N1120 Y71.975
N1130 Z-4.4 F150.
N1140 G3 X160.875 Y71.5 I0. J-.475 F500.
N1150 X161.35 Y71.025 I.475 J0.
N1160 G1 X171.35
N1170 G3 X171.825 Y71.5 I0. J.475
N1180 X171.35 Y71.975 I-.475 J0.
N1190 G1 X161.35
N1200 Y72.7
N1210 G3 X160.15 Y71.5 I0. J-1.2
N1220 X161.35 Y70.3 I1.2 J0.
N1230 G1 X171.35
N1240 G3 X172.55 Y71.5 I0. J1.2
N1250 X171.35 Y72.7 I-1.2 J0.
N1260 G1 X161.35
N1270 Y73.2
N1280 F150.
N1290 G3 X159.65 Y71.5 I0. J-1.7 F500.
N1300 X161.35 Y69.8 I1.7 J0.
N1310 G1 X171.35
N1320 G3 X173.05 Y71.5 I0. J1.7
N1330 X171.35 Y73.2 I-1.7 J0.
N1340 G1 X161.35
N1350 G0 Z.6
N1360 Z5.
N1370 X211.35 Y71.975
N1380 G1 Z-2.2 F150.
N1390 G3 X210.875 Y71.5 I0. J-.475 F500.
N1400 X211.35 Y71.025 I.475 J0.
N1410 G1 X221.35
N1420 G3 X221.825 Y71.5 I0. J.475
N1430 X221.35 Y71.975 I-.475 J0.
N1440 G1 X211.35
N1450 Y72.7
N1460 G3 X210.15 Y71.5 I0. J-1.2
N1470 X211.35 Y70.3 I1.2 J0.
N1480 G1 X221.35
N1490 G3 X222.55 Y71.5 I0. J1.2
N1500 X221.35 Y72.7 I-1.2 J0.
N1510 G1 X211.35
N1520 Y71.975
N1530 Z-4.4 F150.
N1540 G3 X210.875 Y71.5 I0. J-.475 F500.
N1550 X211.35 Y71.025 I.475 J0.
N1560 G1 X221.35
N1570 G3 X221.825 Y71.5 I0. J.475
N1580 X221.35 Y71.975 I-.475 J0.
N1590 G1 X211.35
N1600 Y72.7
N1610 G3 X210.15 Y71.5 I0. J-1.2
N1620 X211.35 Y70.3 I1.2 J0.
N1630 G1 X221.35
N1640 G3 X222.55 Y71.5 I0. J1.2
N1650 X221.35 Y72.7 I-1.2 J0.
N1660 G1 X211.35
N1670 Y73.2
N1680 F150.
N1690 G3 X209.65 Y71.5 I0. J-1.7 F500.
N1700 X211.35 Y69.8 I1.7 J0.
N1710 G1 X221.35
N1720 G3 X223.05 Y71.5 I0. J1.7
N1730 X221.35 Y73.2 I-1.7 J0.
N1740 G1 X211.35
N1750 G0 Z.6
N1760 Z5.
N1770 X301.85 Y71.975
N1780 G1 Z-2.2 F150.
N1790 G3 X301.375 Y71.5 I0. J-.475 F500.
N1800 X301.85 Y71.025 I.475 J0.
N1810 G1 X311.85
N1820 G3 X312.325 Y71.5 I0. J.475
N1830 X311.85 Y71.975 I-.475 J0.
N1840 G1 X301.85
N1850 Y72.7
N1860 G3 X300.65 Y71.5 I0. J-1.2
N1870 X301.85 Y70.3 I1.2 J0.
N1880 G1 X311.85
N1890 G3 X313.05 Y71.5 I0. J1.2
N1900 X311.85 Y72.7 I-1.2 J0.
N1910 G1 X301.85
N1920 Y71.975
N1930 Z-4.4 F150.
N1940 G3 X301.375 Y71.5 I0. J-.475 F500.
N1950 X301.85 Y71.025 I.475 J0.
N1960 G1 X311.85
N1970 G3 X312.325 Y71.5 I0. J.475
N1980 X311.85 Y71.975 I-.475 J0.
N1990 G1 X301.85
N2000 Y72.7
N2010 G3 X300.65 Y71.5 I0. J-1.2
N2020 X301.85 Y70.3 I1.2 J0.
N2030 G1 X311.85
N2040 G3 X313.05 Y71.5 I0. J1.2
N2050 X311.85 Y72.7 I-1.2 J0.
N2060 G1 X301.85
N2070 Y73.2
N2080 F150.
N2090 G3 X300.15 Y71.5 I0. J-1.7 F500.
N2100 X301.85 Y69.8 I1.7 J0.
N2110 G1 X311.85
N2120 G3 X313.55 Y71.5 I0. J1.7
N2130 X311.85 Y73.2 I-1.7 J0.
N2140 G1 X301.85
N2150 G0 Z.6
N2160 Z5.
N2170 X356.577 Y305.6
N2180 G1 Z-2.2 F150.
N2190 G3 X356.35 Y305.827 I-.227 J0. F500.
N2200 X356.123 Y305.6 I0. J-.227
N2210 G1 Y305.597
N2220 X356.221 Y297.149
N2230 G3 X356.399 Y296.973 I.178 J.002
N2240 X356.577 Y297.151 I0. J.178
N2250 G1 Y305.6
N2260 X358.027
N2270 G3 X356.35 Y307.277 I-1.677 J0.
N2280 X354.673 Y305.6 I0. J-1.677
N2290 G1 Y305.581
N2300 X354.772 Y297.132
N2310 G3 X356.399 Y295.524 I1.627 J.019
N2320 X358.027 Y297.151 I0. J1.627
N2330 G1 Y305.6
N2340 X359.477
N2350 G3 X356.35 Y308.727 I-3.127 J0.
N2360 X353.223 Y305.6 I0. J-3.127
N2370 X353.224 Y305.564 I3.127 J0.
N2380 G1 X353.322 Y297.115
N2390 G3 X356.399 Y294.074 I3.077 J.036
N2400 X359.477 Y297.151 I0. J3.077
N2410 G1 Y305.6
N2420 X360.927
N2430 G3 X356.35 Y310.177 I-4.577 J0.
N2440 X351.773 Y305.6 I0. J-4.577
N2450 X351.774 Y305.547 I4.577 J0.
N2460 G1 X351.872 Y297.098
N2470 G3 X356.399 Y292.624 I4.527 J.053
N2480 X360.927 Y297.151 I0. J4.527
N2490 G1 Y305.6
N2500 X362.377
N2510 G3 X356.35 Y311.627 I-6.027 J0.
N2520 X350.323 Y305.6 I0. J-6.027
N2530 X350.324 Y305.53 I6.027 J0.
N2540 G1 X350.422 Y297.081
N2550 G3 X356.399 Y291.174 I5.977 J.07
N2560 X362.377 Y297.151 I0. J5.977
N2570 G1 Y305.6
N2580 X363.827
N2590 G3 X356.35 Y313.077 I-7.477 J0.
N2600 X348.873 Y305.6 I0. J-7.477
N2610 X348.874 Y305.513 I7.477 J0.
N2620 G1 X348.972 Y297.064
N2630 G3 X356.399 Y289.723 I7.427 J.087
N2640 X363.827 Y297.151 I0. J7.428
N2650 G1 Y305.6
N2660 X365.277
N2670 G3 X356.35 Y314.527 I-8.927 J0.
N2680 X347.423 Y305.6 I0. J-8.927
N2690 X347.424 Y305.496 I8.927 J0.
N2700 G1 X347.522 Y297.048
N2710 G3 X356.399 Y288.273 I8.877 J.103
N2720 X365.277 Y297.151 I0. J8.878
N2730 G1 Y305.6
N2740 X366.727
N2750 G3 X356.35 Y315.977 I-10.377 J0.
N2760 X345.973 Y305.6 I0. J-10.377
N2770 X345.974 Y305.479 I10.377 J0.
N2780 G1 X346.072 Y297.031
N2790 G3 X356.399 Y286.823 I10.327 J.12
N2800 X366.727 Y297.151 I0. J10.328
N2810 G1 Y305.6
N2820 X356.577
N2830 Z-4.4 F150.
N2840 G3 X356.35 Y305.827 I-.227 J0. F500.
N2850 X356.123 Y305.6 I0. J-.227
N2860 G1 Y305.597
N2870 X356.221 Y297.149
N2880 G3 X356.399 Y296.973 I.178 J.002
N2890 X356.577 Y297.151 I0. J.178
N2900 G1 Y305.6
N2910 X358.027
N2920 G3 X356.35 Y307.277 I-1.677 J0.
N2930 X354.673 Y305.6 I0. J-1.677
N2940 G1 Y305.581
N2950 X354.772 Y297.132
N2960 G3 X356.399 Y295.524 I1.627 J.019
N2970 X358.027 Y297.151 I0. J1.627
N2980 G1 Y305.6
N2990 X359.477
N3000 G3 X356.35 Y308.727 I-3.127 J0.
N3010 X353.223 Y305.6 I0. J-3.127
N3020 X353.224 Y305.564 I3.127 J0.
N3030 G1 X353.322 Y297.115
N3040 G3 X356.399 Y294.074 I3.077 J.036
N3050 X359.477 Y297.151 I0. J3.077
N3060 G1 Y305.6
N3070 X360.927
N3080 G3 X356.35 Y310.177 I-4.577 J0.
N3090 X351.773 Y305.6 I0. J-4.577
N3100 X351.774 Y305.547 I4.577 J0.
N3110 G1 X351.872 Y297.098
N3120 G3 X356.399 Y292.624 I4.527 J.053
N3130 X360.927 Y297.151 I0. J4.527
N3140 G1 Y305.6
N3150 X362.377
N3160 G3 X356.35 Y311.627 I-6.027 J0.
N3170 X350.323 Y305.6 I0. J-6.027
N3180 X350.324 Y305.53 I6.027 J0.
N3190 G1 X350.422 Y297.081
N3200 G3 X356.399 Y291.174 I5.977 J.07
N3210 X362.377 Y297.151 I0. J5.977
N3220 G1 Y305.6
N3230 X363.827
N3240 G3 X356.35 Y313.077 I-7.477 J0.
N3250 X348.873 Y305.6 I0. J-7.477
N3260 X348.874 Y305.513 I7.477 J0.
N3270 G1 X348.972 Y297.064
N3280 G3 X356.399 Y289.723 I7.427 J.087
N3290 X363.827 Y297.151 I0. J7.428
N3300 G1 Y305.6
N3310 X365.277
N3320 G3 X356.35 Y314.527 I-8.927 J0.
N3330 X347.423 Y305.6 I0. J-8.927
N3340 X347.424 Y305.496 I8.927 J0.
N3350 G1 X347.522 Y297.048
N3360 G3 X356.399 Y288.273 I8.877 J.103
N3370 X365.277 Y297.151 I0. J8.878
N3380 G1 Y305.6
N3390 X366.727
N3400 G3 X356.35 Y315.977 I-10.377 J0.
N3410 X345.973 Y305.6 I0. J-10.377
N3420 X345.974 Y305.479 I10.377 J0.
N3430 G1 X346.072 Y297.031
N3440 G3 X356.399 Y286.823 I10.327 J.12
N3450 X366.727 Y297.151 I0. J10.328
N3460 G1 Y305.6
N3470 X367.227
N3480 F150.
N3490 G3 X356.35 Y316.477 I-10.877 J0. F500.
N3500 X345.473 Y305.6 I0. J-10.877
N3510 X345.474 Y305.474 I10.877 J0.
N3520 G1 X345.572 Y297.025
N3530 G3 X356.399 Y286.323 I10.827 J.126
N3540 X367.227 Y297.151 I0. J10.828
N3550 G1 Y305.6
N3560 G0 Z5.
N3570 X.1 Y368.25
N3580 G1 Z-2.2 F150.
N3590 X3. F500.
N3600 X9.5
N3610 G2 X10.961 Y367.089 I0. J-1.5
N3620 G3 X11.01 Y367.05 I.049 J.011
N3630 G1 X12.56
N3640 X12.578 Y367.053
N3650 G2 X13.366 Y368.256 I1.495 J-.12
N3660 G3 X13.393 Y368.3 I-.023 J.044
N3670 X13.366 Y368.344 I-.05 J0.
N3680 G2 X12.578 Y369.547 I.707 J1.323
N3690 G1 X12.56 Y369.55
N3700 X11.01
N3710 G3 X10.961 Y369.511 I0. J-.05
N3720 G2 X9.5 Y368.35 I-1.461 J.339
N3730 G1 X3.
N3740 X.1
N3750 Y368.25
N3760 Z-4.4 F150.
N3770 X3. F500.
N3780 X9.5
N3790 G2 X10.961 Y367.089 I0. J-1.5
N3800 G3 X11.01 Y367.05 I.049 J.011
N3810 G1 X12.56
N3820 X12.578 Y367.053
N3830 G2 X13.366 Y368.256 I1.495 J-.12
N3840 G3 X13.393 Y368.3 I-.023 J.044
N3850 X13.366 Y368.344 I-.05 J0.
N3860 G2 X12.578 Y369.547 I.707 J1.323
N3870 G1 X12.56 Y369.55
N3880 X11.01
N3890 G3 X10.961 Y369.511 I0. J-.05
N3900 G2 X9.5 Y368.35 I-1.461 J.339
N3910 G1 X3.
N3920 X.1
N3930 G0 Z.6
N3940 Z2.8
N3950 Y368.15
N3960 G1 Z-4.4 F150.
N3970 X3. F500.
N3980 X9.5
N3990 G2 X10.864 Y367.066 I0. J-1.4
N4000 G3 X11.01 Y366.95 I.146 J.034
N4010 G1 X12.56
N4020 G3 X12.675 Y367.004 I0. J.15
N4030 G2 X13.413 Y368.168 I1.398 J-.071
N4040 G3 X13.492 Y368.3 I-.07 J.132
N4050 X13.413 Y368.432 I-.149 J0.
N4060 G2 X12.675 Y369.596 I.66 J1.235
N4070 G3 X12.56 Y369.65 I-.115 J-.096
N4080 G1 X11.01
N4090 G3 X10.864 Y369.534 I0. J-.15
N4100 G2 X9.5 Y368.45 I-1.364 J.316
N4110 G1 X3.
N4120 X.1
N4130 G0 Z.6
N4140 Z5.
N4150 Y214.95
N4160 G1 Z-2.2 F150.
N4170 X3. F500.
N4180 X9.5
N4190 G2 X10.961 Y213.789 I0. J-1.5
N4200 G3 X11.01 Y213.75 I.049 J.011
N4210 G1 X12.56
N4220 X12.578 Y213.753
N4230 G2 X13.366 Y214.956 I1.495 J-.12
N4240 G3 X13.393 Y215. I-.023 J.044
N4250 X13.366 Y215.044 I-.05 J0.
N4260 G2 X12.578 Y216.247 I.707 J1.323
N4270 G1 X12.56 Y216.25
N4280 X11.01
N4290 G3 X10.961 Y216.211 I0. J-.05
N4300 G2 X9.5 Y215.05 I-1.461 J.339
N4310 G1 X3.
N4320 X.1
N4330 Y214.95
N4340 Z-4.4 F150.
N4350 X3. F500.
N4360 X9.5
N4370 G2 X10.961 Y213.789 I0. J-1.5
N4380 G3 X11.01 Y213.75 I.049 J.011
N4390 G1 X12.56
N4400 X12.578 Y213.753
N4410 G2 X13.366 Y214.956 I1.495 J-.12
N4420 G3 X13.393 Y215. I-.023 J.044
N4430 X13.366 Y215.044 I-.05 J0.
N4440 G2 X12.578 Y216.247 I.707 J1.323
N4450 G1 X12.56 Y216.25
N4460 X11.01
N4470 G3 X10.961 Y216.211 I0. J-.05
N4480 G2 X9.5 Y215.05 I-1.461 J.339
N4490 G1 X3.
N4500 X.1
N4510 G0 Z.6
N4520 Z2.8
N4530 Y214.85
N4540 G1 Z-4.4 F150.
N4550 X3. F500.
N4560 X9.5
N4570 G2 X10.864 Y213.766 I0. J-1.4
N4580 G3 X11.01 Y213.65 I.146 J.034
N4590 G1 X12.56
N4600 G3 X12.675 Y213.704 I0. J.15
N4610 G2 X13.413 Y214.868 I1.398 J-.071
N4620 G3 X13.492 Y215. I-.07 J.132
N4630 X13.413 Y215.132 I-.149 J0.
N4640 G2 X12.675 Y216.296 I.66 J1.235
N4650 G3 X12.56 Y216.35 I-.115 J-.096
N4660 G1 X11.01
N4670 G3 X10.864 Y216.234 I0. J-.15
N4680 G2 X9.5 Y215.15 I-1.364 J.316
N4690 G1 X3.
N4700 X.1
N4710 G0 Z.6
N4720 Z5.
N4730 Y61.65
N4740 G1 Z-2.2 F150.
N4750 X3. F500.
N4760 X9.5
N4770 G2 X10.961 Y60.489 I0. J-1.5
N4780 G3 X11.01 Y60.45 I.049 J.011
N4790 G1 X12.56
N4800 X12.578 Y60.453
N4810 G2 X13.366 Y61.656 I1.495 J-.12
N4820 G3 X13.393 Y61.7 I-.023 J.044
N4830 X13.366 Y61.744 I-.05 J0.
N4840 G2 X12.578 Y62.947 I.707 J1.323
N4850 G1 X12.56 Y62.95
N4860 X11.01
N4870 G3 X10.961 Y62.911 I0. J-.05
N4880 G2 X9.5 Y61.75 I-1.461 J.339
N4890 G1 X3.
N4900 X.1
N4910 Y61.65
N4920 Z-4.4 F150.
N4930 X3. F500.
N4940 X9.5
N4950 G2 X10.961 Y60.489 I0. J-1.5
N4960 G3 X11.01 Y60.45 I.049 J.011
N4970 G1 X12.56
N4980 X12.578 Y60.453
N4990 G2 X13.366 Y61.656 I1.495 J-.12
N5000 G3 X13.393 Y61.7 I-.023 J.044
N5010 X13.366 Y61.744 I-.05 J0.
N5020 G2 X12.578 Y62.947 I.707 J1.323
N5030 G1 X12.56 Y62.95
N5040 X11.01
N5050 G3 X10.961 Y62.911 I0. J-.05
N5060 G2 X9.5 Y61.75 I-1.461 J.339
N5070 G1 X3.
N5080 X.1
N5090 G0 Z.6
N5100 Z2.8
N5110 Y61.55
N5120 G1 Z-4.4 F150.
N5130 X3. F500.
N5140 X9.5
N5150 G2 X10.864 Y60.466 I0. J-1.4
N5160 G3 X11.01 Y60.35 I.146 J.034
N5170 G1 X12.56
N5180 G3 X12.675 Y60.404 I0. J.15
N5190 G2 X13.413 Y61.568 I1.398 J-.071
N5200 G3 X13.492 Y61.7 I-.07 J.132
N5210 X13.413 Y61.832 I-.149 J0.
N5220 G2 X12.675 Y62.996 I.66 J1.235
N5230 G3 X12.56 Y63.05 I-.115 J-.096
N5240 G1 X11.01
N5250 G3 X10.864 Y62.934 I0. J-.15
N5260 G2 X9.5 Y61.85 I-1.364 J.316
N5270 G1 X3.
N5280 X.1
N5290 G0 Z.6
N5300 Z5.
N5310 X382.6 Y61.75
N5320 G1 Z-2.2 F150.
N5330 X379.7 F500.
N5340 X373.2
N5350 G2 X371.739 Y62.911 I0. J1.5
N5360 G3 X371.69 Y62.95 I-.049 J-.011
N5370 G1 X370.14
N5380 X370.122 Y62.947
N5390 G2 X369.334 Y61.744 I-1.495 J.12
N5400 G3 X369.307 Y61.7 I.023 J-.044
N5410 X369.334 Y61.656 I.05 J0.
N5420 G2 X370.122 Y60.453 I-.707 J-1.323
N5430 G1 X370.14 Y60.45
N5440 X371.69
N5450 G3 X371.739 Y60.489 I0. J.05
N5460 G2 X373.2 Y61.65 I1.461 J-.339
N5470 G1 X379.7
N5480 X382.6
N5490 Y61.75
N5500 Z-4.4 F150.
N5510 X379.7 F500.
N5520 X373.2
N5530 G2 X371.739 Y62.911 I0. J1.5
N5540 G3 X371.69 Y62.95 I-.049 J-.011
N5550 G1 X370.14
N5560 X370.122 Y62.947
N5570 G2 X369.334 Y61.744 I-1.495 J.12
N5580 G3 X369.307 Y61.7 I.023 J-.044
N5590 X369.334 Y61.656 I.05 J0.
N5600 G2 X370.122 Y60.453 I-.707 J-1.323
N5610 G1 X370.14 Y60.45
N5620 X371.69
N5630 G3 X371.739 Y60.489 I0. J.05
N5640 G2 X373.2 Y61.65 I1.461 J-.339
N5650 G1 X379.7
N5660 X382.6
N5670 G0 Z.6
N5680 Z2.8
N5690 Y61.85
N5700 G1 Z-4.4 F150.
N5710 X379.7 F500.
N5720 X373.2
N5730 G2 X371.836 Y62.934 I0. J1.4
N5740 G3 X371.69 Y63.05 I-.146 J-.034
N5750 G1 X370.14
N5760 G3 X370.025 Y62.996 I0. J-.15
N5770 G2 X369.287 Y61.832 I-1.398 J.071
N5780 G3 X369.208 Y61.7 I.07 J-.132
N5790 X369.287 Y61.568 I.149 J0.
N5800 G2 X370.025 Y60.404 I-.66 J-1.235
N5810 G3 X370.14 Y60.35 I.115 J.096
N5820 G1 X371.69
N5830 G3 X371.836 Y60.466 I0. J.15
N5840 G2 X373.2 Y61.55 I1.364 J-.316
N5850 G1 X379.7
N5860 X382.6
N5870 G0 Z.6
N5880 Z5.
N5890 Y215.05
N5900 G1 Z-2.2 F150.
N5910 X379.7 F500.
N5920 X373.2
N5930 G2 X371.739 Y216.211 I0. J1.5
N5940 G3 X371.69 Y216.25 I-.049 J-.011
N5950 G1 X370.14
N5960 X370.122 Y216.247
N5970 G2 X369.334 Y215.044 I-1.495 J.12
N5980 G3 X369.307 Y215. I.023 J-.044
N5990 X369.334 Y214.956 I.05 J0.
N6000 G2 X370.122 Y213.753 I-.707 J-1.323
N6010 G1 X370.14 Y213.75
N6020 X371.69
N6030 G3 X371.739 Y213.789 I0. J.05
N6040 G2 X373.2 Y214.95 I1.461 J-.339
N6050 G1 X379.7
N6060 X382.6
N6070 Y215.05
N6080 Z-4.4 F150.
N6090 X379.7 F500.
N6100 X373.2
N6110 G2 X371.739 Y216.211 I0. J1.5
N6120 G3 X371.69 Y216.25 I-.049 J-.011
N6130 G1 X370.14
N6140 X370.122 Y216.247
N6150 G2 X369.334 Y215.044 I-1.495 J.12
N6160 G3 X369.307 Y215. I.023 J-.044
N6170 X369.334 Y214.956 I.05 J0.
N6180 G2 X370.122 Y213.753 I-.707 J-1.323
N6190 G1 X370.14 Y213.75
N6200 X371.69
N6210 G3 X371.739 Y213.789 I0. J.05
N6220 G2 X373.2 Y214.95 I1.461 J-.339
N6230 G1 X379.7
N6240 X382.6
N6250 G0 Z.6
N6260 Z2.8
N6270 Y215.15
N6280 G1 Z-4.4 F150.
N6290 X379.7 F500.
N6300 X373.2
N6310 G2 X371.836 Y216.234 I0. J1.4
N6320 G3 X371.69 Y216.35 I-.146 J-.034
N6330 G1 X370.14
N6340 G3 X370.025 Y216.296 I0. J-.15
N6350 G2 X369.287 Y215.132 I-1.398 J.071
N6360 G3 X369.208 Y215. I.07 J-.132
N6370 X369.287 Y214.868 I.149 J0.
N6380 G2 X370.025 Y213.704 I-.66 J-1.235
N6390 G3 X370.14 Y213.65 I.115 J.096
N6400 G1 X371.69
N6410 G3 X371.836 Y213.766 I0. J.15
N6420 G2 X373.2 Y214.85 I1.364 J-.316
N6430 G1 X379.7
N6440 X382.6
N6450 G0 Z.6
N6460 Z5.
N6470 Y368.35
N6480 G1 Z-2.2 F150.
N6490 X379.7 F500.
N6500 X373.2
N6510 G2 X371.739 Y369.511 I0. J1.5
N6520 G3 X371.69 Y369.55 I-.049 J-.011
N6530 G1 X370.14
N6540 X370.122 Y369.547
N6550 G2 X369.334 Y368.344 I-1.495 J.12
N6560 G3 X369.307 Y368.3 I.023 J-.044
N6570 X369.334 Y368.256 I.05 J0.
N6580 G2 X370.122 Y367.053 I-.707 J-1.323
N6590 G1 X370.14 Y367.05
N6600 X371.69
N6610 G3 X371.739 Y367.089 I0. J.05
N6620 G2 X373.2 Y368.25 I1.461 J-.339
N6630 G1 X379.7
N6640 X382.6
N6650 Y368.35
N6660 Z-4.4 F150.
N6670 X379.7 F500.
N6680 X373.2
N6690 G2 X371.739 Y369.511 I0. J1.5
N6700 G3 X371.69 Y369.55 I-.049 J-.011
N6710 G1 X370.14
N6720 X370.122 Y369.547
N6730 G2 X369.334 Y368.344 I-1.495 J.12
N6740 G3 X369.307 Y368.3 I.023 J-.044
N6750 X369.334 Y368.256 I.05 J0.
N6760 G2 X370.122 Y367.053 I-.707 J-1.323
N6770 G1 X370.14 Y367.05
N6780 X371.69
N6790 G3 X371.739 Y367.089 I0. J.05
N6800 G2 X373.2 Y368.25 I1.461 J-.339
N6810 G1 X379.7
N6820 X382.6
N6830 G0 Z.6
N6840 Z2.8
N6850 Y368.45
N6860 G1 Z-4.4 F150.
N6870 X379.7 F500.
N6880 X373.2
N6890 G2 X371.836 Y369.534 I0. J1.4
N6900 G3 X371.69 Y369.65 I-.146 J-.034
N6910 G1 X370.14
N6920 G3 X370.025 Y369.596 I0. J-.15
N6930 G2 X369.287 Y368.432 I-1.398 J.071
N6940 G3 X369.208 Y368.3 I.07 J-.132
N6950 X369.287 Y368.168 I.149 J0.
N6960 G2 X370.025 Y367.004 I-.66 J-1.235
N6970 G3 X370.14 Y366.95 I.115 J.096
N6980 G1 X371.69
N6990 G3 X371.836 Y367.066 I0. J.15
N7000 G2 X373.2 Y368.15 I1.364 J-.316
N7010 G1 X379.7
N7020 X382.6
N7030 G0 Z5.
N7040 X9. Y412.
N7050 G1 Z-2.067 F150.
N7060 G3 X1.1 Y404.1 I0. J-7.9 F500.
N7070 G1 Y400.2
N7080 X-1.15
N7090 G3 X-3.05 Y398.3 I0. J-1.9
N7100 G1 Y388.3
N7110 G3 X-1.15 Y386.4 I1.9 J0.
N7120 G1 X1.1
N7130 Y350.2
N7140 X-1.15
N7150 G3 X-3.05 Y348.3 I0. J-1.9
N7160 G1 Y338.3
N7170 G3 X-1.15 Y336.4 I1.9 J0.
N7180 G1 X1.1
N7190 Y246.9
N7200 X-1.15
N7210 G3 X-3.05 Y245. I0. J-1.9
N7220 G1 Y235.
N7230 G3 X-1.15 Y233.1 I1.9 J0.
N7240 G1 X1.1
N7250 Y196.9
N7260 X-1.15
N7270 G3 X-3.05 Y195. I0. J-1.9
N7280 G1 Y185.
N7290 G3 X-1.15 Y183.1 I1.9 J0.
N7300 G1 X1.1
N7310 Y93.6
N7320 X-1.15
N7330 G3 X-3.05 Y91.7 I0. J-1.9
N7340 G1 Y81.7
N7350 G3 X-1.15 Y79.8 I1.9 J0.
N7360 G1 X1.1
N7370 Y43.6
N7380 X-1.15
N7390 G3 X-3.05 Y41.7 I0. J-1.9
N7400 G1 Y31.7
N7410 G3 X-1.15 Y29.8 I1.9 J0.
N7420 G1 X1.1
N7430 Y6.
N7440 G3 X9. Y-1.9 I7.9 J0.
N7450 G1 X41.
N7460 G3 X48.967 Y1.815 I0. J10.4
N7470 G1 X53.159 Y6.811
N7480 G2 X55.923 Y8.1 I2.764 J-2.319
N7490 G1 X326.777
N7500 G2 X329.541 Y6.811 I0. J-3.608
N7510 G1 X333.733 Y1.815
N7520 G3 X341.7 Y-1.9 I7.967 J6.685
N7530 G1 X373.7
N7540 G3 X381.6 Y6. I0. J7.9
N7550 G1 Y29.8
N7560 X383.85
N7570 G3 X385.75 Y31.7 I0. J1.9
N7580 G1 Y41.7
N7590 G3 X383.85 Y43.6 I-1.9 J0.
N7600 G1 X381.6
N7610 Y79.8
N7620 X383.85
N7630 G3 X385.75 Y81.7 I0. J1.9
N7640 G1 Y91.7
N7650 G3 X383.85 Y93.6 I-1.9 J0.
N7660 G1 X381.6
N7670 Y183.1
N7680 X383.85
N7690 G3 X385.75 Y185. I0. J1.9
N7700 G1 Y195.
N7710 G3 X383.85 Y196.9 I-1.9 J0.
N7720 G1 X381.6
N7730 Y233.1
N7740 X383.85
N7750 G3 X385.75 Y235. I0. J1.9
N7760 G1 Y245.
N7770 G3 X383.85 Y246.9 I-1.9 J0.
N7780 G1 X381.6
N7790 Y336.4
N7800 X383.85
N7810 G3 X385.75 Y338.3 I0. J1.9
N7820 G1 Y348.3
N7830 G3 X383.85 Y350.2 I-1.9 J0.
N7840 G1 X381.6
N7850 Y386.4
N7860 X383.85
N7870 G3 X385.75 Y388.3 I0. J1.9
N7880 G1 Y398.3
N7890 G3 X383.85 Y400.2 I-1.9 J0.
N7900 G1 X381.6
N7910 Y404.1
N7920 G3 X373.7 Y412. I-7.9 J0.
N7930 G1 X347.7
N7940 G2 X342.644 Y414.358 I0. J6.6
N7950 G1 X339.433 Y418.185
N7960 G3 X331.466 Y421.9 I-7.967 J-6.685
N7970 G1 X51.234
N7980 G3 X43.267 Y418.185 I0. J-10.4
N7990 G1 X40.056 Y414.358
N8000 G2 X35. Y412. I-5.056 J4.242
N8010 G1 X9.
N8020 Z-4.133 F150.
N8030 G3 X1.1 Y404.1 I0. J-7.9 F500.
N8040 G1 Y400.2
N8050 X-1.15
N8060 G3 X-3.05 Y398.3 I0. J-1.9
N8070 G1 Y388.3
N8080 G3 X-1.15 Y386.4 I1.9 J0.
N8090 G1 X1.1
N8100 Y350.2
N8110 X-1.15
N8120 G3 X-3.05 Y348.3 I0. J-1.9
N8130 G1 Y338.3
N8140 G3 X-1.15 Y336.4 I1.9 J0.
N8150 G1 X1.1
N8160 Y246.9
N8170 X-1.15
N8180 G3 X-3.05 Y245. I0. J-1.9
N8190 G1 Y235.
N8200 G3 X-1.15 Y233.1 I1.9 J0.
N8210 G1 X1.1
N8220 Y196.9
N8230 X-1.15
N8240 G3 X-3.05 Y195. I0. J-1.9
N8250 G1 Y185.
N8260 G3 X-1.15 Y183.1 I1.9 J0.
N8270 G1 X1.1
N8280 Y93.6
N8290 X-1.15
N8300 G3 X-3.05 Y91.7 I0. J-1.9
N8310 G1 Y81.7
N8320 G3 X-1.15 Y79.8 I1.9 J0.
N8330 G1 X1.1
N8340 Y43.6
N8350 X-1.15
N8360 G3 X-3.05 Y41.7 I0. J-1.9
N8370 G1 Y31.7
N8380 G3 X-1.15 Y29.8 I1.9 J0.
N8390 G1 X1.1
N8400 Y6.
N8410 G3 X9. Y-1.9 I7.9 J0.
N8420 G1 X41.
N8430 G3 X48.967 Y1.815 I0. J10.4
N8440 G1 X53.159 Y6.811
N8450 G2 X55.923 Y8.1 I2.764 J-2.319
N8460 G1 X326.777
N8470 G2 X329.541 Y6.811 I0. J-3.608
N8480 G1 X333.733 Y1.815
N8490 G3 X341.7 Y-1.9 I7.967 J6.685
N8500 G1 X373.7
N8510 G3 X381.6 Y6. I0. J7.9
N8520 G1 Y29.8
N8530 X383.85
N8540 G3 X385.75 Y31.7 I0. J1.9
N8550 G1 Y41.7
N8560 G3 X383.85 Y43.6 I-1.9 J0.
N8570 G1 X381.6
N8580 Y79.8
N8590 X383.85
N8600 G3 X385.75 Y81.7 I0. J1.9
N8610 G1 Y91.7
N8620 G3 X383.85 Y93.6 I-1.9 J0.
N8630 G1 X381.6
N8640 Y183.1
N8650 X383.85
N8660 G3 X385.75 Y185. I0. J1.9
N8670 G1 Y195.
N8680 G3 X383.85 Y196.9 I-1.9 J0.
N8690 G1 X381.6
N8700 Y233.1
N8710 X383.85
N8720 G3 X385.75 Y235. I0. J1.9
N8730 G1 Y245.
N8740 G3 X383.85 Y246.9 I-1.9 J0.
N8750 G1 X381.6
N8760 Y336.4
N8770 X383.85
N8780 G3 X385.75 Y338.3 I0. J1.9
N8790 G1 Y348.3
N8800 G3 X383.85 Y350.2 I-1.9 J0.
N8810 G1 X381.6
N8820 Y386.4
N8830 X383.85
N8840 G3 X385.75 Y388.3 I0. J1.9
N8850 G1 Y398.3
N8860 G3 X383.85 Y400.2 I-1.9 J0.
N8870 G1 X381.6
N8880 Y404.1
N8890 G3 X373.7 Y412. I-7.9 J0.
N8900 G1 X347.7
N8910 G2 X342.644 Y414.358 I0. J6.6
N8920 G1 X339.433 Y418.185
N8930 G3 X331.466 Y421.9 I-7.967 J-6.685
N8940 G1 X51.234
N8950 G3 X43.267 Y418.185 I0. J-10.4
N8960 G1 X40.056 Y414.358
N8970 G2 X35. Y412. I-5.056 J4.242
N8980 G1 X9.
N8990 Z-6.2 F150.
N9000 G3 X1.1 Y404.1 I0. J-7.9 F500.
N9010 G1 Y400.2
N9020 X-1.15
N9030 G3 X-3.05 Y398.3 I0. J-1.9
N9040 G1 Y388.3
N9050 G3 X-1.15 Y386.4 I1.9 J0.
N9060 G1 X1.1
N9070 Y350.2
N9080 X-1.15
N9090 G3 X-3.05 Y348.3 I0. J-1.9
N9100 G1 Y338.3
N9110 G3 X-1.15 Y336.4 I1.9 J0.
N9120 G1 X1.1
N9130 Y320.216
N9140 Y318.516 Z-4.5
N9150 Y299.016
N9160 Y297.316 Z-6.2
N9170 Y246.9
N9180 X-1.15
N9190 G3 X-3.05 Y245. I0. J-1.9
N9200 G1 Y235.
N9210 G3 X-1.15 Y233.1 I1.9 J0.
N9220 G1 X1.1
N9230 Y196.9
N9240 X-1.15
N9250 G3 X-3.05 Y195. I0. J-1.9
N9260 G1 Y185.
N9270 G3 X-1.15 Y183.1 I1.9 J0.
N9280 G1 X1.1
N9290 Y96.908
N9300 Y95.208 Z-4.5
N9310 Y93.6
N9320 X-1.15
N9330 G3 X-3.05 Y91.7 I0. J-1.9
N9340 G1 Y81.7
N9350 G3 X-1.476 Y79.828 I1.9 J0.
N9360 X-1.15 Y79.8 Z-4.828 I.326 J1.872
N9370 G1 X.222 Z-6.2
N9380 X1.1
N9390 Y43.6
N9400 X-1.15
N9410 G3 X-3.05 Y41.7 I0. J-1.9
N9420 G1 Y31.7
N9430 G3 X-1.15 Y29.8 I1.9 J0.
N9440 G1 X1.1
N9450 Y6.
N9460 G3 X9. Y-1.9 I7.9 J0.
N9470 G1 X41.
N9480 G3 X48.967 Y1.815 I0. J10.4
N9490 G1 X53.159 Y6.811
N9500 G2 X55.923 Y8.1 I2.764 J-2.319
N9510 G1 X128.451
N9520 X130.151 Z-4.5
N9530 X149.651
N9540 X151.351 Z-6.2
N9550 X326.777
N9560 G2 X329.541 Y6.811 I0. J-3.608
N9570 G1 X333.733 Y1.815
N9580 G3 X341.7 Y-1.9 I7.967 J6.685
N9590 G1 X362.024
N9600 X363.724 Z-4.5
N9610 X373.7
N9620 G3 X381.079 Y3.178 I0. J7.9
N9630 X381.511 Y4.819 Z-6.2 I-7.379 J2.822
N9640 X381.6 Y6. I-7.811 J1.181
N9650 G1 Y29.8
N9660 X383.85
N9670 G3 X385.75 Y31.7 I0. J1.9
N9680 G1 Y41.7
N9690 G3 X383.85 Y43.6 I-1.9 J0.
N9700 G1 X381.6
N9710 Y79.8
N9720 X383.85
N9730 G3 X385.75 Y81.7 I0. J1.9
N9740 G1 Y91.7
N9750 G3 X383.85 Y93.6 I-1.9 J0.
N9760 G1 X381.6
N9770 Y183.1
N9780 X383.85
N9790 G3 X385.75 Y185. I0. J1.9
N9800 G1 Y195.
N9810 G3 X383.85 Y196.9 I-1.9 J0.
N9820 G1 X381.6
N9830 Y201.387
N9840 Y203.087 Z-4.5
N9850 Y222.587
N9860 Y224.287 Z-6.2
N9870 Y233.1
N9880 X383.85
N9890 G3 X385.75 Y235. I0. J1.9
N9900 G1 Y245.
N9910 G3 X383.85 Y246.9 I-1.9 J0.
N9920 G1 X381.6
N9930 Y336.4
N9940 X383.85
N9950 G3 X385.75 Y338.3 I0. J1.9
N9960 G1 Y348.3
N9970 G3 X383.85 Y350.2 I-1.9 J0.
N9980 G1 X381.6
N9990 Y386.4
N100 X383.85
N110 G3 X385.75 Y388.3 I0. J1.9
N120 G1 Y398.3
N130 G3 X383.85 Y400.2 I-1.9 J0.
N140 G1 X381.6
N150 Y404.1
N160 G3 X373.7 Y412. I-7.9 J0.
N170 G1 X369.35
N180 X367.65 Z-4.5
N190 X348.15
N200 X347.7 Z-4.95
N210 G2 X346.457 Y412.118 Z-6.2 I0. J6.6
N220 X342.644 Y414.358 I1.243 J6.482
N230 G1 X339.433 Y418.185
N240 G3 X331.466 Y421.9 I-7.967 J-6.685
N250 G1 X135.551
N260 X133.851 Z-4.5
N270 X114.351
N280 X112.651 Z-6.2
N290 X51.234
N300 G3 X43.267 Y418.185 I0. J-10.4
N310 G1 X40.056 Y414.358
N320 G2 X35. Y412. I-5.056 J4.242
N330 G1 X9.
N340 Y411.5
N350 G3 X1.6 Y404.1 I0. J-7.4
N360 G1 Y399.85
N370 G2 X1.45 Y399.7 I-.15 J0.
N380 G1 X-1.15
N390 G3 X-2.55 Y398.3 I0. J-1.4
N400 G1 Y388.3
N410 G3 X-1.15 Y386.9 I1.4 J0.
N420 G1 X1.45
N430 G2 X1.6 Y386.75 I0. J-.15
N440 G1 Y349.85
N450 G2 X1.45 Y349.7 I-.15 J0.
N460 G1 X-1.15
N470 G3 X-2.55 Y348.3 I0. J-1.4
N480 G1 Y338.3
N490 G3 X-1.15 Y336.9 I1.4 J0.
N500 G1 X1.45
N510 G2 X1.6 Y336.75 I0. J-.15
N520 G1 Y320.216
N530 Y318.516 Z-4.5
N540 Y299.016
N550 Y297.316 Z-6.2
N560 Y246.55
N570 G2 X1.45 Y246.4 I-.15 J0.
N580 G1 X-1.15
N590 G3 X-2.55 Y245. I0. J-1.4
N600 G1 Y235.
N610 G3 X-1.15 Y233.6 I1.4 J0.
N620 G1 X1.45
N630 G2 X1.6 Y233.45 I0. J-.15
N640 G1 Y196.55
N650 G2 X1.45 Y196.4 I-.15 J0.
N660 G1 X-1.15
N670 G3 X-2.55 Y195. I0. J-1.4
N680 G1 Y185.
N690 G3 X-1.15 Y183.6 I1.4 J0.
N700 G1 X1.45
N710 G2 X1.6 Y183.45 I0. J-.15
N720 G1 Y96.758
N730 Y95.058 Z-4.5
N740 Y93.25
N750 G2 X1.45 Y93.1 I-.15 J0.
N760 G1 X-1.15
N770 G3 X-2.55 Y91.7 I0. J-1.4
N780 G1 Y81.7
N790 G3 X-1.15 Y80.3 I1.4 J0.
N800 G1 X-.692
N810 X1.008 Z-6.2
N820 X1.45
N830 G2 X1.6 Y80.15 I0. J-.15
N840 G1 Y43.25
N850 G2 X1.45 Y43.1 I-.15 J0.
N860 G1 X-1.15
N870 G3 X-2.55 Y41.7 I0. J-1.4
N880 G1 Y31.7
N890 G3 X-1.15 Y30.3 I1.4 J0.
N900 G1 X1.45
N910 G2 X1.6 Y30.15 I0. J-.15
N920 G1 Y6.
N930 G3 X9. Y-1.4 I7.4 J0.
N940 G1 X41.
N950 G3 X48.584 Y2.136 I0. J9.9
N960 G1 X52.776 Y7.132
N970 G2 X55.923 Y8.6 I3.147 J-2.64
N980 G1 X128.451
N990 X130.151 Z-4.5
N1000 X149.651
N1010 X151.351 Z-6.2
N1020 X326.777
N1030 G2 X329.924 Y7.132 I0. J-4.108
N1040 G1 X334.116 Y2.136
N1050 G3 X341.7 Y-1.4 I7.584 J6.364
N1060 G1 X362.024
N1070 X363.724 Z-4.5
N1080 X373.7
N1090 G3 X380.804 Y3.928 I0. J7.4
N1100 X381.089 Y5.6 Z-6.2 I-7.104 J2.072
N1110 X381.1 Y6. I-7.389 J.4
N1120 G1 Y30.15
N1130 G2 X381.25 Y30.3 I.15 J0.
N1140 G1 X383.85
N1150 G3 X385.25 Y31.7 I0. J1.4
N1160 G1 Y41.7
N1170 G3 X383.85 Y43.1 I-1.4 J0.
N1180 G1 X381.25
N1190 G2 X381.1 Y43.25 I0. J.15
N1200 G1 Y80.15
N1210 G2 X381.25 Y80.3 I.15 J0.
N1220 G1 X383.85
N1230 G3 X385.25 Y81.7 I0. J1.4
N1240 G1 Y91.7
N1250 G3 X383.85 Y93.1 I-1.4 J0.
N1260 G1 X381.25
N1270 G2 X381.1 Y93.25 I0. J.15
N1280 G1 Y183.45
N1290 G2 X381.25 Y183.6 I.15 J0.
N1300 G1 X383.85
N1310 G3 X385.25 Y185. I0. J1.4
N1320 G1 Y195.
N1330 G3 X383.85 Y196.4 I-1.4 J0.
N1340 G1 X381.25
N1350 G2 X381.1 Y196.55 I0. J.15
N1360 G1 Y201.387
N1370 Y203.087 Z-4.5
N1380 Y222.587
N1390 Y224.287 Z-6.2
N1400 Y233.45
N1410 G2 X381.25 Y233.6 I.15 J0.
N1420 G1 X383.85
N1430 G3 X385.25 Y235. I0. J1.4
N1440 G1 Y245.
N1450 G3 X383.85 Y246.4 I-1.4 J0.
N1460 G1 X381.25
N1470 G2 X381.1 Y246.55 I0. J.15
N1480 G1 Y336.75
N1490 G2 X381.25 Y336.9 I.15 J0.
N1500 G1 X383.85
N1510 G3 X385.25 Y338.3 I0. J1.4
N1520 G1 Y348.3
N1530 G3 X383.85 Y349.7 I-1.4 J0.
N1540 G1 X381.25
N1550 G2 X381.1 Y349.85 I0. J.15
N1560 G1 Y386.75
N1570 G2 X381.25 Y386.9 I.15 J0.
N1580 G1 X383.85
N1590 G3 X385.25 Y388.3 I0. J1.4
N1600 G1 Y398.3
N1610 G3 X383.85 Y399.7 I-1.4 J0.
N1620 G1 X381.25
N1630 G2 X381.1 Y399.85 I0. J.15
N1640 G1 Y404.1
N1650 G3 X373.7 Y411.5 I-7.4 J0.
N1660 G1 X369.35
N1670 X367.65 Z-4.5
N1680 X348.15
N1690 X347.7 Z-4.95
N1700 G2 X346.456 Y411.61 Z-6.2 I0. J7.1
N1710 X342.261 Y414.036 I1.244 J6.99
N1720 G1 X339.05 Y417.864
N1730 G3 X331.466 Y421.4 I-7.584 J-6.364
N1740 G1 X135.551
N1750 X133.851 Z-4.5
N1760 X114.351
N1770 X112.651 Z-6.2
N1780 X51.234
N1790 G3 X43.65 Y417.864 I0. J-9.9
N1800 G1 X40.439 Y414.036
N1810 G2 X35. Y411.5 I-5.439 J4.564
N1820 G1 X9.
N1830 G0 Z5.
N1840 M5
N1850 G91 Z5
N1860 X0. Y0. A0.
N1870 M30
%
