%
O0000(CAMBASEIMPREISON)
(DATE=DD-MM-YY - 15-09-15 TIME=HH:MM - 02:08)
(MCX FILE - C:\USERS\CAMPY\DESKTOP\PANELES ULTICAMPY V3 CAM\CAMBASEIMPREISON.SLDASM)
(NC FILE - C:\USERS\CAMPY\DESKTOP\PANELES ULTICAMPY V3 CAM\MACH3\CAMBASEIMPREISON.NC)
(MATERIAL - ALUMINUM MM - 2024)
( T2 | FRESA 3MM CAJA AZUL | H2 | XY STOCK TO LEAVE - -.05 | Z STOCK TO LEAVE - 0. )
N100 G21
N110 G0 G17 G40 G49 G80 G90
N120 T2 M6 Z5
N130 G0 G90 G54 X51.1 Y15.654 A0. S15000 M3
N140 G43 H2 Z5.
N150 G1 Z-2.067 F150.
N160 G3 X51. Y15.754 I-.1 J0. F500.
N170 X50.9 Y15.654 I0. J-.1
N180 X51. Y15.554 I.1 J0.
N190 X51.1 Y15.654 I0. J.1
N200 G1 Z-4.133 F150.
N210 G3 X51. Y15.754 I-.1 J0. F500.
N220 X50.9 Y15.654 I0. J-.1
N230 X51. Y15.554 I.1 J0.
N240 X51.1 Y15.654 I0. J.1
N250 G1 Z-6.2 F150.
N260 G3 X51. Y15.754 I-.1 J0. F500.
N270 X50.9 Y15.654 I0. J-.1
N280 X51. Y15.554 I.1 J0.
N290 X51.1 Y15.654 I0. J.1
N300 G0 Z-1.2
N310 Z5.
N320 X94.378 Y81.865
N330 G1 Z-2.067 F150.
N340 G3 X94.278 Y81.965 I-.1 J0. F500.
N350 X94.178 Y81.865 I0. J-.1
N360 X94.278 Y81.765 I.1 J0.
N370 X94.378 Y81.865 I0. J.1
N380 G1 Z-4.133 F150.
N390 G3 X94.278 Y81.965 I-.1 J0. F500.
N400 X94.178 Y81.865 I0. J-.1
N410 X94.278 Y81.765 I.1 J0.
N420 X94.378 Y81.865 I0. J.1
N430 G1 Z-6.2 F150.
N440 G3 X94.278 Y81.965 I-.1 J0. F500.
N450 X94.178 Y81.865 I0. J-.1
N460 X94.278 Y81.765 I.1 J0.
N470 X94.378 Y81.865 I0. J.1
N480 G0 Z-1.2
N490 Z5.
N500 Y166.865
N510 G1 Z-2.067 F150.
N520 G3 X94.278 Y166.965 I-.1 J0. F500.
N530 X94.178 Y166.865 I0. J-.1
N540 X94.278 Y166.765 I.1 J0.
N550 X94.378 Y166.865 I0. J.1
N560 G1 Z-4.133 F150.
N570 G3 X94.278 Y166.965 I-.1 J0. F500.
N580 X94.178 Y166.865 I0. J-.1
N590 X94.278 Y166.765 I.1 J0.
N600 X94.378 Y166.865 I0. J.1
N610 G1 Z-6.2 F150.
N620 G3 X94.278 Y166.965 I-.1 J0. F500.
N630 X94.178 Y166.865 I0. J-.1
N640 X94.278 Y166.765 I.1 J0.
N650 X94.378 Y166.865 I0. J.1
N660 G0 Z-1.2
N670 Z5.
N680 Y251.865
N690 G1 Z-2.067 F150.
N700 G3 X94.278 Y251.965 I-.1 J0. F500.
N710 X94.178 Y251.865 I0. J-.1
N720 X94.278 Y251.765 I.1 J0.
N730 X94.378 Y251.865 I0. J.1
N740 G1 Z-4.133 F150.
N750 G3 X94.278 Y251.965 I-.1 J0. F500.
N760 X94.178 Y251.865 I0. J-.1
N770 X94.278 Y251.765 I.1 J0.
N780 X94.378 Y251.865 I0. J.1
N790 G1 Z-6.2 F150.
N800 G3 X94.278 Y251.965 I-.1 J0. F500.
N810 X94.178 Y251.865 I0. J-.1
N820 X94.278 Y251.765 I.1 J0.
N830 X94.378 Y251.865 I0. J.1
N840 G0 Z-1.2
N850 Z5.
N860 Y295.566
N870 G1 Z-2.067 F150.
N880 G3 X94.278 Y295.666 I-.1 J0. F500.
N890 X94.178 Y295.566 I0. J-.1
N900 X94.278 Y295.466 I.1 J0.
N910 X94.378 Y295.566 I0. J.1
N920 G1 Z-4.133 F150.
N930 G3 X94.278 Y295.666 I-.1 J0. F500.
N940 X94.178 Y295.566 I0. J-.1
N950 X94.278 Y295.466 I.1 J0.
N960 X94.378 Y295.566 I0. J.1
N970 G1 Z-6.2 F150.
N980 G3 X94.278 Y295.666 I-.1 J0. F500.
N990 X94.178 Y295.566 I0. J-.1
N1000 X94.278 Y295.466 I.1 J0.
N1010 X94.378 Y295.566 I0. J.1
N1020 G0 Z-1.2
N1030 Z5.
N1040 X83.564 Y310.253
N1050 G1 Z-2.067 F150.
N1060 G3 X82.964 Y310.853 I-.6 J0. F500.
N1070 X82.364 Y310.253 I0. J-.6
N1080 X82.964 Y309.653 I.6 J0.
N1090 X83.564 Y310.253 I0. J.6
N1100 G1 Z-4.133 F150.
N1110 G3 X82.964 Y310.853 I-.6 J0. F500.
N1120 X82.364 Y310.253 I0. J-.6
N1130 X82.964 Y309.653 I.6 J0.
N1140 X83.564 Y310.253 I0. J.6
N1150 G1 Z-6.2 F150.
N1160 G3 X82.964 Y310.853 I-.6 J0. F500.
N1170 X82.364 Y310.253 I0. J-.6
N1180 X82.964 Y309.653 I.6 J0.
N1190 X83.564 Y310.253 I0. J.6
N1200 G0 Z-1.2
N1210 Z5.
N1220 Y332.88
N1230 G1 Z-2.067 F150.
N1240 G3 X82.964 Y333.48 I-.6 J0. F500.
N1250 X82.364 Y332.88 I0. J-.6
N1260 X82.964 Y332.28 I.6 J0.
N1270 X83.564 Y332.88 I0. J.6
N1280 G1 Z-4.133 F150.
N1290 G3 X82.964 Y333.48 I-.6 J0. F500.
N1300 X82.364 Y332.88 I0. J-.6
N1310 X82.964 Y332.28 I.6 J0.
N1320 X83.564 Y332.88 I0. J.6
N1330 G1 Z-6.2 F150.
N1340 G3 X82.964 Y333.48 I-.6 J0. F500.
N1350 X82.364 Y332.88 I0. J-.6
N1360 X82.964 Y332.28 I.6 J0.
N1370 X83.564 Y332.88 I0. J.6
N1380 G0 Z-1.2
N1390 Z5.
N1400 X106.191
N1410 G1 Z-2.067 F150.
N1420 G3 X105.591 Y333.48 I-.6 J0. F500.
N1430 X104.991 Y332.88 I0. J-.6
N1440 X105.591 Y332.28 I.6 J0.
N1450 X106.191 Y332.88 I0. J.6
N1460 G1 Z-4.133 F150.
N1470 G3 X105.591 Y333.48 I-.6 J0. F500.
N1480 X104.991 Y332.88 I0. J-.6
N1490 X105.591 Y332.28 I.6 J0.
N1500 X106.191 Y332.88 I0. J.6
N1510 G1 Z-6.2 F150.
N1520 G3 X105.591 Y333.48 I-.6 J0. F500.
N1530 X104.991 Y332.88 I0. J-.6
N1540 X105.591 Y332.28 I.6 J0.
N1550 X106.191 Y332.88 I0. J.6
N1560 G0 Z-1.2
N1570 Z5.
N1580 Y310.253
N1590 G1 Z-2.067 F150.
N1600 G3 X105.591 Y310.853 I-.6 J0. F500.
N1610 X104.991 Y310.253 I0. J-.6
N1620 X105.591 Y309.653 I.6 J0.
N1630 X106.191 Y310.253 I0. J.6
N1640 G1 Z-4.133 F150.
N1650 G3 X105.591 Y310.853 I-.6 J0. F500.
N1660 X104.991 Y310.253 I0. J-.6
N1670 X105.591 Y309.653 I.6 J0.
N1680 X106.191 Y310.253 I0. J.6
N1690 G1 Z-6.2 F150.
N1700 G3 X105.591 Y310.853 I-.6 J0. F500.
N1710 X104.991 Y310.253 I0. J-.6
N1720 X105.591 Y309.653 I.6 J0.
N1730 X106.191 Y310.253 I0. J.6
N1740 G0 Z-1.2
N1750 Z5.
N1760 X51.1 Y260.654
N1770 G1 Z-2.067 F150.
N1780 G3 X51. Y260.754 I-.1 J0. F500.
N1790 X50.9 Y260.654 I0. J-.1
N1800 X51. Y260.554 I.1 J0.
N1810 X51.1 Y260.654 I0. J.1
N1820 G1 Z-4.133 F150.
N1830 G3 X51. Y260.754 I-.1 J0. F500.
N1840 X50.9 Y260.654 I0. J-.1
N1850 X51. Y260.554 I.1 J0.
N1860 X51.1 Y260.654 I0. J.1
N1870 G1 Z-6.2 F150.
N1880 G3 X51. Y260.754 I-.1 J0. F500.
N1890 X50.9 Y260.654 I0. J-.1
N1900 X51. Y260.554 I.1 J0.
N1910 X51.1 Y260.654 I0. J.1
N1920 G0 Z-1.2
N1930 Z5.
N1940 X189.178 Y251.777
N1950 G1 Z-2.067 F150.
N1960 G3 X189.278 Y251.677 I.1 J0. F500.
N1970 X189.378 Y251.777 I0. J.1
N1980 X189.278 Y251.877 I-.1 J0.
N1990 X189.178 Y251.777 I0. J-.1
N2000 G1 Z-4.133 F150.
N2010 G3 X189.278 Y251.677 I.1 J0. F500.
N2020 X189.378 Y251.777 I0. J.1
N2030 X189.278 Y251.877 I-.1 J0.
N2040 X189.178 Y251.777 I0. J-.1
N2050 G1 Z-6.2 F150.
N2060 G3 X189.278 Y251.677 I.1 J0. F500.
N2070 X189.378 Y251.777 I0. J.1
N2080 X189.278 Y251.877 I-.1 J0.
N2090 X189.178 Y251.777 I0. J-.1
N2100 G0 Z-1.2
N2110 Z5.
N2120 X189.182 Y295.566
N2130 G1 Z-2.067 F150.
N2140 G3 X189.282 Y295.466 I.1 J0. F500.
N2150 X189.382 Y295.566 I0. J.1
N2160 X189.282 Y295.666 I-.1 J0.
N2170 X189.182 Y295.566 I0. J-.1
N2180 G1 Z-4.133 F150.
N2190 G3 X189.282 Y295.466 I.1 J0. F500.
N2200 X189.382 Y295.566 I0. J.1
N2210 X189.282 Y295.666 I-.1 J0.
N2220 X189.182 Y295.566 I0. J-.1
N2230 G1 Z-6.2 F150.
N2240 G3 X189.282 Y295.466 I.1 J0. F500.
N2250 X189.382 Y295.566 I0. J.1
N2260 X189.282 Y295.666 I-.1 J0.
N2270 X189.182 Y295.566 I0. J-.1
N2280 G0 Z-1.2
N2290 Z5.
N2300 X183.721 Y315.91
N2310 G1 Z-2.067 F150.
N2320 G3 X183.621 Y316.01 I-.1 J0. F500.
N2330 X183.521 Y315.91 I0. J-.1
N2340 X183.621 Y315.81 I.1 J0.
N2350 X183.721 Y315.91 I0. J.1
N2360 G1 Z-4.133 F150.
N2370 G3 X183.621 Y316.01 I-.1 J0. F500.
N2380 X183.521 Y315.91 I0. J-.1
N2390 X183.621 Y315.81 I.1 J0.
N2400 X183.721 Y315.91 I0. J.1
N2410 G1 Z-6.2 F150.
N2420 G3 X183.621 Y316.01 I-.1 J0. F500.
N2430 X183.521 Y315.91 I0. J-.1
N2440 X183.621 Y315.81 I.1 J0.
N2450 X183.721 Y315.91 I0. J.1
N2460 G0 Z-1.2
N2470 Z5.
N2480 X195.034
N2490 G1 Z-2.067 F150.
N2500 G3 X194.934 Y316.01 I-.1 J0. F500.
N2510 X194.834 Y315.91 I0. J-.1
N2520 X194.934 Y315.81 I.1 J0.
N2530 X195.034 Y315.91 I0. J.1
N2540 G1 Z-4.133 F150.
N2550 G3 X194.934 Y316.01 I-.1 J0. F500.
N2560 X194.834 Y315.91 I0. J-.1
N2570 X194.934 Y315.81 I.1 J0.
N2580 X195.034 Y315.91 I0. J.1
N2590 G1 Z-6.2 F150.
N2600 G3 X194.934 Y316.01 I-.1 J0. F500.
N2610 X194.834 Y315.91 I0. J-.1
N2620 X194.934 Y315.81 I.1 J0.
N2630 X195.034 Y315.91 I0. J.1
N2640 G0 Z-1.2
N2650 Z5.
N2660 Y327.223
N2670 G1 Z-2.067 F150.
N2680 G3 X194.934 Y327.323 I-.1 J0. F500.
N2690 X194.834 Y327.223 I0. J-.1
N2700 X194.934 Y327.123 I.1 J0.
N2710 X195.034 Y327.223 I0. J.1
N2720 G1 Z-4.133 F150.
N2730 G3 X194.934 Y327.323 I-.1 J0. F500.
N2740 X194.834 Y327.223 I0. J-.1
N2750 X194.934 Y327.123 I.1 J0.
N2760 X195.034 Y327.223 I0. J.1
N2770 G1 Z-6.2 F150.
N2780 G3 X194.934 Y327.323 I-.1 J0. F500.
N2790 X194.834 Y327.223 I0. J-.1
N2800 X194.934 Y327.123 I.1 J0.
N2810 X195.034 Y327.223 I0. J.1
N2820 G0 Z-1.2
N2830 Z5.
N2840 X183.721
N2850 G1 Z-2.067 F150.
N2860 G3 X183.621 Y327.323 I-.1 J0. F500.
N2870 X183.521 Y327.223 I0. J-.1
N2880 X183.621 Y327.123 I.1 J0.
N2890 X183.721 Y327.223 I0. J.1
N2900 G1 Z-4.133 F150.
N2910 G3 X183.621 Y327.323 I-.1 J0. F500.
N2920 X183.521 Y327.223 I0. J-.1
N2930 X183.621 Y327.123 I.1 J0.
N2940 X183.721 Y327.223 I0. J.1
N2950 G1 Z-6.2 F150.
N2960 G3 X183.621 Y327.323 I-.1 J0. F500.
N2970 X183.521 Y327.223 I0. J-.1
N2980 X183.621 Y327.123 I.1 J0.
N2990 X183.721 Y327.223 I0. J.1
N3000 G0 Z-1.2
N3010 Z5.
N3020 X272.364 Y332.88
N3030 G1 Z-2.067 F150.
N3040 G3 X272.964 Y332.28 I.6 J0. F500.
N3050 X273.564 Y332.88 I0. J.6
N3060 X272.964 Y333.48 I-.6 J0.
N3070 X272.364 Y332.88 I0. J-.6
N3080 G1 Z-4.133 F150.
N3090 G3 X272.964 Y332.28 I.6 J0. F500.
N3100 X273.564 Y332.88 I0. J.6
N3110 X272.964 Y333.48 I-.6 J0.
N3120 X272.364 Y332.88 I0. J-.6
N3130 G1 Z-6.2 F150.
N3140 G3 X272.964 Y332.28 I.6 J0. F500.
N3150 X273.564 Y332.88 I0. J.6
N3160 X272.964 Y333.48 I-.6 J0.
N3170 X272.364 Y332.88 I0. J-.6
N3180 G0 Z-1.2
N3190 Z5.
N3200 X294.991
N3210 G1 Z-2.067 F150.
N3220 G3 X295.591 Y332.28 I.6 J0. F500.
N3230 X296.191 Y332.88 I0. J.6
N3240 X295.591 Y333.48 I-.6 J0.
N3250 X294.991 Y332.88 I0. J-.6
N3260 G1 Z-4.133 F150.
N3270 G3 X295.591 Y332.28 I.6 J0. F500.
N3280 X296.191 Y332.88 I0. J.6
N3290 X295.591 Y333.48 I-.6 J0.
N3300 X294.991 Y332.88 I0. J-.6
N3310 G1 Z-6.2 F150.
N3320 G3 X295.591 Y332.28 I.6 J0. F500.
N3330 X296.191 Y332.88 I0. J.6
N3340 X295.591 Y333.48 I-.6 J0.
N3350 X294.991 Y332.88 I0. J-.6
N3360 G0 Z-1.2
N3370 Z5.
N3380 Y310.253
N3390 G1 Z-2.067 F150.
N3400 G3 X295.591 Y309.653 I.6 J0. F500.
N3410 X296.191 Y310.253 I0. J.6
N3420 X295.591 Y310.853 I-.6 J0.
N3430 X294.991 Y310.253 I0. J-.6
N3440 G1 Z-4.133 F150.
N3450 G3 X295.591 Y309.653 I.6 J0. F500.
N3460 X296.191 Y310.253 I0. J.6
N3470 X295.591 Y310.853 I-.6 J0.
N3480 X294.991 Y310.253 I0. J-.6
N3490 G1 Z-6.2 F150.
N3500 G3 X295.591 Y309.653 I.6 J0. F500.
N3510 X296.191 Y310.253 I0. J.6
N3520 X295.591 Y310.853 I-.6 J0.
N3530 X294.991 Y310.253 I0. J-.6
N3540 G0 Z-1.2
N3550 Z5.
N3560 X284.178 Y295.566
N3570 G1 Z-2.067 F150.
N3580 G3 X284.278 Y295.466 I.1 J0. F500.
N3590 X284.378 Y295.566 I0. J.1
N3600 X284.278 Y295.666 I-.1 J0.
N3610 X284.178 Y295.566 I0. J-.1
N3620 G1 Z-4.133 F150.
N3630 G3 X284.278 Y295.466 I.1 J0. F500.
N3640 X284.378 Y295.566 I0. J.1
N3650 X284.278 Y295.666 I-.1 J0.
N3660 X284.178 Y295.566 I0. J-.1
N3670 G1 Z-6.2 F150.
N3680 G3 X284.278 Y295.466 I.1 J0. F500.
N3690 X284.378 Y295.566 I0. J.1
N3700 X284.278 Y295.666 I-.1 J0.
N3710 X284.178 Y295.566 I0. J-.1
N3720 G0 Z-1.2
N3730 Z5.
N3740 X272.364 Y310.253
N3750 G1 Z-2.067 F150.
N3760 G3 X272.964 Y309.653 I.6 J0. F500.
N3770 X273.564 Y310.253 I0. J.6
N3780 X272.964 Y310.853 I-.6 J0.
N3790 X272.364 Y310.253 I0. J-.6
N3800 G1 Z-4.133 F150.
N3810 G3 X272.964 Y309.653 I.6 J0. F500.
N3820 X273.564 Y310.253 I0. J.6
N3830 X272.964 Y310.853 I-.6 J0.
N3840 X272.364 Y310.253 I0. J-.6
N3850 G1 Z-6.2 F150.
N3860 G3 X272.964 Y309.653 I.6 J0. F500.
N3870 X273.564 Y310.253 I0. J.6
N3880 X272.964 Y310.853 I-.6 J0.
N3890 X272.364 Y310.253 I0. J-.6
N3900 G0 Z-1.2
N3910 Z5.
N3920 X284.178 Y251.865
N3930 G1 Z-2.067 F150.
N3940 G3 X284.278 Y251.765 I.1 J0. F500.
N3950 X284.378 Y251.865 I0. J.1
N3960 X284.278 Y251.965 I-.1 J0.
N3970 X284.178 Y251.865 I0. J-.1
N3980 G1 Z-4.133 F150.
N3990 G3 X284.278 Y251.765 I.1 J0. F500.
N4000 X284.378 Y251.865 I0. J.1
N4010 X284.278 Y251.965 I-.1 J0.
N4020 X284.178 Y251.865 I0. J-.1
N4030 G1 Z-6.2 F150.
N4040 G3 X284.278 Y251.765 I.1 J0. F500.
N4050 X284.378 Y251.865 I0. J.1
N4060 X284.278 Y251.965 I-.1 J0.
N4070 X284.178 Y251.865 I0. J-.1
N4080 G0 Z-1.2
N4090 Z5.
N4100 X336.1 Y260.654
N4110 G1 Z-2.067 F150.
N4120 G3 X336. Y260.754 I-.1 J0. F500.
N4130 X335.9 Y260.654 I0. J-.1
N4140 X336. Y260.554 I.1 J0.
N4150 X336.1 Y260.654 I0. J.1
N4160 G1 Z-4.133 F150.
N4170 G3 X336. Y260.754 I-.1 J0. F500.
N4180 X335.9 Y260.654 I0. J-.1
N4190 X336. Y260.554 I.1 J0.
N4200 X336.1 Y260.654 I0. J.1
N4210 G1 Z-6.2 F150.
N4220 G3 X336. Y260.754 I-.1 J0. F500.
N4230 X335.9 Y260.654 I0. J-.1
N4240 X336. Y260.554 I.1 J0.
N4250 X336.1 Y260.654 I0. J.1
N4260 G0 Z-1.2
N4270 Z5.
N4280 X284.178 Y166.865
N4290 G1 Z-2.067 F150.
N4300 G3 X284.278 Y166.765 I.1 J0. F500.
N4310 X284.378 Y166.865 I0. J.1
N4320 X284.278 Y166.965 I-.1 J0.
N4330 X284.178 Y166.865 I0. J-.1
N4340 G1 Z-4.133 F150.
N4350 G3 X284.278 Y166.765 I.1 J0. F500.
N4360 X284.378 Y166.865 I0. J.1
N4370 X284.278 Y166.965 I-.1 J0.
N4380 X284.178 Y166.865 I0. J-.1
N4390 G1 Z-6.2 F150.
N4400 G3 X284.278 Y166.765 I.1 J0. F500.
N4410 X284.378 Y166.865 I0. J.1
N4420 X284.278 Y166.965 I-.1 J0.
N4430 X284.178 Y166.865 I0. J-.1
N4440 G0 Z-1.2
N4450 Z5.
N4460 Y81.865
N4470 G1 Z-2.067 F150.
N4480 G3 X284.278 Y81.765 I.1 J0. F500.
N4490 X284.378 Y81.865 I0. J.1
N4500 X284.278 Y81.965 I-.1 J0.
N4510 X284.178 Y81.865 I0. J-.1
N4520 G1 Z-4.133 F150.
N4530 G3 X284.278 Y81.765 I.1 J0. F500.
N4540 X284.378 Y81.865 I0. J.1
N4550 X284.278 Y81.965 I-.1 J0.
N4560 X284.178 Y81.865 I0. J-.1
N4570 G1 Z-6.2 F150.
N4580 G3 X284.278 Y81.765 I.1 J0. F500.
N4590 X284.378 Y81.865 I0. J.1
N4600 X284.278 Y81.965 I-.1 J0.
N4610 X284.178 Y81.865 I0. J-.1
N4620 G0 Z-1.2
N4630 Z5.
N4640 X336.1 Y15.654
N4650 G1 Z-2.067 F150.
N4660 G3 X336. Y15.754 I-.1 J0. F500.
N4670 X335.9 Y15.654 I0. J-.1
N4680 X336. Y15.554 I.1 J0.
N4690 X336.1 Y15.654 I0. J.1
N4700 G1 Z-4.133 F150.
N4710 G3 X336. Y15.754 I-.1 J0. F500.
N4720 X335.9 Y15.654 I0. J-.1
N4730 X336. Y15.554 I.1 J0.
N4740 X336.1 Y15.654 I0. J.1
N4750 G1 Z-6.2 F150.
N4760 G3 X336. Y15.754 I-.1 J0. F500.
N4770 X335.9 Y15.654 I0. J-.1
N4780 X336. Y15.554 I.1 J0.
N4790 X336.1 Y15.654 I0. J.1
N4800 G0 Z-1.2
N4810 Z5.
N4820 X189.178 Y81.777
N4830 G1 Z-2.067 F150.
N4840 G3 X189.278 Y81.677 I.1 J0. F500.
N4850 X189.378 Y81.777 I0. J.1
N4860 X189.278 Y81.877 I-.1 J0.
N4870 X189.178 Y81.777 I0. J-.1
N4880 G1 Z-4.133 F150.
N4890 G3 X189.278 Y81.677 I.1 J0. F500.
N4900 X189.378 Y81.777 I0. J.1
N4910 X189.278 Y81.877 I-.1 J0.
N4920 X189.178 Y81.777 I0. J-.1
N4930 G1 Z-6.2 F150.
N4940 G3 X189.278 Y81.677 I.1 J0. F500.
N4950 X189.378 Y81.777 I0. J.1
N4960 X189.278 Y81.877 I-.1 J0.
N4970 X189.178 Y81.777 I0. J-.1
N4980 G0 Z-1.2
N4990 Z5.
N5000 Y166.777
N5010 G1 Z-2.067 F150.
N5020 G3 X189.278 Y166.677 I.1 J0. F500.
N5030 X189.378 Y166.777 I0. J.1
N5040 X189.278 Y166.877 I-.1 J0.
N5050 X189.178 Y166.777 I0. J-.1
N5060 G1 Z-4.133 F150.
N5070 G3 X189.278 Y166.677 I.1 J0. F500.
N5080 X189.378 Y166.777 I0. J.1
N5090 X189.278 Y166.877 I-.1 J0.
N5100 X189.178 Y166.777 I0. J-.1
N5110 G1 Z-6.2 F150.
N5120 G3 X189.278 Y166.677 I.1 J0. F500.
N5130 X189.378 Y166.777 I0. J.1
N5140 X189.278 Y166.877 I-.1 J0.
N5150 X189.178 Y166.777 I0. J-.1
N5160 G0 Z5.
N5170 X99.128 Y321.566
N5180 G1 Z-2.067 F150.
N5190 G3 X94.278 Y326.416 I-4.85 J0. F500.
N5200 X89.428 Y321.566 I0. J-4.85
N5210 X94.278 Y316.716 I4.85 J0.
N5220 X99.128 Y321.566 I0. J4.85
N5230 G1 Z-4.133 F150.
N5240 G3 X94.278 Y326.416 I-4.85 J0. F500.
N5250 X89.428 Y321.566 I0. J-4.85
N5260 X94.278 Y316.716 I4.85 J0.
N5270 X99.128 Y321.566 I0. J4.85
N5280 G1 Z-6.2 F150.
N5290 G3 X94.278 Y326.416 I-4.85 J0. F500.
N5300 X89.428 Y321.566 I0. J-4.85
N5310 X94.278 Y316.716 I4.85 J0.
N5320 X99.128 Y321.566 I0. J4.85
N5330 G1 X99.628
N5340 G3 X94.278 Y326.916 I-5.35 J0.
N5350 X88.928 Y321.566 I0. J-5.35
N5360 X94.278 Y316.216 I5.35 J0.
N5370 X99.628 Y321.566 I0. J5.35
N5380 G0 Z-1.2
N5390 Z5.
N5400 X95.428 Y285.666
N5410 G1 Z-2.067 F150.
N5420 X93.028 F500.
N5430 Y274.466
N5440 X95.428
N5450 Y285.666
N5460 Z-4.133 F150.
N5470 X93.028 F500.
N5480 Y274.466
N5490 X95.428
N5500 Y285.666
N5510 Z-6.2 F150.
N5520 X93.028 F500.
N5530 Y274.466
N5540 X95.428
N5550 Y285.666
N5560 X95.928 Y286.166
N5570 X92.528
N5580 Y273.966
N5590 X95.928
N5600 Y286.166
N5610 G0 Z-1.2
N5620 Z5.
N5630 X188.128 Y285.666
N5640 G1 Z-2.067 F150.
N5650 Y274.466 F500.
N5660 X190.528
N5670 Y285.666
N5680 X188.128
N5690 Z-4.133 F150.
N5700 Y274.466 F500.
N5710 X190.528
N5720 Y285.666
N5730 X188.128
N5740 Z-6.2 F150.
N5750 Y274.466 F500.
N5760 X190.528
N5770 Y285.666
N5780 X188.128
N5790 X187.628 Y286.166
N5800 Y273.966
N5810 X191.028
N5820 Y286.166
N5830 X187.628
N5840 G0 Z-1.2
N5850 Z5.
N5860 X192.628 Y321.566
N5870 G1 Z-2.067 F150.
N5880 G3 X189.278 Y324.916 I-3.35 J0. F500.
N5890 X185.928 Y321.566 I0. J-3.35
N5900 X189.278 Y318.216 I3.35 J0.
N5910 X192.628 Y321.566 I0. J3.35
N5920 G1 Z-4.133 F150.
N5930 G3 X189.278 Y324.916 I-3.35 J0. F500.
N5940 X185.928 Y321.566 I0. J-3.35
N5950 X189.278 Y318.216 I3.35 J0.
N5960 X192.628 Y321.566 I0. J3.35
N5970 G1 Z-6.2 F150.
N5980 G3 X189.278 Y324.916 I-3.35 J0. F500.
N5990 X185.928 Y321.566 I0. J-3.35
N6000 X189.278 Y318.216 I3.35 J0.
N6010 X192.628 Y321.566 I0. J3.35
N6020 G1 X193.128
N6030 G3 X189.278 Y325.416 I-3.85 J0.
N6040 X185.428 Y321.566 I0. J-3.85
N6050 X189.278 Y317.716 I3.85 J0.
N6060 X193.128 Y321.566 I0. J3.85
N6070 G0 Z-1.2
N6080 Z5.
N6090 X283.128 Y285.666
N6100 G1 Z-2.067 F150.
N6110 Y274.466 F500.
N6120 X285.528
N6130 Y285.666
N6140 X283.128
N6150 Z-4.133 F150.
N6160 Y274.466 F500.
N6170 X285.528
N6180 Y285.666
N6190 X283.128
N6200 Z-6.2 F150.
N6210 Y274.466 F500.
N6220 X285.528
N6230 Y285.666
N6240 X283.128
N6250 X282.628 Y286.166
N6260 Y273.966
N6270 X286.028
N6280 Y286.166
N6290 X282.628
N6300 G0 Z-1.2
N6310 Z5.
N6320 X289.128 Y321.566
N6330 G1 Z-2.067 F150.
N6340 G3 X284.278 Y326.416 I-4.85 J0. F500.
N6350 X279.428 Y321.566 I0. J-4.85
N6360 X284.278 Y316.716 I4.85 J0.
N6370 X289.128 Y321.566 I0. J4.85
N6380 G1 Z-4.133 F150.
N6390 G3 X284.278 Y326.416 I-4.85 J0. F500.
N6400 X279.428 Y321.566 I0. J-4.85
N6410 X284.278 Y316.716 I4.85 J0.
N6420 X289.128 Y321.566 I0. J4.85
N6430 G1 Z-6.2 F150.
N6440 G3 X284.278 Y326.416 I-4.85 J0. F500.
N6450 X279.428 Y321.566 I0. J-4.85
N6460 X284.278 Y316.716 I4.85 J0.
N6470 X289.128 Y321.566 I0. J4.85
N6480 G1 X289.628
N6490 G3 X284.278 Y326.916 I-5.35 J0.
N6500 X278.928 Y321.566 I0. J-5.35
N6510 X284.278 Y316.216 I5.35 J0.
N6520 X289.628 Y321.566 I0. J5.35
N6530 G0 Z5.
N6540 X95.428 Y219.965
N6550 G1 Z-2.067 F150.
N6560 X93.028 F500.
N6570 Y198.765
N6580 X95.428
N6590 Y219.965
N6600 Z-4.133 F150.
N6610 X93.028 F500.
N6620 Y198.765
N6630 X95.428
N6640 Y219.965
N6650 Z-6.2 F150.
N6660 X93.028 F500.
N6670 Y198.765
N6680 X95.428
N6690 Y219.965
N6700 X95.928 Y220.465
N6710 X92.528
N6720 Y198.265
N6730 X95.928
N6740 Y220.465
N6750 G0 Z-1.2
N6760 Z5.
N6770 X95.428 Y134.965
N6780 G1 Z-2.067 F150.
N6790 X93.028 F500.
N6800 Y113.765
N6810 X95.428
N6820 Y134.965
N6830 Z-4.133 F150.
N6840 X93.028 F500.
N6850 Y113.765
N6860 X95.428
N6870 Y134.965
N6880 Z-6.2 F150.
N6890 X93.028 F500.
N6900 Y113.765
N6910 X95.428
N6920 Y134.965
N6930 X95.928 Y135.465
N6940 X92.528
N6950 Y113.265
N6960 X95.928
N6970 Y135.465
N6980 G0 Z-1.2
N6990 Z5.
N7000 X95.428 Y49.965
N7010 G1 Z-2.067 F150.
N7020 X93.028 F500.
N7030 Y28.765
N7040 X95.428
N7050 Y49.965
N7060 Z-4.133 F150.
N7070 X93.028 F500.
N7080 Y28.765
N7090 X95.428
N7100 Y49.965
N7110 Z-6.2 F150.
N7120 X93.028 F500.
N7130 Y28.765
N7140 X95.428
N7150 Y49.965
N7160 X95.928 Y50.465
N7170 X92.528
N7180 Y28.265
N7190 X95.928
N7200 Y50.465
N7210 G0 Z-1.2
N7220 Z5.
N7230 X188.128 Y49.877
N7240 G1 Z-2.067 F150.
N7250 Y28.677 F500.
N7260 X190.428
N7270 Y49.877
N7280 X188.128
N7290 Z-4.133 F150.
N7300 Y28.677 F500.
N7310 X190.428
N7320 Y49.877
N7330 X188.128
N7340 Z-6.2 F150.
N7350 Y28.677 F500.
N7360 X190.428
N7370 Y49.877
N7380 X188.128
N7390 X187.628 Y50.377
N7400 Y28.177
N7410 X190.928
N7420 Y50.377
N7430 X187.628
N7440 G0 Z-1.2
N7450 Z5.
N7460 X188.228 Y113.677
N7470 G1 Z-2.067 F150.
N7480 X190.528 F500.
N7490 Y134.877
N7500 X188.228
N7510 Y113.677
N7520 Z-4.133 F150.
N7530 X190.528 F500.
N7540 Y134.877
N7550 X188.228
N7560 Y113.677
N7570 Z-6.2 F150.
N7580 X190.528 F500.
N7590 Y134.877
N7600 X188.228
N7610 Y113.677
N7620 X187.728 Y113.177
N7630 X191.028
N7640 Y135.377
N7650 X187.728
N7660 Y113.177
N7670 G0 Z-1.2
N7680 Z5.
N7690 X188.128 Y198.677
N7700 G1 Z-2.067 F150.
N7710 X190.528 F500.
N7720 Y219.877
N7730 X188.128
N7740 Y198.677
N7750 Z-4.133 F150.
N7760 X190.528 F500.
N7770 Y219.877
N7780 X188.128
N7790 Y198.677
N7800 Z-6.2 F150.
N7810 X190.528 F500.
N7820 Y219.877
N7830 X188.128
N7840 Y198.677
N7850 X187.628 Y198.177
N7860 X191.028
N7870 Y220.377
N7880 X187.628
N7890 Y198.177
N7900 G0 Z-1.2
N7910 Z5.
N7920 X283.128 Y198.765
N7930 G1 Z-2.067 F150.
N7940 X285.528 F500.
N7950 Y219.965
N7960 X283.128
N7970 Y198.765
N7980 Z-4.133 F150.
N7990 X285.528 F500.
N8000 Y219.965
N8010 X283.128
N8020 Y198.765
N8030 Z-6.2 F150.
N8040 X285.528 F500.
N8050 Y219.965
N8060 X283.128
N8070 Y198.765
N8080 X282.628 Y198.265
N8090 X286.028
N8100 Y220.465
N8110 X282.628
N8120 Y198.265
N8130 G0 Z-1.2
N8140 Z5.
N8150 X283.128 Y134.965
N8160 G1 Z-2.067 F150.
N8170 Y113.765 F500.
N8180 X285.528
N8190 Y134.965
N8200 X283.128
N8210 Z-4.133 F150.
N8220 Y113.765 F500.
N8230 X285.528
N8240 Y134.965
N8250 X283.128
N8260 Z-6.2 F150.
N8270 Y113.765 F500.
N8280 X285.528
N8290 Y134.965
N8300 X283.128
N8310 X282.628 Y135.465
N8320 Y113.265
N8330 X286.028
N8340 Y135.465
N8350 X282.628
N8360 G0 Z-1.2
N8370 Z5.
N8380 X283.128 Y49.965
N8390 G1 Z-2.067 F150.
N8400 Y28.765 F500.
N8410 X285.528
N8420 Y49.965
N8430 X283.128
N8440 Z-4.133 F150.
N8450 Y28.765 F500.
N8460 X285.528
N8470 Y49.965
N8480 X283.128
N8490 Z-6.2 F150.
N8500 Y28.765 F500.
N8510 X285.528
N8520 Y49.965
N8530 X283.128
N8540 X282.628 Y50.465
N8550 Y28.265
N8560 X286.028
N8570 Y50.465
N8580 X282.628
N8590 G0 Z5.
N8600 X298.278 Y339.466
N8610 G1 Z-2.067 F150.
N8620 X221.393 F500.
N8630 G3 X217.493 Y335.566 I0. J-3.9
N8640 G1 Y334.376
N8650 X161.062
N8660 Y335.566
N8670 G3 X157.162 Y339.466 I-3.9 J0.
N8680 G1 X80.278
N8690 G3 X76.378 Y335.566 I0. J-3.9
N8700 G1 Y305.514
N8710 G2 X76.449 Y302.959 I-46.048 J-2.555
N8720 X61.276 Y268.765 I-46.119 J0.
N8730 G1 X49.
N8740 G3 X35.1 Y254.865 I0. J-13.9
N8750 G1 Y17.654
N8760 G3 X49. Y3.754 I13.9 J0.
N8770 G1 X336.22
N8780 G3 X350.12 Y17.654 I0. J13.9
N8790 G1 Y254.865
N8800 G3 X336.22 Y268.765 I-13.9 J0.
N8810 G1 X316.252
N8820 G2 X302.178 Y305.566 I41.078 J36.801
N8830 G1 Y335.566
N8840 G3 X298.278 Y339.466 I-3.9 J0.
N8850 G1 Z-4.133 F150.
N8860 X221.393 F500.
N8870 G3 X217.493 Y335.566 I0. J-3.9
N8880 G1 Y334.376
N8890 X161.062
N8900 Y335.566
N8910 G3 X157.162 Y339.466 I-3.9 J0.
N8920 G1 X80.278
N8930 G3 X76.378 Y335.566 I0. J-3.9
N8940 G1 Y305.514
N8950 G2 X76.449 Y302.959 I-46.048 J-2.555
N8960 X61.276 Y268.765 I-46.119 J0.
N8970 G1 X49.
N8980 G3 X35.1 Y254.865 I0. J-13.9
N8990 G1 Y17.654
N9000 G3 X49. Y3.754 I13.9 J0.
N9010 G1 X336.22
N9020 G3 X350.12 Y17.654 I0. J13.9
N9030 G1 Y254.865
N9040 G3 X336.22 Y268.765 I-13.9 J0.
N9050 G1 X316.252
N9060 G2 X302.178 Y305.566 I41.078 J36.801
N9070 G1 Y335.566
N9080 G3 X298.278 Y339.466 I-3.9 J0.
N9090 G1 Z-6.2 F150.
N9100 X221.393 F500.
N9110 G3 X217.493 Y335.566 I0. J-3.9
N9120 G1 Y334.376
N9130 X189.001
N9140 X187.301 Z-4.5
N9150 X167.801
N9160 X166.101 Z-6.2
N9170 X161.062
N9180 Y335.566
N9190 G3 X157.162 Y339.466 I-3.9 J0.
N9200 G1 X80.278
N9210 G3 X76.378 Y335.566 I0. J-3.9
N9220 G1 Y305.514
N9230 G2 X76.449 Y302.959 I-46.048 J-2.555
N9240 X61.276 Y268.765 I-46.119 J0.
N9250 G1 X49.
N9260 G3 X35.1 Y254.865 I0. J-13.9
N9270 G1 Y226.347
N9280 Y224.647 Z-4.5
N9290 Y205.147
N9300 Y203.447 Z-6.2
N9310 Y17.654
N9320 G3 X49. Y3.754 I13.9 J0.
N9330 G1 X71.373
N9340 X73.073 Z-4.5
N9350 X92.573
N9360 X94.273 Z-6.2
N9370 X321.29
N9380 X322.99 Z-4.5
N9390 X336.22
N9400 G3 X342.279 Y5.144 I0. J13.9
N9410 X343.76 Y5.977 Z-6.2 I-6.059 J12.51
N9420 X350.12 Y17.654 I-7.54 J11.677
N9430 G1 Y233.79
N9440 Y235.49 Z-4.5
N9450 Y254.865
N9460 Y254.99
N9470 G3 X350.001 Y256.685 Z-6.2 I-13.9 J-.125
N9480 X336.22 Y268.765 I-13.781 J-1.82
N9490 G1 X316.252
N9500 G2 X302.178 Y305.566 I41.078 J36.801
N9510 G1 Y335.566
N9520 G3 X298.278 Y339.466 I-3.9 J0.
N9530 G1 Y338.966
N9540 X221.393
N9550 G3 X217.993 Y335.566 I0. J-3.4
N9560 G1 Y333.876
N9570 X189.001
N9580 X187.301 Z-4.5
N9590 X167.801
N9600 X166.101 Z-6.2
N9610 X160.562
N9620 Y335.566
N9630 G3 X157.162 Y338.966 I-3.4 J0.
N9640 G1 X80.278
N9650 G3 X76.878 Y335.566 I0. J-3.4
N9660 G1 Y305.528
N9670 G2 X76.949 Y302.959 I-46.548 J-2.569
N9680 X61.468 Y268.265 I-46.619 J0.
N9690 G1 X49.
N9700 G3 X35.6 Y254.865 I0. J-13.4
N9710 G1 Y226.347
N9720 Y224.647 Z-4.5
N9730 Y205.147
N9740 Y203.447 Z-6.2
N9750 Y17.654
N9760 G3 X49. Y4.254 I13.4 J0.
N9770 G1 X71.373
N9780 X73.073 Z-4.5
N9790 X92.573
N9800 X94.273 Z-6.2
N9810 X321.29
N9820 X322.99 Z-4.5
N9830 X336.22
N9840 G3 X342.264 Y5.694 I0. J13.4
N9850 X343.728 Y6.555 Z-6.2 I-6.044 J11.96
N9860 X349.62 Y17.654 I-7.508 J11.099
N9870 G1 Y233.79
N9880 Y235.49 Z-4.5
N9890 Y254.865
N9900 Y254.99
N9910 G3 X349.496 Y256.685 Z-6.2 I-13.4 J-.125
N9920 X336.22 Y268.265 I-13.276 J-1.82
N9930 G1 X316.029
N9940 G2 X301.678 Y305.566 I41.301 J37.301
N9950 G1 Y335.566
N9960 G3 X298.278 Y338.966 I-3.4 J0.
N9970 G0 Z5.
N9980 X6.5 Y290.
N9990 G1 Z-2.067 F150.
N100 Y282.7 F500.
N110 X2.
N120 G3 X.5 Y281.2 I0. J-1.5
N130 G1 Y259.2
N140 G3 X2. Y257.7 I1.5 J0.
N150 G1 X6.5
N160 Y229.35
N170 G3 X8. Y227.85 I1.5 J0.
N180 G1 X14.5
N190 G3 X15.979 Y229.099 I0. J1.5
N200 G2 X16.028 Y229.14 I.049 J-.009
N210 G1 X17.515
N220 G3 X17.82 Y228.701 I1.365 J.622
N230 G2 X18.193 Y227.8 I-.901 J-.901
N240 X17.82 Y226.899 I-1.274 J0.
N250 G3 X17.515 Y226.46 I1.06 J-1.061
N260 G1 X16.028
N270 G2 X15.979 Y226.501 I0. J.05
N280 G3 X14.5 Y227.75 I-1.479 J-.251
N290 G1 X8.
N300 G3 X6.5 Y226.25 I0. J-1.5
N310 G1 Y197.7
N320 X2.
N330 G3 X.5 Y196.2 I0. J-1.5
N340 G1 Y174.2
N350 G3 X2. Y172.7 I1.5 J0.
N360 G1 X6.5
N370 Y144.35
N380 G3 X8. Y142.85 I1.5 J0.
N390 G1 X14.5
N400 G3 X15.979 Y144.099 I0. J1.5
N410 G2 X16.028 Y144.14 I.049 J-.009
N420 G1 X17.515
N430 G3 X17.82 Y143.701 I1.365 J.622
N440 G2 X18.193 Y142.8 I-.901 J-.901
N450 X17.82 Y141.899 I-1.274 J0.
N460 G3 X17.515 Y141.46 I1.06 J-1.061
N470 G1 X16.028
N480 G2 X15.979 Y141.501 I0. J.05
N490 G3 X14.5 Y142.75 I-1.479 J-.251
N500 G1 X8.
N510 G3 X6.5 Y141.25 I0. J-1.5
N520 G1 Y112.7
N530 X2.
N540 G3 X.5 Y111.2 I0. J-1.5
N550 G1 Y89.2
N560 G3 X2. Y87.7 I1.5 J0.
N570 G1 X6.5
N580 Y59.35
N590 G3 X8. Y57.85 I1.5 J0.
N600 G1 X14.5
N610 G3 X15.979 Y59.099 I0. J1.5
N620 G2 X16.028 Y59.14 I.049 J-.009
N630 G1 X17.515
N640 G3 X17.82 Y58.701 I1.365 J.622
N650 G2 X18.193 Y57.8 I-.901 J-.901
N660 X17.82 Y56.899 I-1.274 J0.
N670 G3 X17.515 Y56.46 I1.06 J-1.061
N680 G1 X16.028
N690 G2 X15.979 Y56.501 I0. J.05
N700 G3 X14.5 Y57.75 I-1.479 J-.251
N710 G1 X8.
N720 G3 X6.5 Y56.25 I0. J-1.5
N730 G1 Y43.7
N740 G3 X8. Y42.2 I1.5 J0.
N750 G1 X12.5
N760 Y37.
N770 X2.
N780 G3 X.5 Y35.5 I0. J-1.5
N790 G1 Y23.5
N800 G3 X2. Y22. I1.5 J0.
N810 G1 X12.5
N820 Y15.65
N830 G3 X14. Y14.15 I1.5 J0.
N840 G1 X20.5
N850 G3 X21.979 Y15.399 I0. J1.5
N860 G2 X22.028 Y15.44 I.049 J-.009
N870 G1 X23.515
N880 G3 X23.82 Y15.001 I1.365 J.622
N890 G2 X24.193 Y14.1 I-.901 J-.901
N900 X23.82 Y13.199 I-1.274 J0.
N910 G3 X23.515 Y12.76 I1.06 J-1.061
N920 G1 X22.028
N930 G2 X21.979 Y12.801 I0. J.05
N940 G3 X20.5 Y14.05 I-1.479 J-.251
N950 G1 X14.
N960 G3 X12.5 Y12.55 I0. J-1.5
N970 G1 Y5.
N980 G3 X14. Y3.5 I1.5 J0.
N990 G1 X24.
N1000 G3 X30.5 Y10. I0. J6.5
N1010 G1 Y285.
N1020 G3 X24. Y291.5 I-6.5 J0.
N1030 G1 X8.
N1040 G3 X6.5 Y290. I0. J-1.5
N1050 G1 Z-4.133 F150.
N1060 Y282.7 F500.
N1070 X2.
N1080 G3 X.5 Y281.2 I0. J-1.5
N1090 G1 Y259.2
N1100 G3 X2. Y257.7 I1.5 J0.
N1110 G1 X6.5
N1120 Y229.35
N1130 G3 X8. Y227.85 I1.5 J0.
N1140 G1 X14.5
N1150 G3 X15.979 Y229.099 I0. J1.5
N1160 G2 X16.028 Y229.14 I.049 J-.009
N1170 G1 X17.515
N1180 G3 X17.82 Y228.701 I1.365 J.622
N1190 G2 X18.193 Y227.8 I-.901 J-.901
N1200 X17.82 Y226.899 I-1.274 J0.
N1210 G3 X17.515 Y226.46 I1.06 J-1.061
N1220 G1 X16.028
N1230 G2 X15.979 Y226.501 I0. J.05
N1240 G3 X14.5 Y227.75 I-1.479 J-.251
N1250 G1 X8.
N1260 G3 X6.5 Y226.25 I0. J-1.5
N1270 G1 Y197.7
N1280 X2.
N1290 G3 X.5 Y196.2 I0. J-1.5
N1300 G1 Y174.2
N1310 G3 X2. Y172.7 I1.5 J0.
N1320 G1 X6.5
N1330 Y144.35
N1340 G3 X8. Y142.85 I1.5 J0.
N1350 G1 X14.5
N1360 G3 X15.979 Y144.099 I0. J1.5
N1370 G2 X16.028 Y144.14 I.049 J-.009
N1380 G1 X17.515
N1390 G3 X17.82 Y143.701 I1.365 J.622
N1400 G2 X18.193 Y142.8 I-.901 J-.901
N1410 X17.82 Y141.899 I-1.274 J0.
N1420 G3 X17.515 Y141.46 I1.06 J-1.061
N1430 G1 X16.028
N1440 G2 X15.979 Y141.501 I0. J.05
N1450 G3 X14.5 Y142.75 I-1.479 J-.251
N1460 G1 X8.
N1470 G3 X6.5 Y141.25 I0. J-1.5
N1480 G1 Y112.7
N1490 X2.
N1500 G3 X.5 Y111.2 I0. J-1.5
N1510 G1 Y89.2
N1520 G3 X2. Y87.7 I1.5 J0.
N1530 G1 X6.5
N1540 Y59.35
N1550 G3 X8. Y57.85 I1.5 J0.
N1560 G1 X14.5
N1570 G3 X15.979 Y59.099 I0. J1.5
N1580 G2 X16.028 Y59.14 I.049 J-.009
N1590 G1 X17.515
N1600 G3 X17.82 Y58.701 I1.365 J.622
N1610 G2 X18.193 Y57.8 I-.901 J-.901
N1620 X17.82 Y56.899 I-1.274 J0.
N1630 G3 X17.515 Y56.46 I1.06 J-1.061
N1640 G1 X16.028
N1650 G2 X15.979 Y56.501 I0. J.05
N1660 G3 X14.5 Y57.75 I-1.479 J-.251
N1670 G1 X8.
N1680 G3 X6.5 Y56.25 I0. J-1.5
N1690 G1 Y43.7
N1700 G3 X8. Y42.2 I1.5 J0.
N1710 G1 X12.5
N1720 Y37.
N1730 X2.
N1740 G3 X.5 Y35.5 I0. J-1.5
N1750 G1 Y23.5
N1760 G3 X2. Y22. I1.5 J0.
N1770 G1 X12.5
N1780 Y15.65
N1790 G3 X14. Y14.15 I1.5 J0.
N1800 G1 X20.5
N1810 G3 X21.979 Y15.399 I0. J1.5
N1820 G2 X22.028 Y15.44 I.049 J-.009
N1830 G1 X23.515
N1840 G3 X23.82 Y15.001 I1.365 J.622
N1850 G2 X24.193 Y14.1 I-.901 J-.901
N1860 X23.82 Y13.199 I-1.274 J0.
N1870 G3 X23.515 Y12.76 I1.06 J-1.061
N1880 G1 X22.028
N1890 G2 X21.979 Y12.801 I0. J.05
N1900 G3 X20.5 Y14.05 I-1.479 J-.251
N1910 G1 X14.
N1920 G3 X12.5 Y12.55 I0. J-1.5
N1930 G1 Y5.
N1940 G3 X14. Y3.5 I1.5 J0.
N1950 G1 X24.
N1960 G3 X30.5 Y10. I0. J6.5
N1970 G1 Y285.
N1980 G3 X24. Y291.5 I-6.5 J0.
N1990 G1 X8.
N2000 G3 X6.5 Y290. I0. J-1.5
N2010 G1 Z-6.2 F150.
N2020 Y282.7 F500.
N2030 X2.
N2040 G3 X.5 Y281.2 I0. J-1.5
N2050 G1 Y259.2
N2060 G3 X2. Y257.7 I1.5 J0.
N2070 G1 X6.5
N2080 Y229.35
N2090 G3 X8. Y227.85 I1.5 J0.
N2100 G1 X14.5
N2110 G3 X15.979 Y229.099 I0. J1.5
N2120 G2 X16.028 Y229.14 I.049 J-.009
N2130 G1 X17.515
N2140 G3 X17.82 Y228.701 I1.365 J.622
N2150 G2 X18.193 Y227.8 I-.901 J-.901
N2160 X17.82 Y226.899 I-1.274 J0.
N2170 G3 X17.515 Y226.46 I1.06 J-1.061
N2180 G1 X16.028
N2190 G2 X15.979 Y226.501 I0. J.05
N2200 G3 X14.5 Y227.75 I-1.479 J-.251
N2210 G1 X8.
N2220 G3 X6.5 Y226.25 I0. J-1.5
N2230 G1 Y197.7
N2240 X2.
N2250 G3 X.5 Y196.2 I0. J-1.5
N2260 G1 Y185.65
N2270 Y184.45 Z-5.
N2280 Y174.2
N2290 G3 X2. Y172.7 I1.5 J0.
N2300 G1 X6.5
N2310 Y169.306
N2320 Y168.106 Z-6.2
N2330 Y144.35
N2340 G3 X8. Y142.85 I1.5 J0.
N2350 G1 X14.5
N2360 G3 X15.979 Y144.099 I0. J1.5
N2370 G2 X16.028 Y144.14 I.049 J-.009
N2380 G1 X17.515
N2390 G3 X17.82 Y143.701 I1.365 J.622
N2400 G2 X18.193 Y142.8 I-.901 J-.901
N2410 X17.82 Y141.899 I-1.274 J0.
N2420 G3 X17.515 Y141.46 I1.06 J-1.061
N2430 G1 X16.028
N2440 G2 X15.979 Y141.501 I0. J.05
N2450 G3 X14.5 Y142.75 I-1.479 J-.251
N2460 G1 X8.
N2470 G3 X6.5 Y141.25 I0. J-1.5
N2480 G1 Y119.65
N2490 Y118.45 Z-5.
N2500 Y112.7
N2510 X2.
N2520 G3 X.5 Y111.2 I0. J-1.5
N2530 G1 Y103.306
N2540 Y102.106 Z-6.2
N2550 Y89.2
N2560 G3 X2. Y87.7 I1.5 J0.
N2570 G1 X6.5
N2580 Y59.35
N2590 G3 X8. Y57.85 I1.5 J0.
N2600 G1 X14.5
N2610 G3 X15.979 Y59.099 I0. J1.5
N2620 G2 X16.028 Y59.14 I.049 J-.009
N2630 G1 X17.515
N2640 G3 X17.82 Y58.701 I1.365 J.622
N2650 G2 X18.193 Y57.8 I-.901 J-.901
N2660 X17.82 Y56.899 I-1.274 J0.
N2670 G3 X17.515 Y56.46 I1.06 J-1.061
N2680 G1 X16.028
N2690 G2 X15.979 Y56.501 I0. J.05
N2700 G3 X14.5 Y57.75 I-1.479 J-.251
N2710 G1 X8.
N2720 G3 X6.5 Y56.25 I0. J-1.5
N2730 G1 Y43.7
N2740 G3 X8. Y42.2 I1.5 J0.
N2750 G1 X12.5
N2760 Y37.
N2770 X2.
N2780 G3 X.5 Y35.5 I0. J-1.5
N2790 G1 Y23.5
N2800 G3 X2. Y22. I1.5 J0.
N2810 G1 X12.5
N2820 Y15.65
N2830 G3 X14. Y14.15 I1.5 J0.
N2840 G1 X20.5
N2850 G3 X21.979 Y15.399 I0. J1.5
N2860 G2 X22.028 Y15.44 I.049 J-.009
N2870 G1 X23.515
N2880 G3 X23.82 Y15.001 I1.365 J.622
N2890 G2 X24.193 Y14.1 I-.901 J-.901
N2900 X23.82 Y13.199 I-1.274 J0.
N2910 G3 X23.515 Y12.76 I1.06 J-1.061
N2920 G1 X22.028
N2930 G2 X21.979 Y12.801 I0. J.05
N2940 G3 X20.5 Y14.05 I-1.479 J-.251
N2950 G1 X14.
N2960 G3 X12.5 Y12.55 I0. J-1.5
N2970 G1 Y5.
N2980 G3 X14. Y3.5 I1.5 J0.
N2990 G1 X22.76
N3000 X23.96 Z-5.
N3010 X24.
N3020 G3 X30.5 Y10. I0. J6.5
N3030 G1 Y20.25
N3040 Y21.45 Z-6.2
N3050 Y273.55
N3060 Y274.75 Z-5.
N3070 Y285.
N3080 G3 X24. Y291.5 I-6.5 J0.
N3090 G1 X23.96
N3100 X22.76 Z-6.2
N3110 X8.
N3120 G3 X6.5 Y290. I0. J-1.5
N3130 G1 X6.6
N3140 Y282.6
N3150 X2.
N3160 G3 X.6 Y281.2 I0. J-1.4
N3170 G1 Y259.2
N3180 G3 X2. Y257.8 I1.4 J0.
N3190 G1 X6.6
N3200 Y229.35
N3210 G3 X8. Y227.95 I1.4 J0.
N3220 G1 X14.5
N3230 G3 X15.88 Y229.115 I0. J1.4
N3240 G2 X16.028 Y229.24 I.148 J-.025
N3250 G1 X17.578
N3260 X17.581
N3270 G3 X17.89 Y228.772 I1.299 J.522
N3280 G2 X18.293 Y227.8 I-.971 J-.972
N3290 X17.89 Y226.828 I-1.374 J0.
N3300 G3 X17.581 Y226.36 I.99 J-.99
N3310 G1 X17.578
N3320 X16.028
N3330 G2 X15.88 Y226.485 I0. J.15
N3340 G3 X14.5 Y227.65 I-1.38 J-.235
N3350 G1 X8.
N3360 G3 X6.6 Y226.25 I0. J-1.4
N3370 G1 Y197.6
N3380 X2.
N3390 G3 X.6 Y196.2 I0. J-1.4
N3400 G1 Y185.65
N3410 Y184.45 Z-5.
N3420 Y174.2
N3430 G3 X2. Y172.8 I1.4 J0.
N3440 G1 X6.6
N3450 Y169.349
N3460 Y168.149 Z-6.2
N3470 Y144.35
N3480 G3 X8. Y142.95 I1.4 J0.
N3490 G1 X14.5
N3500 G3 X15.88 Y144.115 I0. J1.4
N3510 G2 X16.028 Y144.24 I.148 J-.025
N3520 G1 X17.578
N3530 X17.581
N3540 G3 X17.89 Y143.772 I1.299 J.522
N3550 G2 X18.293 Y142.8 I-.971 J-.972
N3560 X17.89 Y141.828 I-1.374 J0.
N3570 G3 X17.581 Y141.36 I.99 J-.99
N3580 G1 X17.578
N3590 X16.028
N3600 G2 X15.88 Y141.485 I0. J.15
N3610 G3 X14.5 Y142.65 I-1.38 J-.235
N3620 G1 X8.
N3630 G3 X6.6 Y141.25 I0. J-1.4
N3640 G1 Y117.251
N3650 Y116.051 Z-5.
N3660 Y112.6
N3670 X2.
N3680 G3 X.6 Y111.2 I0. J-1.4
N3690 G1 Y100.95
N3700 Y99.75 Z-6.2
N3710 Y89.2
N3720 G3 X2. Y87.8 I1.4 J0.
N3730 G1 X6.6
N3740 Y59.35
N3750 G3 X8. Y57.95 I1.4 J0.
N3760 G1 X14.5
N3770 G3 X15.88 Y59.115 I0. J1.4
N3780 G2 X16.028 Y59.24 I.148 J-.025
N3790 G1 X17.578
N3800 X17.581
N3810 G3 X17.89 Y58.772 I1.299 J.522
N3820 G2 X18.293 Y57.8 I-.971 J-.972
N3830 X17.89 Y56.828 I-1.374 J0.
N3840 G3 X17.581 Y56.36 I.99 J-.99
N3850 G1 X17.578
N3860 X16.028
N3870 G2 X15.88 Y56.485 I0. J.15
N3880 G3 X14.5 Y57.65 I-1.38 J-.235
N3890 G1 X8.
N3900 G3 X6.6 Y56.25 I0. J-1.4
N3910 G1 Y43.7
N3920 G3 X8. Y42.3 I1.4 J0.
N3930 G1 X12.6
N3940 Y36.9
N3950 X2.
N3960 G3 X.6 Y35.5 I0. J-1.4
N3970 G1 Y23.5
N3980 G3 X2. Y22.1 I1.4 J0.
N3990 G1 X12.6
N4000 Y15.65
N4010 G3 X14. Y14.25 I1.4 J0.
N4020 G1 X20.5
N4030 G3 X21.88 Y15.415 I0. J1.4
N4040 G2 X22.028 Y15.54 I.148 J-.025
N4050 G1 X23.578
N4060 X23.581
N4070 G3 X23.89 Y15.072 I1.299 J.522
N4080 G2 X24.293 Y14.1 I-.971 J-.972
N4090 X23.89 Y13.128 I-1.374 J0.
N4100 G3 X23.581 Y12.66 I.99 J-.99
N4110 G1 X23.578
N4120 X22.028
N4130 G2 X21.88 Y12.785 I0. J.15
N4140 G3 X20.5 Y13.95 I-1.38 J-.235
N4150 G1 X14.
N4160 G3 X12.6 Y12.55 I0. J-1.4
N4170 G1 Y5.
N4180 G3 X14. Y3.6 I1.4 J0.
N4190 G1 X22.603
N4200 X23.803 Z-5.
N4210 X24.
N4220 G3 X30.4 Y10. I0. J6.4
N4230 G1 Y20.25
N4240 Y21.45 Z-6.2
N4250 Y273.55
N4260 Y274.75 Z-5.
N4270 Y285.
N4280 G3 X24. Y291.4 I-6.4 J0.
N4290 G1 X23.803
N4300 X22.603 Z-6.2
N4310 X8.
N4320 G3 X6.6 Y290. I0. J-1.4
N4330 G0 Z-1.2
N4340 Z5.
N4350 X354.72 Y289.465
N4360 G1 Z-2.067 F150.
N4370 Y14.465 F500.
N4380 G3 X361.22 Y7.965 I6.5 J0.
N4390 G1 X377.22
N4400 G3 X378.72 Y9.465 I0. J1.5
N4410 G1 Y16.765
N4420 X383.22
N4430 G3 X384.72 Y18.265 I0. J1.5
N4440 G1 Y40.265
N4450 G3 X383.22 Y41.765 I-1.5 J0.
N4460 G1 X378.72
N4470 Y70.115
N4480 G3 X377.22 Y71.615 I-1.5 J0.
N4490 G1 X370.72
N4500 G3 X369.241 Y70.367 I0. J-1.5
N4510 G2 X369.192 Y70.325 I-.049 J.008
N4520 G1 X367.705
N4530 G3 X367.401 Y70.764 I-1.365 J-.622
N4540 G2 X367.028 Y71.665 I.901 J.901
N4550 X367.401 Y72.567 I1.274 J0.
N4560 G3 X367.705 Y73.006 I-1.061 J1.061
N4570 G1 X369.192
N4580 G2 X369.241 Y72.964 I0. J-.05
N4590 G3 X370.72 Y71.715 I1.479 J.251
N4600 G1 X377.22
N4610 G3 X378.72 Y73.215 I0. J1.5
N4620 G1 Y101.765
N4630 X383.22
N4640 G3 X384.72 Y103.265 I0. J1.5
N4650 G1 Y125.265
N4660 G3 X383.22 Y126.765 I-1.5 J0.
N4670 G1 X378.72
N4680 Y155.115
N4690 G3 X377.22 Y156.615 I-1.5 J0.
N4700 G1 X370.72
N4710 G3 X369.241 Y155.367 I0. J-1.5
N4720 G2 X369.192 Y155.325 I-.049 J.008
N4730 G1 X367.705
N4740 G3 X367.401 Y155.764 I-1.365 J-.622
N4750 G2 X367.028 Y156.665 I.901 J.901
N4760 X367.401 Y157.567 I1.274 J0.
N4770 G3 X367.705 Y158.006 I-1.061 J1.061
N4780 G1 X369.192
N4790 G2 X369.241 Y157.964 I0. J-.05
N4800 G3 X370.72 Y156.715 I1.479 J.251
N4810 G1 X377.22
N4820 G3 X378.72 Y158.215 I0. J1.5
N4830 G1 Y186.765
N4840 X383.22
N4850 G3 X384.72 Y188.265 I0. J1.5
N4860 G1 Y210.265
N4870 G3 X383.22 Y211.765 I-1.5 J0.
N4880 G1 X378.72
N4890 Y240.115
N4900 G3 X377.22 Y241.615 I-1.5 J0.
N4910 G1 X370.72
N4920 G3 X369.241 Y240.367 I0. J-1.5
N4930 G2 X369.192 Y240.325 I-.049 J.008
N4940 G1 X367.705
N4950 G3 X367.401 Y240.764 I-1.365 J-.622
N4960 G2 X367.028 Y241.665 I.901 J.901
N4970 X367.401 Y242.567 I1.274 J0.
N4980 G3 X367.705 Y243.006 I-1.061 J1.061
N4990 G1 X369.192
N5000 G2 X369.241 Y242.964 I0. J-.05
N5010 G3 X370.72 Y241.715 I1.479 J.251
N5020 G1 X377.22
N5030 G3 X378.72 Y243.215 I0. J1.5
N5040 G1 Y255.765
N5050 G3 X377.22 Y257.265 I-1.5 J0.
N5060 G1 X372.72
N5070 Y262.465
N5080 X383.22
N5090 G3 X384.72 Y263.965 I0. J1.5
N5100 G1 Y275.965
N5110 G3 X383.22 Y277.465 I-1.5 J0.
N5120 G1 X372.72
N5130 Y283.815
N5140 G3 X371.22 Y285.315 I-1.5 J0.
N5150 G1 X364.72
N5160 G3 X363.241 Y284.067 I0. J-1.5
N5170 G2 X363.192 Y284.025 I-.049 J.008
N5180 G1 X361.705
N5190 G3 X361.401 Y284.464 I-1.365 J-.622
N5200 G2 X361.028 Y285.365 I.901 J.901
N5210 X361.401 Y286.267 I1.274 J0.
N5220 G3 X361.705 Y286.706 I-1.061 J1.061
N5230 G1 X363.192
N5240 G2 X363.241 Y286.664 I0. J-.05
N5250 G3 X364.72 Y285.415 I1.479 J.251
N5260 G1 X371.22
N5270 G3 X372.72 Y286.915 I0. J1.5
N5280 G1 Y294.465
N5290 G3 X371.22 Y295.965 I-1.5 J0.
N5300 G1 X361.22
N5310 G3 X354.72 Y289.465 I0. J-6.5
N5320 G1 Z-4.133 F150.
N5330 Y14.465 F500.
N5340 G3 X361.22 Y7.965 I6.5 J0.
N5350 G1 X377.22
N5360 G3 X378.72 Y9.465 I0. J1.5
N5370 G1 Y16.765
N5380 X383.22
N5390 G3 X384.72 Y18.265 I0. J1.5
N5400 G1 Y40.265
N5410 G3 X383.22 Y41.765 I-1.5 J0.
N5420 G1 X378.72
N5430 Y70.115
N5440 G3 X377.22 Y71.615 I-1.5 J0.
N5450 G1 X370.72
N5460 G3 X369.241 Y70.367 I0. J-1.5
N5470 G2 X369.192 Y70.325 I-.049 J.008
N5480 G1 X367.705
N5490 G3 X367.401 Y70.764 I-1.365 J-.622
N5500 G2 X367.028 Y71.665 I.901 J.901
N5510 X367.401 Y72.567 I1.274 J0.
N5520 G3 X367.705 Y73.006 I-1.061 J1.061
N5530 G1 X369.192
N5540 G2 X369.241 Y72.964 I0. J-.05
N5550 G3 X370.72 Y71.715 I1.479 J.251
N5560 G1 X377.22
N5570 G3 X378.72 Y73.215 I0. J1.5
N5580 G1 Y101.765
N5590 X383.22
N5600 G3 X384.72 Y103.265 I0. J1.5
N5610 G1 Y125.265
N5620 G3 X383.22 Y126.765 I-1.5 J0.
N5630 G1 X378.72
N5640 Y155.115
N5650 G3 X377.22 Y156.615 I-1.5 J0.
N5660 G1 X370.72
N5670 G3 X369.241 Y155.367 I0. J-1.5
N5680 G2 X369.192 Y155.325 I-.049 J.008
N5690 G1 X367.705
N5700 G3 X367.401 Y155.764 I-1.365 J-.622
N5710 G2 X367.028 Y156.665 I.901 J.901
N5720 X367.401 Y157.567 I1.274 J0.
N5730 G3 X367.705 Y158.006 I-1.061 J1.061
N5740 G1 X369.192
N5750 G2 X369.241 Y157.964 I0. J-.05
N5760 G3 X370.72 Y156.715 I1.479 J.251
N5770 G1 X377.22
N5780 G3 X378.72 Y158.215 I0. J1.5
N5790 G1 Y186.765
N5800 X383.22
N5810 G3 X384.72 Y188.265 I0. J1.5
N5820 G1 Y210.265
N5830 G3 X383.22 Y211.765 I-1.5 J0.
N5840 G1 X378.72
N5850 Y240.115
N5860 G3 X377.22 Y241.615 I-1.5 J0.
N5870 G1 X370.72
N5880 G3 X369.241 Y240.367 I0. J-1.5
N5890 G2 X369.192 Y240.325 I-.049 J.008
N5900 G1 X367.705
N5910 G3 X367.401 Y240.764 I-1.365 J-.622
N5920 G2 X367.028 Y241.665 I.901 J.901
N5930 X367.401 Y242.567 I1.274 J0.
N5940 G3 X367.705 Y243.006 I-1.061 J1.061
N5950 G1 X369.192
N5960 G2 X369.241 Y242.964 I0. J-.05
N5970 G3 X370.72 Y241.715 I1.479 J.251
N5980 G1 X377.22
N5990 G3 X378.72 Y243.215 I0. J1.5
N6000 G1 Y255.765
N6010 G3 X377.22 Y257.265 I-1.5 J0.
N6020 G1 X372.72
N6030 Y262.465
N6040 X383.22
N6050 G3 X384.72 Y263.965 I0. J1.5
N6060 G1 Y275.965
N6070 G3 X383.22 Y277.465 I-1.5 J0.
N6080 G1 X372.72
N6090 Y283.815
N6100 G3 X371.22 Y285.315 I-1.5 J0.
N6110 G1 X364.72
N6120 G3 X363.241 Y284.067 I0. J-1.5
N6130 G2 X363.192 Y284.025 I-.049 J.008
N6140 G1 X361.705
N6150 G3 X361.401 Y284.464 I-1.365 J-.622
N6160 G2 X361.028 Y285.365 I.901 J.901
N6170 X361.401 Y286.267 I1.274 J0.
N6180 G3 X361.705 Y286.706 I-1.061 J1.061
N6190 G1 X363.192
N6200 G2 X363.241 Y286.664 I0. J-.05
N6210 G3 X364.72 Y285.415 I1.479 J.251
N6220 G1 X371.22
N6230 G3 X372.72 Y286.915 I0. J1.5
N6240 G1 Y294.465
N6250 G3 X371.22 Y295.965 I-1.5 J0.
N6260 G1 X361.22
N6270 G3 X354.72 Y289.465 I0. J-6.5
N6280 G1 Z-6.2 F150.
N6290 Y25.915 F500.
N6300 Y24.715 Z-5.
N6310 Y14.465
N6320 G3 X361.22 Y7.965 I6.5 J0.
N6330 G1 X361.26
N6340 X362.46 Z-6.2
N6350 X377.22
N6360 G3 X378.72 Y9.465 I0. J1.5
N6370 G1 Y16.765
N6380 X383.22
N6390 G3 X384.72 Y18.265 I0. J1.5
N6400 G1 Y40.265
N6410 G3 X383.22 Y41.765 I-1.5 J0.
N6420 G1 X378.72
N6430 Y70.115
N6440 G3 X377.22 Y71.615 I-1.5 J0.
N6450 G1 X370.72
N6460 G3 X369.241 Y70.367 I0. J-1.5
N6470 G2 X369.192 Y70.325 I-.049 J.008
N6480 G1 X367.705
N6490 G3 X367.401 Y70.764 I-1.365 J-.622
N6500 G2 X367.028 Y71.665 I.901 J.901
N6510 X367.401 Y72.567 I1.274 J0.
N6520 G3 X367.705 Y73.006 I-1.061 J1.061
N6530 G1 X369.192
N6540 G2 X369.241 Y72.964 I0. J-.05
N6550 G3 X370.72 Y71.715 I1.479 J.251
N6560 G1 X377.22
N6570 G3 X378.72 Y73.215 I0. J1.5
N6580 G1 Y94.815
N6590 Y96.015 Z-5.
N6600 Y101.765
N6610 X383.22
N6620 G3 X384.72 Y103.265 I0. J1.5
N6630 G1 Y111.159
N6640 Y112.359 Z-6.2
N6650 Y125.265
N6660 G3 X383.22 Y126.765 I-1.5 J0.
N6670 G1 X378.72
N6680 Y155.115
N6690 G3 X377.22 Y156.615 I-1.5 J0.
N6700 G1 X370.72
N6710 G3 X369.241 Y155.367 I0. J-1.5
N6720 G2 X369.192 Y155.325 I-.049 J.008
N6730 G1 X367.705
N6740 G3 X367.401 Y155.764 I-1.365 J-.622
N6750 G2 X367.028 Y156.665 I.901 J.901
N6760 X367.401 Y157.567 I1.274 J0.
N6770 G3 X367.705 Y158.006 I-1.061 J1.061
N6780 G1 X369.192
N6790 G2 X369.241 Y157.964 I0. J-.05
N6800 G3 X370.72 Y156.715 I1.479 J.251
N6810 G1 X377.22
N6820 G3 X378.72 Y158.215 I0. J1.5
N6830 G1 Y186.765
N6840 X383.22
N6850 G3 X384.72 Y188.265 I0. J1.5
N6860 G1 Y198.815
N6870 Y200.015 Z-5.
N6880 Y210.265
N6890 G3 X383.22 Y211.765 I-1.5 J0.
N6900 G1 X378.72
N6910 Y215.159
N6920 Y216.359 Z-6.2
N6930 Y240.115
N6940 G3 X377.22 Y241.615 I-1.5 J0.
N6950 G1 X370.72
N6960 G3 X369.241 Y240.367 I0. J-1.5
N6970 G2 X369.192 Y240.325 I-.049 J.008
N6980 G1 X367.705
N6990 G3 X367.401 Y240.764 I-1.365 J-.622
N7000 G2 X367.028 Y241.665 I.901 J.901
N7010 X367.401 Y242.567 I1.274 J0.
N7020 G3 X367.705 Y243.006 I-1.061 J1.061
N7030 G1 X369.192
N7040 G2 X369.241 Y242.964 I0. J-.05
N7050 G3 X370.72 Y241.715 I1.479 J.251
N7060 G1 X377.22
N7070 G3 X378.72 Y243.215 I0. J1.5
N7080 G1 Y255.765
N7090 G3 X377.22 Y257.265 I-1.5 J0.
N7100 G1 X372.72
N7110 Y262.465
N7120 X383.22
N7130 G3 X384.72 Y263.965 I0. J1.5
N7140 G1 Y275.965
N7150 G3 X383.22 Y277.465 I-1.5 J0.
N7160 G1 X372.72
N7170 Y283.815
N7180 G3 X371.22 Y285.315 I-1.5 J0.
N7190 G1 X364.72
N7200 G3 X363.241 Y284.067 I0. J-1.5
N7210 G2 X363.192 Y284.025 I-.049 J.008
N7220 G1 X361.705
N7230 G3 X361.401 Y284.464 I-1.365 J-.622
N7240 G2 X361.028 Y285.365 I.901 J.901
N7250 X361.401 Y286.267 I1.274 J0.
N7260 G3 X361.705 Y286.706 I-1.061 J1.061
N7270 G1 X363.192
N7280 G2 X363.241 Y286.664 I0. J-.05
N7290 G3 X364.72 Y285.415 I1.479 J.251
N7300 G1 X369.677
N7310 X370.877 Z-5.
N7320 X371.22
N7330 G3 X372.72 Y286.915 I0. J1.5
N7340 G1 Y294.465
N7350 G3 X371.22 Y295.965 I-1.5 J0.
N7360 G1 X363.327
N7370 X362.127 Z-6.2
N7380 X361.22
N7390 G3 X354.72 Y289.465 I0. J-6.5
N7400 G1 X354.82
N7410 Y25.915
N7420 Y24.715 Z-5.
N7430 Y14.465
N7440 G3 X361.22 Y8.065 I6.4 J0.
N7450 G1 X361.417
N7460 X362.617 Z-6.2
N7470 X377.22
N7480 G3 X378.62 Y9.465 I0. J1.4
N7490 G1 Y16.865
N7500 X383.22
N7510 G3 X384.62 Y18.265 I0. J1.4
N7520 G1 Y40.265
N7530 G3 X383.22 Y41.665 I-1.4 J0.
N7540 G1 X378.62
N7550 Y70.115
N7560 G3 X377.22 Y71.515 I-1.4 J0.
N7570 G1 X370.72
N7580 G3 X369.34 Y70.35 I0. J-1.4
N7590 G2 X369.192 Y70.225 I-.148 J.025
N7600 G1 X367.642
N7610 X367.639
N7620 G3 X367.33 Y70.693 I-1.299 J-.522
N7630 G2 X366.927 Y71.665 I.972 J.972
N7640 X367.33 Y72.638 I1.375 J0.
N7650 G3 X367.639 Y73.106 I-.99 J.99
N7660 G1 X367.642
N7670 X369.192
N7680 G2 X369.34 Y72.981 I0. J-.15
N7690 G3 X370.72 Y71.815 I1.38 J.234
N7700 G1 X377.22
N7710 G3 X378.62 Y73.215 I0. J1.4
N7720 G1 Y95.015
N7730 Y96.215 Z-5.
N7740 Y101.865
N7750 X383.22
N7760 G3 X384.62 Y103.265 I0. J1.4
N7770 G1 Y111.316
N7780 Y112.516 Z-6.2
N7790 Y125.265
N7800 G3 X383.22 Y126.665 I-1.4 J0.
N7810 G1 X378.62
N7820 Y155.115
N7830 G3 X377.22 Y156.515 I-1.4 J0.
N7840 G1 X370.72
N7850 G3 X369.34 Y155.35 I0. J-1.4
N7860 G2 X369.192 Y155.225 I-.148 J.025
N7870 G1 X367.642
N7880 X367.639
N7890 G3 X367.33 Y155.693 I-1.299 J-.522
N7900 G2 X366.927 Y156.665 I.972 J.972
N7910 X367.33 Y157.638 I1.375 J0.
N7920 G3 X367.639 Y158.106 I-.99 J.99
N7930 G1 X367.642
N7940 X369.192
N7950 G2 X369.34 Y157.981 I0. J-.15
N7960 G3 X370.72 Y156.815 I1.38 J.234
N7970 G1 X377.22
N7980 G3 X378.62 Y158.215 I0. J1.4
N7990 G1 Y186.865
N8000 X383.22
N8010 G3 X384.62 Y188.265 I0. J1.4
N8020 G1 Y198.815
N8030 Y200.015 Z-5.
N8040 Y210.265
N8050 G3 X383.22 Y211.665 I-1.4 J0.
N8060 G1 X378.62
N8070 Y215.116
N8080 Y216.316 Z-6.2
N8090 Y240.115
N8100 G3 X377.22 Y241.515 I-1.4 J0.
N8110 G1 X370.72
N8120 G3 X369.34 Y240.35 I0. J-1.4
N8130 G2 X369.192 Y240.225 I-.148 J.025
N8140 G1 X367.642
N8150 X367.639
N8160 G3 X367.33 Y240.693 I-1.299 J-.522
N8170 G2 X366.927 Y241.665 I.972 J.972
N8180 X367.33 Y242.638 I1.375 J0.
N8190 G3 X367.639 Y243.106 I-.99 J.99
N8200 G1 X367.642
N8210 X369.192
N8220 G2 X369.34 Y242.981 I0. J-.15
N8230 G3 X370.72 Y241.815 I1.38 J.234
N8240 G1 X377.22
N8250 G3 X378.62 Y243.215 I0. J1.4
N8260 G1 Y255.765
N8270 G3 X377.22 Y257.165 I-1.4 J0.
N8280 G1 X372.62
N8290 Y262.565
N8300 X383.22
N8310 G3 X384.62 Y263.965 I0. J1.4
N8320 G1 Y275.965
N8330 G3 X383.22 Y277.365 I-1.4 J0.
N8340 G1 X372.62
N8350 Y283.815
N8360 G3 X371.22 Y285.215 I-1.4 J0.
N8370 G1 X364.72
N8380 G3 X363.34 Y284.05 I0. J-1.4
N8390 G2 X363.192 Y283.925 I-.148 J.025
N8400 G1 X361.642
N8410 X361.639
N8420 G3 X361.33 Y284.393 I-1.299 J-.522
N8430 G2 X360.927 Y285.365 I.972 J.972
N8440 X361.33 Y286.338 I1.375 J0.
N8450 G3 X361.639 Y286.806 I-.99 J.99
N8460 G1 X361.642
N8470 X363.192
N8480 G2 X363.34 Y286.681 I0. J-.15
N8490 G3 X364.72 Y285.515 I1.38 J.234
N8500 G1 X369.52
N8510 X370.72 Z-5.
N8520 X371.22
N8530 G3 X372.62 Y286.915 I0. J1.4
N8540 G1 Y294.465
N8550 G3 X371.22 Y295.865 I-1.4 J0.
N8560 G1 X363.17
N8570 X361.97 Z-6.2
N8580 X361.22
N8590 G3 X354.82 Y289.465 I0. J-6.4
N8600 G0 Z-1.2
N8610 Z5.
N8620 X53.055 Y344.066
N8630 G1 Z-2.067 F150.
N8640 X328.055 F500.
N8650 G3 X334.555 Y350.566 I0. J6.5
N8660 G1 Y366.566
N8670 G3 X333.055 Y368.066 I-1.5 J0.
N8680 G1 X325.755
N8690 Y372.566
N8700 G3 X324.255 Y374.066 I-1.5 J0.
N8710 G1 X302.255
N8720 G3 X300.755 Y372.566 I0. J-1.5
N8730 G1 Y368.066
N8740 X272.405
N8750 G3 X270.905 Y366.566 I0. J-1.5
N8760 G1 Y360.066
N8770 G3 X272.154 Y358.587 I1.5 J0.
N8780 G2 X272.196 Y358.538 I-.008 J-.049
N8790 G1 Y357.051
N8800 G3 X271.757 Y356.747 I.622 J-1.365
N8810 G2 X270.855 Y356.373 I-.902 J.901
N8820 X269.954 Y356.747 I0. J1.275
N8830 G3 X269.515 Y357.051 I-1.061 J-1.061
N8840 G1 Y358.538
N8850 G2 X269.557 Y358.587 I.05 J0.
N8860 G3 X270.805 Y360.066 I-.252 J1.479
N8870 G1 Y366.566
N8880 G3 X269.305 Y368.066 I-1.5 J0.
N8890 G1 X240.755
N8900 Y372.566
N8910 G3 X239.255 Y374.066 I-1.5 J0.
N8920 G1 X217.255
N8930 G3 X215.755 Y372.566 I0. J-1.5
N8940 G1 Y368.066
N8950 X187.405
N8960 G3 X185.905 Y366.566 I0. J-1.5
N8970 G1 Y360.066
N8980 G3 X187.154 Y358.587 I1.5 J0.
N8990 G2 X187.196 Y358.538 I-.008 J-.049
N9000 G1 Y357.051
N9010 G3 X186.757 Y356.747 I.622 J-1.365
N9020 G2 X185.855 Y356.373 I-.902 J.901
N9030 X184.954 Y356.747 I0. J1.275
N9040 G3 X184.515 Y357.051 I-1.061 J-1.061
N9050 G1 Y358.538
N9060 G2 X184.557 Y358.587 I.05 J0.
N9070 G3 X185.805 Y360.066 I-.252 J1.479
N9080 G1 Y366.566
N9090 G3 X184.305 Y368.066 I-1.5 J0.
N9100 G1 X155.755
N9110 Y372.566
N9120 G3 X154.255 Y374.066 I-1.5 J0.
N9130 G1 X132.255
N9140 G3 X130.755 Y372.566 I0. J-1.5
N9150 G1 Y368.066
N9160 X102.405
N9170 G3 X100.905 Y366.566 I0. J-1.5
N9180 G1 Y360.066
N9190 G3 X102.154 Y358.587 I1.5 J0.
N9200 G2 X102.196 Y358.538 I-.008 J-.049
N9210 G1 Y357.051
N9220 G3 X101.757 Y356.747 I.622 J-1.365
N9230 G2 X100.855 Y356.373 I-.902 J.901
N9240 X99.954 Y356.747 I0. J1.275
N9250 G3 X99.515 Y357.051 I-1.061 J-1.061
N9260 G1 Y358.538
N9270 G2 X99.557 Y358.587 I.05 J0.
N9280 G3 X100.805 Y360.066 I-.252 J1.479
N9290 G1 Y366.566
N9300 G3 X99.305 Y368.066 I-1.5 J0.
N9310 G1 X86.755
N9320 G3 X85.255 Y366.566 I0. J-1.5
N9330 G1 Y362.066
N9340 X80.055
N9350 Y372.566
N9360 G3 X78.555 Y374.066 I-1.5 J0.
N9370 G1 X66.555
N9380 G3 X65.055 Y372.566 I0. J-1.5
N9390 G1 Y362.066
N9400 X58.705
N9410 G3 X57.205 Y360.566 I0. J-1.5
N9420 G1 Y354.066
N9430 G3 X58.454 Y352.587 I1.5 J0.
N9440 G2 X58.496 Y352.538 I-.008 J-.049
N9450 G1 Y351.051
N9460 G3 X58.057 Y350.747 I.622 J-1.365
N9470 G2 X57.155 Y350.373 I-.902 J.901
N9480 X56.254 Y350.747 I0. J1.275
N9490 G3 X55.815 Y351.051 I-1.061 J-1.061
N9500 G1 Y352.538
N9510 G2 X55.857 Y352.587 I.05 J0.
N9520 G3 X57.105 Y354.066 I-.252 J1.479
N9530 G1 Y360.566
N9540 G3 X55.605 Y362.066 I-1.5 J0.
N9550 G1 X48.055
N9560 G3 X46.555 Y360.566 I0. J-1.5
N9570 G1 Y350.566
N9580 G3 X53.055 Y344.066 I6.5 J0.
N9590 G1 Z-4.133 F150.
N9600 X328.055 F500.
N9610 G3 X334.555 Y350.566 I0. J6.5
N9620 G1 Y366.566
N9630 G3 X333.055 Y368.066 I-1.5 J0.
N9640 G1 X325.755
N9650 Y372.566
N9660 G3 X324.255 Y374.066 I-1.5 J0.
N9670 G1 X302.255
N9680 G3 X300.755 Y372.566 I0. J-1.5
N9690 G1 Y368.066
N9700 X272.405
N9710 G3 X270.905 Y366.566 I0. J-1.5
N9720 G1 Y360.066
N9730 G3 X272.154 Y358.587 I1.5 J0.
N9740 G2 X272.196 Y358.538 I-.008 J-.049
N9750 G1 Y357.051
N9760 G3 X271.757 Y356.747 I.622 J-1.365
N9770 G2 X270.855 Y356.373 I-.902 J.901
N9780 X269.954 Y356.747 I0. J1.275
N9790 G3 X269.515 Y357.051 I-1.061 J-1.061
N9800 G1 Y358.538
N9810 G2 X269.557 Y358.587 I.05 J0.
N9820 G3 X270.805 Y360.066 I-.252 J1.479
N9830 G1 Y366.566
N9840 G3 X269.305 Y368.066 I-1.5 J0.
N9850 G1 X240.755
N9860 Y372.566
N9870 G3 X239.255 Y374.066 I-1.5 J0.
N9880 G1 X217.255
N9890 G3 X215.755 Y372.566 I0. J-1.5
N9900 G1 Y368.066
N9910 X187.405
N9920 G3 X185.905 Y366.566 I0. J-1.5
N9930 G1 Y360.066
N9940 G3 X187.154 Y358.587 I1.5 J0.
N9950 G2 X187.196 Y358.538 I-.008 J-.049
N9960 G1 Y357.051
N9970 G3 X186.757 Y356.747 I.622 J-1.365
N9980 G2 X185.855 Y356.373 I-.902 J.901
N9990 X184.954 Y356.747 I0. J1.275
N100 G3 X184.515 Y357.051 I-1.061 J-1.061
N110 G1 Y358.538
N120 G2 X184.557 Y358.587 I.05 J0.
N130 G3 X185.805 Y360.066 I-.252 J1.479
N140 G1 Y366.566
N150 G3 X184.305 Y368.066 I-1.5 J0.
N160 G1 X155.755
N170 Y372.566
N180 G3 X154.255 Y374.066 I-1.5 J0.
N190 G1 X132.255
N200 G3 X130.755 Y372.566 I0. J-1.5
N210 G1 Y368.066
N220 X102.405
N230 G3 X100.905 Y366.566 I0. J-1.5
N240 G1 Y360.066
N250 G3 X102.154 Y358.587 I1.5 J0.
N260 G2 X102.196 Y358.538 I-.008 J-.049
N270 G1 Y357.051
N280 G3 X101.757 Y356.747 I.622 J-1.365
N290 G2 X100.855 Y356.373 I-.902 J.901
N300 X99.954 Y356.747 I0. J1.275
N310 G3 X99.515 Y357.051 I-1.061 J-1.061
N320 G1 Y358.538
N330 G2 X99.557 Y358.587 I.05 J0.
N340 G3 X100.805 Y360.066 I-.252 J1.479
N350 G1 Y366.566
N360 G3 X99.305 Y368.066 I-1.5 J0.
N370 G1 X86.755
N380 G3 X85.255 Y366.566 I0. J-1.5
N390 G1 Y362.066
N400 X80.055
N410 Y372.566
N420 G3 X78.555 Y374.066 I-1.5 J0.
N430 G1 X66.555
N440 G3 X65.055 Y372.566 I0. J-1.5
N450 G1 Y362.066
N460 X58.705
N470 G3 X57.205 Y360.566 I0. J-1.5
N480 G1 Y354.066
N490 G3 X58.454 Y352.587 I1.5 J0.
N500 G2 X58.496 Y352.538 I-.008 J-.049
N510 G1 Y351.051
N520 G3 X58.057 Y350.747 I.622 J-1.365
N530 G2 X57.155 Y350.373 I-.902 J.901
N540 X56.254 Y350.747 I0. J1.275
N550 G3 X55.815 Y351.051 I-1.061 J-1.061
N560 G1 Y352.538
N570 G2 X55.857 Y352.587 I.05 J0.
N580 G3 X57.105 Y354.066 I-.252 J1.479
N590 G1 Y360.566
N600 G3 X55.605 Y362.066 I-1.5 J0.
N610 G1 X48.055
N620 G3 X46.555 Y360.566 I0. J-1.5
N630 G1 Y350.566
N640 G3 X53.055 Y344.066 I6.5 J0.
N650 G1 Z-5. F150.
N660 X73.516 F500.
N670 X74.716 Z-6.2
N680 X316.605
N690 X317.805 Z-5.
N700 X328.055
N710 G3 X334.555 Y350.566 I0. J6.5
N720 G1 Y350.606
N730 Y351.806 Z-6.2
N740 Y366.566
N750 G3 X333.055 Y368.066 I-1.5 J0.
N760 G1 X325.755
N770 Y372.566
N780 G3 X324.255 Y374.066 I-1.5 J0.
N790 G1 X302.255
N800 G3 X300.755 Y372.566 I0. J-1.5
N810 G1 Y368.066
N820 X272.405
N830 G3 X270.905 Y366.566 I0. J-1.5
N840 G1 Y360.066
N850 G3 X272.154 Y358.587 I1.5 J0.
N860 G2 X272.196 Y358.538 I-.008 J-.049
N870 G1 Y357.051
N880 G3 X271.757 Y356.747 I.622 J-1.365
N890 G2 X270.855 Y356.373 I-.902 J.901
N900 X269.954 Y356.747 I0. J1.275
N910 G3 X269.515 Y357.051 I-1.061 J-1.061
N920 G1 Y358.538
N930 G2 X269.557 Y358.587 I.05 J0.
N940 G3 X270.805 Y360.066 I-.252 J1.479
N950 G1 Y366.566
N960 G3 X269.305 Y368.066 I-1.5 J0.
N970 G1 X247.705
N980 X246.505 Z-5.
N990 X240.755
N1000 Y372.566
N1010 G3 X239.255 Y374.066 I-1.5 J0.
N1020 G1 X231.362
N1030 X230.162 Z-6.2
N1040 X217.255
N1050 G3 X215.755 Y372.566 I0. J-1.5
N1060 G1 Y368.066
N1070 X187.405
N1080 G3 X185.905 Y366.566 I0. J-1.5
N1090 G1 Y360.066
N1100 G3 X187.154 Y358.587 I1.5 J0.
N1110 G2 X187.196 Y358.538 I-.008 J-.049
N1120 G1 Y357.051
N1130 G3 X186.757 Y356.747 I.622 J-1.365
N1140 G2 X185.855 Y356.373 I-.902 J.901
N1150 X184.954 Y356.747 I0. J1.275
N1160 G3 X184.515 Y357.051 I-1.061 J-1.061
N1170 G1 Y358.538
N1180 G2 X184.557 Y358.587 I.05 J0.
N1190 G3 X185.805 Y360.066 I-.252 J1.479
N1200 G1 Y366.566
N1210 G3 X184.305 Y368.066 I-1.5 J0.
N1220 G1 X155.755
N1230 Y372.566
N1240 G3 X154.255 Y374.066 I-1.5 J0.
N1250 G1 X143.705
N1260 X142.505 Z-5.
N1270 X132.255
N1280 G3 X130.755 Y372.566 I0. J-1.5
N1290 G1 Y368.066
N1300 X127.362
N1310 X126.162 Z-6.2
N1320 X102.405
N1330 G3 X100.905 Y366.566 I0. J-1.5
N1340 G1 Y360.066
N1350 G3 X102.154 Y358.587 I1.5 J0.
N1360 G2 X102.196 Y358.538 I-.008 J-.049
N1370 G1 Y357.051
N1380 G3 X101.757 Y356.747 I.622 J-1.365
N1390 G2 X100.855 Y356.373 I-.902 J.901
N1400 X99.954 Y356.747 I0. J1.275
N1410 G3 X99.515 Y357.051 I-1.061 J-1.061
N1420 G1 Y358.538
N1430 G2 X99.557 Y358.587 I.05 J0.
N1440 G3 X100.805 Y360.066 I-.252 J1.479
N1450 G1 Y366.566
N1460 G3 X99.305 Y368.066 I-1.5 J0.
N1470 G1 X86.755
N1480 G3 X85.255 Y366.566 I0. J-1.5
N1490 G1 Y362.066
N1500 X80.055
N1510 Y372.566
N1520 G3 X78.555 Y374.066 I-1.5 J0.
N1530 G1 X66.555
N1540 G3 X65.055 Y372.566 I0. J-1.5
N1550 G1 Y362.066
N1560 X58.705
N1570 G3 X57.205 Y360.566 I0. J-1.5
N1580 G1 Y354.066
N1590 G3 X58.454 Y352.587 I1.5 J0.
N1600 G2 X58.496 Y352.538 I-.008 J-.049
N1610 G1 Y351.051
N1620 G3 X58.057 Y350.747 I.622 J-1.365
N1630 G2 X57.155 Y350.373 I-.902 J.901
N1640 X56.254 Y350.747 I0. J1.275
N1650 G3 X55.815 Y351.051 I-1.061 J-1.061
N1660 G1 Y352.538
N1670 G2 X55.857 Y352.587 I.05 J0.
N1680 G3 X57.105 Y354.066 I-.252 J1.479
N1690 G1 Y360.566
N1700 G3 X55.605 Y362.066 I-1.5 J0.
N1710 G1 X48.055
N1720 G3 X46.555 Y360.566 I0. J-1.5
N1730 G1 Y351.806
N1740 Y350.606 Z-5.
N1750 Y350.566
N1760 G3 X53.055 Y344.066 I6.5 J0.
N1770 G1 Y344.166
N1780 X73.359
N1790 X74.559 Z-6.2
N1800 X316.605
N1810 X317.805 Z-5.
N1820 X328.055
N1830 G3 X334.455 Y350.566 I0. J6.4
N1840 G1 Y350.763
N1850 Y351.963 Z-6.2
N1860 Y366.566
N1870 G3 X333.055 Y367.966 I-1.4 J0.
N1880 G1 X325.655
N1890 Y372.566
N1900 G3 X324.255 Y373.966 I-1.4 J0.
N1910 G1 X302.255
N1920 G3 X300.855 Y372.566 I0. J-1.4
N1930 G1 Y367.966
N1940 X272.405
N1950 G3 X271.005 Y366.566 I0. J-1.4
N1960 G1 Y360.066
N1970 G3 X272.171 Y358.686 I1.4 J0.
N1980 G2 X272.296 Y358.538 I-.025 J-.148
N1990 G1 Y356.988
N2000 Y356.985
N2010 G3 X271.828 Y356.676 I.522 J-1.299
N2020 G2 X270.855 Y356.273 I-.973 J.972
N2030 X269.883 Y356.676 I0. J1.375
N2040 G3 X269.415 Y356.985 I-.99 J-.99
N2050 G1 Y356.988
N2060 Y358.538
N2070 G2 X269.54 Y358.686 I.15 J0.
N2080 G3 X270.705 Y360.066 I-.235 J1.38
N2090 G1 Y366.566
N2100 G3 X269.305 Y367.966 I-1.4 J0.
N2110 G1 X247.505
N2120 X246.305 Z-5.
N2130 X240.655
N2140 Y372.566
N2150 G3 X239.255 Y373.966 I-1.4 J0.
N2160 G1 X231.205
N2170 X230.005 Z-6.2
N2180 X217.255
N2190 G3 X215.855 Y372.566 I0. J-1.4
N2200 G1 Y367.966
N2210 X187.405
N2220 G3 X186.005 Y366.566 I0. J-1.4
N2230 G1 Y360.066
N2240 G3 X187.171 Y358.686 I1.4 J0.
N2250 G2 X187.296 Y358.538 I-.025 J-.148
N2260 G1 Y356.988
N2270 Y356.985
N2280 G3 X186.828 Y356.676 I.522 J-1.299
N2290 G2 X185.855 Y356.273 I-.973 J.972
N2300 X184.883 Y356.676 I0. J1.375
N2310 G3 X184.415 Y356.985 I-.99 J-.99
N2320 G1 Y356.988
N2330 Y358.538
N2340 G2 X184.54 Y358.686 I.15 J0.
N2350 G3 X185.705 Y360.066 I-.235 J1.38
N2360 G1 Y366.566
N2370 G3 X184.305 Y367.966 I-1.4 J0.
N2380 G1 X155.655
N2390 Y372.566
N2400 G3 X154.255 Y373.966 I-1.4 J0.
N2410 G1 X143.705
N2420 X142.505 Z-5.
N2430 X132.255
N2440 G3 X130.855 Y372.566 I0. J-1.4
N2450 G1 Y367.966
N2460 X127.405
N2470 X126.205 Z-6.2
N2480 X102.405
N2490 G3 X101.005 Y366.566 I0. J-1.4
N2500 G1 Y360.066
N2510 G3 X102.171 Y358.686 I1.4 J0.
N2520 G2 X102.296 Y358.538 I-.025 J-.148
N2530 G1 Y356.988
N2540 Y356.985
N2550 G3 X101.828 Y356.676 I.522 J-1.299
N2560 G2 X100.855 Y356.273 I-.973 J.972
N2570 X99.883 Y356.676 I0. J1.375
N2580 G3 X99.415 Y356.985 I-.99 J-.99
N2590 G1 Y356.988
N2600 Y358.538
N2610 G2 X99.54 Y358.686 I.15 J0.
N2620 G3 X100.705 Y360.066 I-.235 J1.38
N2630 G1 Y366.566
N2640 G3 X99.305 Y367.966 I-1.4 J0.
N2650 G1 X86.755
N2660 G3 X85.355 Y366.566 I0. J-1.4
N2670 G1 Y361.966
N2680 X79.955
N2690 Y372.566
N2700 G3 X78.555 Y373.966 I-1.4 J0.
N2710 G1 X66.555
N2720 G3 X65.155 Y372.566 I0. J-1.4
N2730 G1 Y361.966
N2740 X58.705
N2750 G3 X57.305 Y360.566 I0. J-1.4
N2760 G1 Y354.066
N2770 G3 X58.471 Y352.686 I1.4 J0.
N2780 G2 X58.596 Y352.538 I-.025 J-.148
N2790 G1 Y350.988
N2800 Y350.985
N2810 G3 X58.128 Y350.676 I.522 J-1.299
N2820 G2 X57.155 Y350.273 I-.973 J.972
N2830 X56.183 Y350.676 I0. J1.375
N2840 G3 X55.715 Y350.985 I-.99 J-.99
N2850 G1 Y350.988
N2860 Y352.538
N2870 G2 X55.84 Y352.686 I.15 J0.
N2880 G3 X57.005 Y354.066 I-.235 J1.38
N2890 G1 Y360.566
N2900 G3 X55.605 Y361.966 I-1.4 J0.
N2910 G1 X48.055
N2920 G3 X46.655 Y360.566 I0. J-1.4
N2930 G1 Y351.963
N2940 Y350.763 Z-5.
N2950 Y350.566
N2960 G3 X53.055 Y344.166 I6.4 J0.
N2970 G0 Z5.
N2980 X189.001 Y333.876
N2990 G1 Z-6.2
N3000 X166.101
N3010 G0 Z5.
N3020 X35.6 Y226.347
N3030 G1 Z-6.2
N3040 Y203.447
N3050 G0 Z5.
N3060 X71.373 Y4.254
N3070 G1 Z-6.2
N3080 X94.273
N3090 G0 Z5.
N3100 X321.29
N3110 G1 Z-6.2
N3120 X336.22
N3130 G3 X343.728 Y6.555 I0. J13.4
N3140 G0 Z5.
N3150 X349.62 Y233.79
N3160 G1 Z-6.2
N3170 Y254.865
N3180 G3 X349.496 Y256.685 I-13.4 J0.
N3190 G0 Z5.
N3200 X.6 Y185.65
N3210 G1 Z-6.2
N3220 Y174.2
N3230 G3 X2. Y172.8 I1.4 J0.
N3240 G1 X6.6
N3250 Y168.149
N3260 G0 Z5.
N3270 Y117.251
N3280 G1 Z-6.2
N3290 Y112.6
N3300 X2.
N3310 G3 X.6 Y111.2 I0. J-1.4
N3320 G1 Y99.75
N3330 G0 Z5.
N3340 X22.603 Y3.6
N3350 G1 Z-6.2
N3360 X24.
N3370 G3 X30.4 Y10. I0. J6.4
N3380 G1 Y21.45
N3390 G0 Z5.
N3400 Y273.55
N3410 G1 Z-6.2
N3420 Y285.
N3430 G3 X24. Y291.4 I-6.4 J0.
N3440 G1 X22.603
N3450 G0 Z5.
N3460 G1 X354.82 Y25.915
N3470 Z-6.2
N3480 Y14.465
N3490 G3 X361.22 Y8.065 I6.4 J0.
N3500 G1 X362.617
N3510 G0 Z5.
N3520 X378.62 Y95.015
N3530 G1 Z-6.2
N3540 Y101.865
N3550 X383.22
N3560 G3 X384.62 Y103.265 I0. J1.4
N3570 G1 Y112.516
N3580 G0 Z5.
N3590 Y198.815
N3600 G1 Z-6.2
N3610 Y210.265
N3620 G3 X383.22 Y211.665 I-1.4 J0.
N3630 G1 X378.62
N3640 Y216.316
N3650 G0 Z5.
N3660 X369.52 Y285.515
N3670 G1 Z-6.2
N3680 X371.22
N3690 G3 X372.62 Y286.915 I0. J1.4
N3700 G1 Y294.465
N3710 G3 X371.22 Y295.865 I-1.4 J0.
N3720 G1 X361.97
N3730 G0 Z5.
N3740 G1 X53.055 Y344.166
N3750 Z-6.2
N3760 X74.559
N3770 G0 Z5.
N3780 X316.605
N3790 G1 Z-6.2
N3800 X328.055
N3810 G3 X334.455 Y350.566 I0. J6.4
N3820 G1 Y351.963
N3830 G0 Z5.
N3840 X247.505 Y367.966
N3850 G1 Z-6.2
N3860 X240.655
N3870 Y372.566
N3880 G3 X239.255 Y373.966 I-1.4 J0.
N3890 G1 X230.005
N3900 G0 Z5.
N3910 X143.705
N3920 G1 Z-6.2
N3930 X132.255
N3940 G3 X130.855 Y372.566 I0. J-1.4
N3950 G1 Y367.966
N3960 X126.205
N3970 G0 Z5.
N3980 X46.655 Y351.963
N3990 G1 Z-6.2
N4000 Y350.566
N4010 G3 X53.055 Y344.166 I6.4 J0.
N4020 G0 Z5.
N4030 M5
N4040 G91 Z10
N4060 M30
%
