%
O0000(PANEL_DERECHO)
(DATE=DD-MM-YY - 15-09-15 TIME=HH:MM - 01:24)
(MCX FILE - C:\USERS\CAMPY\DESKTOP\PANELES ULTICAMPY V3 CAM\PANEL_DERECHO.SLDPRT)
(NC FILE - C:\USERS\CAMPY\DESKTOP\PANELES ULTICAMPY V3 CAM\MACH3\PANEL_DERECHO.NC)
(MATERIAL - ALUMINUM MM - 2024)
( T2 | FRESA 3MM CAJA AZUL | H2 | XY STOCK TO LEAVE - -.05 | Z STOCK TO LEAVE - 0. )
N100 G21
N110 G0 G17 G40 G49 G80 G90
N120 T2 M6 Z5
N130 G0 G90 G54 X7.75 Y61.903 A0. S15000 M3
N140 G43 H2 Z5.
N150 G1 Z-2.067 F150.
N160 G3 X7.55 Y61.703 I0. J-.2 F500.
N170 X7.75 Y61.503 I.2 J0.
N180 X7.95 Y61.703 I0. J.2
N190 X7.75 Y61.903 I-.2 J0.
N200 G1 Z-4.133 F150.
N210 G3 X7.55 Y61.703 I0. J-.2 F500.
N220 X7.75 Y61.503 I.2 J0.
N230 X7.95 Y61.703 I0. J.2
N240 X7.75 Y61.903 I-.2 J0.
N250 G1 Z-6.2 F150.
N260 G3 X7.55 Y61.703 I0. J-.2 F500.
N270 X7.75 Y61.503 I.2 J0.
N280 X7.95 Y61.703 I0. J.2
N290 X7.75 Y61.903 I-.2 J0.
N300 G0 Z-1.2
N310 Z5.
N320 X52. Y70.15
N330 G1 Z-2.067 F150.
N340 G3 X51.85 Y70. I0. J-.15 F500.
N350 X52. Y69.85 I.15 J0.
N360 X52.15 Y70. I0. J.15
N370 X52. Y70.15 I-.15 J0.
N380 G1 Z-4.133 F150.
N390 G3 X51.85 Y70. I0. J-.15 F500.
N400 X52. Y69.85 I.15 J0.
N410 X52.15 Y70. I0. J.15
N420 X52. Y70.15 I-.15 J0.
N430 G1 Z-6.2 F150.
N440 G3 X51.85 Y70. I0. J-.15 F500.
N450 X52. Y69.85 I.15 J0.
N460 X52.15 Y70. I0. J.15
N470 X52. Y70.15 I-.15 J0.
N480 G0 Z-1.2
N490 Z5.
N500 X192.5
N510 G1 Z-2.067 F150.
N520 G3 X192.35 Y70. I0. J-.15 F500.
N530 X192.5 Y69.85 I.15 J0.
N540 X192.65 Y70. I0. J.15
N550 X192.5 Y70.15 I-.15 J0.
N560 G1 Z-4.133 F150.
N570 G3 X192.35 Y70. I0. J-.15 F500.
N580 X192.5 Y69.85 I.15 J0.
N590 X192.65 Y70. I0. J.15
N600 X192.5 Y70.15 I-.15 J0.
N610 G1 Z-6.2 F150.
N620 G3 X192.35 Y70. I0. J-.15 F500.
N630 X192.5 Y69.85 I.15 J0.
N640 X192.65 Y70. I0. J.15
N650 X192.5 Y70.15 I-.15 J0.
N660 G0 Z-1.2
N670 Z5.
N680 X333.
N690 G1 Z-2.067 F150.
N700 G3 X332.85 Y70. I0. J-.15 F500.
N710 X333. Y69.85 I.15 J0.
N720 X333.15 Y70. I0. J.15
N730 X333. Y70.15 I-.15 J0.
N740 G1 Z-4.133 F150.
N750 G3 X332.85 Y70. I0. J-.15 F500.
N760 X333. Y69.85 I.15 J0.
N770 X333.15 Y70. I0. J.15
N780 X333. Y70.15 I-.15 J0.
N790 G1 Z-6.2 F150.
N800 G3 X332.85 Y70. I0. J-.15 F500.
N810 X333. Y69.85 I.15 J0.
N820 X333.15 Y70. I0. J.15
N830 X333. Y70.15 I-.15 J0.
N840 G0 Z-1.2
N850 Z5.
N860 X377.25 Y61.903
N870 G1 Z-2.067 F150.
N880 G3 X377.05 Y61.703 I0. J-.2 F500.
N890 X377.25 Y61.503 I.2 J0.
N900 X377.45 Y61.703 I0. J.2
N910 X377.25 Y61.903 I-.2 J0.
N920 G1 Z-4.133 F150.
N930 G3 X377.05 Y61.703 I0. J-.2 F500.
N940 X377.25 Y61.503 I.2 J0.
N950 X377.45 Y61.703 I0. J.2
N960 X377.25 Y61.903 I-.2 J0.
N970 G1 Z-6.2 F150.
N980 G3 X377.05 Y61.703 I0. J-.2 F500.
N990 X377.25 Y61.503 I.2 J0.
N1000 X377.45 Y61.703 I0. J.2
N1010 X377.25 Y61.903 I-.2 J0.
N1020 G0 Z-1.2
N1030 Z5.
N1040 Y215.2
N1050 G1 Z-2.067 F150.
N1060 G3 X377.05 Y215. I0. J-.2 F500.
N1070 X377.25 Y214.8 I.2 J0.
N1080 X377.45 Y215. I0. J.2
N1090 X377.25 Y215.2 I-.2 J0.
N1100 G1 Z-4.133 F150.
N1110 G3 X377.05 Y215. I0. J-.2 F500.
N1120 X377.25 Y214.8 I.2 J0.
N1130 X377.45 Y215. I0. J.2
N1140 X377.25 Y215.2 I-.2 J0.
N1150 G1 Z-6.2 F150.
N1160 G3 X377.05 Y215. I0. J-.2 F500.
N1170 X377.25 Y214.8 I.2 J0.
N1180 X377.45 Y215. I0. J.2
N1190 X377.25 Y215.2 I-.2 J0.
N1200 G0 Z-1.2
N1210 Z5.
N1220 Y368.498
N1230 G1 Z-2.067 F150.
N1240 G3 X377.05 Y368.298 I0. J-.2 F500.
N1250 X377.25 Y368.098 I.2 J0.
N1260 X377.45 Y368.298 I0. J.2
N1270 X377.25 Y368.498 I-.2 J0.
N1280 G1 Z-4.133 F150.
N1290 G3 X377.05 Y368.298 I0. J-.2 F500.
N1300 X377.25 Y368.098 I.2 J0.
N1310 X377.45 Y368.298 I0. J.2
N1320 X377.25 Y368.498 I-.2 J0.
N1330 G1 Z-6.2 F150.
N1340 G3 X377.05 Y368.298 I0. J-.2 F500.
N1350 X377.25 Y368.098 I.2 J0.
N1360 X377.45 Y368.298 I0. J.2
N1370 X377.25 Y368.498 I-.2 J0.
N1380 G0 Z-1.2
N1390 Z5.
N1400 X333. Y412.15
N1410 G1 Z-2.067 F150.
N1420 G3 X332.85 Y412. I0. J-.15 F500.
N1430 X333. Y411.85 I.15 J0.
N1440 X333.15 Y412. I0. J.15
N1450 X333. Y412.15 I-.15 J0.
N1460 G1 Z-4.133 F150.
N1470 G3 X332.85 Y412. I0. J-.15 F500.
N1480 X333. Y411.85 I.15 J0.
N1490 X333.15 Y412. I0. J.15
N1500 X333. Y412.15 I-.15 J0.
N1510 G1 Z-6.2 F150.
N1520 G3 X332.85 Y412. I0. J-.15 F500.
N1530 X333. Y411.85 I.15 J0.
N1540 X333.15 Y412. I0. J.15
N1550 X333. Y412.15 I-.15 J0.
N1560 G0 Z-1.2
N1570 Z5.
N1580 X192.5
N1590 G1 Z-2.067 F150.
N1600 G3 X192.35 Y412. I0. J-.15 F500.
N1610 X192.5 Y411.85 I.15 J0.
N1620 X192.65 Y412. I0. J.15
N1630 X192.5 Y412.15 I-.15 J0.
N1640 G1 Z-4.133 F150.
N1650 G3 X192.35 Y412. I0. J-.15 F500.
N1660 X192.5 Y411.85 I.15 J0.
N1670 X192.65 Y412. I0. J.15
N1680 X192.5 Y412.15 I-.15 J0.
N1690 G1 Z-6.2 F150.
N1700 G3 X192.35 Y412. I0. J-.15 F500.
N1710 X192.5 Y411.85 I.15 J0.
N1720 X192.65 Y412. I0. J.15
N1730 X192.5 Y412.15 I-.15 J0.
N1740 G0 Z-1.2
N1750 Z5.
N1760 X52.
N1770 G1 Z-2.067 F150.
N1780 G3 X51.85 Y412. I0. J-.15 F500.
N1790 X52. Y411.85 I.15 J0.
N1800 X52.15 Y412. I0. J.15
N1810 X52. Y412.15 I-.15 J0.
N1820 G1 Z-4.133 F150.
N1830 G3 X51.85 Y412. I0. J-.15 F500.
N1840 X52. Y411.85 I.15 J0.
N1850 X52.15 Y412. I0. J.15
N1860 X52. Y412.15 I-.15 J0.
N1870 G1 Z-6.2 F150.
N1880 G3 X51.85 Y412. I0. J-.15 F500.
N1890 X52. Y411.85 I.15 J0.
N1900 X52.15 Y412. I0. J.15
N1910 X52. Y412.15 I-.15 J0.
N1920 G0 Z-1.2
N1930 Z5.
N1940 X7.75 Y368.498
N1950 G1 Z-2.067 F150.
N1960 G3 X7.55 Y368.298 I0. J-.2 F500.
N1970 X7.75 Y368.098 I.2 J0.
N1980 X7.95 Y368.298 I0. J.2
N1990 X7.75 Y368.498 I-.2 J0.
N2000 G1 Z-4.133 F150.
N2010 G3 X7.55 Y368.298 I0. J-.2 F500.
N2020 X7.75 Y368.098 I.2 J0.
N2030 X7.95 Y368.298 I0. J.2
N2040 X7.75 Y368.498 I-.2 J0.
N2050 G1 Z-6.2 F150.
N2060 G3 X7.55 Y368.298 I0. J-.2 F500.
N2070 X7.75 Y368.098 I.2 J0.
N2080 X7.95 Y368.298 I0. J.2
N2090 X7.75 Y368.498 I-.2 J0.
N2100 G0 Z-1.2
N2110 Z5.
N2120 Y215.2
N2130 G1 Z-2.067 F150.
N2140 G3 X7.55 Y215. I0. J-.2 F500.
N2150 X7.75 Y214.8 I.2 J0.
N2160 X7.95 Y215. I0. J.2
N2170 X7.75 Y215.2 I-.2 J0.
N2180 G1 Z-4.133 F150.
N2190 G3 X7.55 Y215. I0. J-.2 F500.
N2200 X7.75 Y214.8 I.2 J0.
N2210 X7.95 Y215. I0. J.2
N2220 X7.75 Y215.2 I-.2 J0.
N2230 G1 Z-6.2 F150.
N2240 G3 X7.55 Y215. I0. J-.2 F500.
N2250 X7.75 Y214.8 I.2 J0.
N2260 X7.95 Y215. I0. J.2
N2270 X7.75 Y215.2 I-.2 J0.
N2280 G0 Z5.
N2290 X378.625 Y91.703
N2300 G1 Z-2.2 F150.
N2310 Y81.703 F500.
N2320 G3 X378.8 Y81.528 I.175 J0.
N2330 X378.975 Y81.703 I0. J.175
N2340 G1 Y91.703
N2350 G3 X378.8 Y91.878 I-.175 J0.
N2360 X378.625 Y91.703 I0. J-.175
N2370 G1 X377.9
N2380 Y81.703
N2390 G3 X378.8 Y80.803 I.9 J0.
N2400 X379.7 Y81.703 I0. J.9
N2410 G1 Y91.703
N2420 G3 X378.8 Y92.603 I-.9 J0.
N2430 X377.9 Y91.703 I0. J-.9
N2440 G1 X378.625
N2450 Z-4.4 F150.
N2460 Y81.703 F500.
N2470 G3 X378.8 Y81.528 I.175 J0.
N2480 X378.975 Y81.703 I0. J.175
N2490 G1 Y91.703
N2500 G3 X378.8 Y91.878 I-.175 J0.
N2510 X378.625 Y91.703 I0. J-.175
N2520 G1 X377.9
N2530 Y81.703
N2540 G3 X378.8 Y80.803 I.9 J0.
N2550 X379.7 Y81.703 I0. J.9
N2560 G1 Y91.703
N2570 G3 X378.8 Y92.603 I-.9 J0.
N2580 X377.9 Y91.703 I0. J-.9
N2590 G1 X377.1
N2600 F150.
N2610 Y81.703 F500.
N2620 G3 X378.8 Y80.003 I1.7 J0.
N2630 X380.5 Y81.703 I0. J1.7
N2640 G1 Y91.703
N2650 G3 X378.8 Y93.403 I-1.7 J0.
N2660 X377.1 Y91.703 I0. J-1.7
N2670 G0 Z.6
N2680 Z5.
N2690 X378.625 Y41.703
N2700 G1 Z-2.2 F150.
N2710 Y31.703 F500.
N2720 G3 X378.8 Y31.528 I.175 J0.
N2730 X378.975 Y31.703 I0. J.175
N2740 G1 Y41.703
N2750 G3 X378.8 Y41.878 I-.175 J0.
N2760 X378.625 Y41.703 I0. J-.175
N2770 G1 X377.9
N2780 Y31.703
N2790 G3 X378.8 Y30.803 I.9 J0.
N2800 X379.7 Y31.703 I0. J.9
N2810 G1 Y41.703
N2820 G3 X378.8 Y42.603 I-.9 J0.
N2830 X377.9 Y41.703 I0. J-.9
N2840 G1 X378.625
N2850 Z-4.4 F150.
N2860 Y31.703 F500.
N2870 G3 X378.8 Y31.528 I.175 J0.
N2880 X378.975 Y31.703 I0. J.175
N2890 G1 Y41.703
N2900 G3 X378.8 Y41.878 I-.175 J0.
N2910 X378.625 Y41.703 I0. J-.175
N2920 G1 X377.9
N2930 Y31.703
N2940 G3 X378.8 Y30.803 I.9 J0.
N2950 X379.7 Y31.703 I0. J.9
N2960 G1 Y41.703
N2970 G3 X378.8 Y42.603 I-.9 J0.
N2980 X377.9 Y41.703 I0. J-.9
N2990 G1 X377.1
N3000 F150.
N3010 Y31.703 F500.
N3020 G3 X378.8 Y30.003 I1.7 J0.
N3030 X380.5 Y31.703 I0. J1.7
N3040 G1 Y41.703
N3050 G3 X378.8 Y43.403 I-1.7 J0.
N3060 X377.1 Y41.703 I0. J-1.7
N3070 G0 Z.6
N3080 Z5.
N3090 X313. Y71.325
N3100 G1 Z-2.2 F150.
N3110 G3 X313.175 Y71.5 I0. J.175 F500.
N3120 X313. Y71.675 I-.175 J0.
N3130 G1 X303.
N3140 G3 X302.825 Y71.5 I0. J-.175
N3150 X303. Y71.325 I.175 J0.
N3160 G1 X313.
N3170 Y70.6
N3180 G3 X313.9 Y71.5 I0. J.9
N3190 X313. Y72.4 I-.9 J0.
N3200 G1 X303.
N3210 G3 X302.1 Y71.5 I0. J-.9
N3220 X303. Y70.6 I.9 J0.
N3230 G1 X313.
N3240 Y71.325
N3250 Z-4.4 F150.
N3260 G3 X313.175 Y71.5 I0. J.175 F500.
N3270 X313. Y71.675 I-.175 J0.
N3280 G1 X303.
N3290 G3 X302.825 Y71.5 I0. J-.175
N3300 X303. Y71.325 I.175 J0.
N3310 G1 X313.
N3320 Y70.6
N3330 G3 X313.9 Y71.5 I0. J.9
N3340 X313. Y72.4 I-.9 J0.
N3350 G1 X303.
N3360 G3 X302.1 Y71.5 I0. J-.9
N3370 X303. Y70.6 I.9 J0.
N3380 G1 X313.
N3390 Y69.8
N3400 F150.
N3410 G3 X314.7 Y71.5 I0. J1.7 F500.
N3420 X313. Y73.2 I-1.7 J0.
N3430 G1 X303.
N3440 G3 X301.3 Y71.5 I0. J-1.7
N3450 X303. Y69.8 I1.7 J0.
N3460 G1 X313.
N3470 G0 Z.6
N3480 Z5.
N3490 X222.5 Y71.325
N3500 G1 Z-2.2 F150.
N3510 G3 X222.675 Y71.5 I0. J.175 F500.
N3520 X222.5 Y71.675 I-.175 J0.
N3530 G1 X212.5
N3540 G3 X212.325 Y71.5 I0. J-.175
N3550 X212.5 Y71.325 I.175 J0.
N3560 G1 X222.5
N3570 Y70.6
N3580 G3 X223.4 Y71.5 I0. J.9
N3590 X222.5 Y72.4 I-.9 J0.
N3600 G1 X212.5
N3610 G3 X211.6 Y71.5 I0. J-.9
N3620 X212.5 Y70.6 I.9 J0.
N3630 G1 X222.5
N3640 Y71.325
N3650 Z-4.4 F150.
N3660 G3 X222.675 Y71.5 I0. J.175 F500.
N3670 X222.5 Y71.675 I-.175 J0.
N3680 G1 X212.5
N3690 G3 X212.325 Y71.5 I0. J-.175
N3700 X212.5 Y71.325 I.175 J0.
N3710 G1 X222.5
N3720 Y70.6
N3730 G3 X223.4 Y71.5 I0. J.9
N3740 X222.5 Y72.4 I-.9 J0.
N3750 G1 X212.5
N3760 G3 X211.6 Y71.5 I0. J-.9
N3770 X212.5 Y70.6 I.9 J0.
N3780 G1 X222.5
N3790 Y69.8
N3800 F150.
N3810 G3 X224.2 Y71.5 I0. J1.7 F500.
N3820 X222.5 Y73.2 I-1.7 J0.
N3830 G1 X212.5
N3840 G3 X210.8 Y71.5 I0. J-1.7
N3850 X212.5 Y69.8 I1.7 J0.
N3860 G1 X222.5
N3870 G0 Z.6
N3880 Z5.
N3890 X172.5 Y71.325
N3900 G1 Z-2.2 F150.
N3910 G3 X172.675 Y71.5 I0. J.175 F500.
N3920 X172.5 Y71.675 I-.175 J0.
N3930 G1 X162.5
N3940 G3 X162.325 Y71.5 I0. J-.175
N3950 X162.5 Y71.325 I.175 J0.
N3960 G1 X172.5
N3970 Y70.6
N3980 G3 X173.4 Y71.5 I0. J.9
N3990 X172.5 Y72.4 I-.9 J0.
N4000 G1 X162.5
N4010 G3 X161.6 Y71.5 I0. J-.9
N4020 X162.5 Y70.6 I.9 J0.
N4030 G1 X172.5
N4040 Y71.325
N4050 Z-4.4 F150.
N4060 G3 X172.675 Y71.5 I0. J.175 F500.
N4070 X172.5 Y71.675 I-.175 J0.
N4080 G1 X162.5
N4090 G3 X162.325 Y71.5 I0. J-.175
N4100 X162.5 Y71.325 I.175 J0.
N4110 G1 X172.5
N4120 Y70.6
N4130 G3 X173.4 Y71.5 I0. J.9
N4140 X172.5 Y72.4 I-.9 J0.
N4150 G1 X162.5
N4160 G3 X161.6 Y71.5 I0. J-.9
N4170 X162.5 Y70.6 I.9 J0.
N4180 G1 X172.5
N4190 Y69.8
N4200 F150.
N4210 G3 X174.2 Y71.5 I0. J1.7 F500.
N4220 X172.5 Y73.2 I-1.7 J0.
N4230 G1 X162.5
N4240 G3 X160.8 Y71.5 I0. J-1.7
N4250 X162.5 Y69.8 I1.7 J0.
N4260 G1 X172.5
N4270 G0 Z.6
N4280 Z5.
N4290 X82. Y71.325
N4300 G1 Z-2.2 F150.
N4310 G3 X82.175 Y71.5 I0. J.175 F500.
N4320 X82. Y71.675 I-.175 J0.
N4330 G1 X72.
N4340 G3 X71.825 Y71.5 I0. J-.175
N4350 X72. Y71.325 I.175 J0.
N4360 G1 X82.
N4370 Y70.6
N4380 G3 X82.9 Y71.5 I0. J.9
N4390 X82. Y72.4 I-.9 J0.
N4400 G1 X72.
N4410 G3 X71.1 Y71.5 I0. J-.9
N4420 X72. Y70.6 I.9 J0.
N4430 G1 X82.
N4440 Y71.325
N4450 Z-4.4 F150.
N4460 G3 X82.175 Y71.5 I0. J.175 F500.
N4470 X82. Y71.675 I-.175 J0.
N4480 G1 X72.
N4490 G3 X71.825 Y71.5 I0. J-.175
N4500 X72. Y71.325 I.175 J0.
N4510 G1 X82.
N4520 Y70.6
N4530 G3 X82.9 Y71.5 I0. J.9
N4540 X82. Y72.4 I-.9 J0.
N4550 G1 X72.
N4560 G3 X71.1 Y71.5 I0. J-.9
N4570 X72. Y70.6 I.9 J0.
N4580 G1 X82.
N4590 Y69.8
N4600 F150.
N4610 G3 X83.7 Y71.5 I0. J1.7 F500.
N4620 X82. Y73.2 I-1.7 J0.
N4630 G1 X72.
N4640 G3 X70.3 Y71.5 I0. J-1.7
N4650 X72. Y69.8 I1.7 J0.
N4660 G1 X82.
N4670 G0 Z.6
N4680 Z5.
N4690 X6.375 Y81.703
N4700 G1 Z-2.2 F150.
N4710 Y91.703 F500.
N4720 G3 X6.2 Y91.878 I-.175 J0.
N4730 X6.025 Y91.703 I0. J-.175
N4740 G1 Y81.703
N4750 G3 X6.2 Y81.528 I.175 J0.
N4760 X6.375 Y81.703 I0. J.175
N4770 G1 X7.1
N4780 Y91.703
N4790 G3 X6.2 Y92.603 I-.9 J0.
N4800 X5.3 Y91.703 I0. J-.9
N4810 G1 Y81.703
N4820 G3 X6.2 Y80.803 I.9 J0.
N4830 X7.1 Y81.703 I0. J.9
N4840 G1 X6.375
N4850 Z-4.4 F150.
N4860 Y91.703 F500.
N4870 G3 X6.2 Y91.878 I-.175 J0.
N4880 X6.025 Y91.703 I0. J-.175
N4890 G1 Y81.703
N4900 G3 X6.2 Y81.528 I.175 J0.
N4910 X6.375 Y81.703 I0. J.175
N4920 G1 X7.1
N4930 Y91.703
N4940 G3 X6.2 Y92.603 I-.9 J0.
N4950 X5.3 Y91.703 I0. J-.9
N4960 G1 Y81.703
N4970 G3 X6.2 Y80.803 I.9 J0.
N4980 X7.1 Y81.703 I0. J.9
N4990 G1 X7.9
N5000 F150.
N5010 Y91.703 F500.
N5020 G3 X6.2 Y93.403 I-1.7 J0.
N5030 X4.5 Y91.703 I0. J-1.7
N5040 G1 Y81.703
N5050 G3 X6.2 Y80.003 I1.7 J0.
N5060 X7.9 Y81.703 I0. J1.7
N5070 G0 Z.6
N5080 Z5.
N5090 X6.375 Y41.703
N5100 G1 Z-2.2 F150.
N5110 G3 X6.2 Y41.878 I-.175 J0. F500.
N5120 X6.025 Y41.703 I0. J-.175
N5130 G1 Y31.703
N5140 G3 X6.2 Y31.528 I.175 J0.
N5150 X6.375 Y31.703 I0. J.175
N5160 G1 Y41.703
N5170 X7.1
N5180 G3 X6.2 Y42.603 I-.9 J0.
N5190 X5.3 Y41.703 I0. J-.9
N5200 G1 Y31.703
N5210 G3 X6.2 Y30.803 I.9 J0.
N5220 X7.1 Y31.703 I0. J.9
N5230 G1 Y41.703
N5240 X6.375
N5250 Z-4.4 F150.
N5260 G3 X6.2 Y41.878 I-.175 J0. F500.
N5270 X6.025 Y41.703 I0. J-.175
N5280 G1 Y31.703
N5290 G3 X6.2 Y31.528 I.175 J0.
N5300 X6.375 Y31.703 I0. J.175
N5310 G1 Y41.703
N5320 X7.1
N5330 G3 X6.2 Y42.603 I-.9 J0.
N5340 X5.3 Y41.703 I0. J-.9
N5350 G1 Y31.703
N5360 G3 X6.2 Y30.803 I.9 J0.
N5370 X7.1 Y31.703 I0. J.9
N5380 G1 Y41.703
N5390 X7.9
N5400 F150.
N5410 G3 X6.2 Y43.403 I-1.7 J0. F500.
N5420 X4.5 Y41.703 I0. J-1.7
N5430 G1 Y31.703
N5440 G3 X6.2 Y30.003 I1.7 J0.
N5450 X7.9 Y31.703 I0. J1.7
N5460 G1 Y41.703
N5470 G0 Z.6
N5480 Z5.
N5490 X6.375 Y184.142
N5500 G1 Z-2.2 F150.
N5510 Y194.142 F500.
N5520 G3 X6.2 Y194.317 I-.175 J0.
N5530 X6.025 Y194.142 I0. J-.175
N5540 G1 Y184.142
N5550 G3 X6.2 Y183.967 I.175 J0.
N5560 X6.375 Y184.142 I0. J.175
N5570 G1 X7.1
N5580 Y194.142
N5590 G3 X6.2 Y195.042 I-.9 J0.
N5600 X5.3 Y194.142 I0. J-.9
N5610 G1 Y184.142
N5620 G3 X6.2 Y183.242 I.9 J0.
N5630 X7.1 Y184.142 I0. J.9
N5640 G1 X6.375
N5650 Z-4.4 F150.
N5660 Y194.142 F500.
N5670 G3 X6.2 Y194.317 I-.175 J0.
N5680 X6.025 Y194.142 I0. J-.175
N5690 G1 Y184.142
N5700 G3 X6.2 Y183.967 I.175 J0.
N5710 X6.375 Y184.142 I0. J.175
N5720 G1 X7.1
N5730 Y194.142
N5740 G3 X6.2 Y195.042 I-.9 J0.
N5750 X5.3 Y194.142 I0. J-.9
N5760 G1 Y184.142
N5770 G3 X6.2 Y183.242 I.9 J0.
N5780 X7.1 Y184.142 I0. J.9
N5790 G1 X7.9
N5800 F150.
N5810 Y194.142 F500.
N5820 G3 X6.2 Y195.842 I-1.7 J0.
N5830 X4.5 Y194.142 I0. J-1.7
N5840 G1 Y184.142
N5850 G3 X6.2 Y182.442 I1.7 J0.
N5860 X7.9 Y184.142 I0. J1.7
N5870 G0 Z.6
N5880 Z5.
N5890 X6.375 Y235.858
N5900 G1 Z-2.2 F150.
N5910 Y245.858 F500.
N5920 G3 X6.2 Y246.033 I-.175 J0.
N5930 X6.025 Y245.858 I0. J-.175
N5940 G1 Y235.858
N5950 G3 X6.2 Y235.683 I.175 J0.
N5960 X6.375 Y235.858 I0. J.175
N5970 G1 X7.1
N5980 Y245.858
N5990 G3 X6.2 Y246.758 I-.9 J0.
N6000 X5.3 Y245.858 I0. J-.9
N6010 G1 Y235.858
N6020 G3 X6.2 Y234.958 I.9 J0.
N6030 X7.1 Y235.858 I0. J.9
N6040 G1 X6.375
N6050 Z-4.4 F150.
N6060 Y245.858 F500.
N6070 G3 X6.2 Y246.033 I-.175 J0.
N6080 X6.025 Y245.858 I0. J-.175
N6090 G1 Y235.858
N6100 G3 X6.2 Y235.683 I.175 J0.
N6110 X6.375 Y235.858 I0. J.175
N6120 G1 X7.1
N6130 Y245.858
N6140 G3 X6.2 Y246.758 I-.9 J0.
N6150 X5.3 Y245.858 I0. J-.9
N6160 G1 Y235.858
N6170 G3 X6.2 Y234.958 I.9 J0.
N6180 X7.1 Y235.858 I0. J.9
N6190 G1 X7.9
N6200 F150.
N6210 Y245.858 F500.
N6220 G3 X6.2 Y247.558 I-1.7 J0.
N6230 X4.5 Y245.858 I0. J-1.7
N6240 G1 Y235.858
N6250 G3 X6.2 Y234.158 I1.7 J0.
N6260 X7.9 Y235.858 I0. J1.7
N6270 G0 Z.6
N6280 Z5.
N6290 X6.375 Y338.298
N6300 G1 Z-2.2 F150.
N6310 Y348.298 F500.
N6320 G3 X6.2 Y348.473 I-.175 J0.
N6330 X6.025 Y348.298 I0. J-.175
N6340 G1 Y338.298
N6350 G3 X6.2 Y338.123 I.175 J0.
N6360 X6.375 Y338.298 I0. J.175
N6370 G1 X7.1
N6380 Y348.298
N6390 G3 X6.2 Y349.198 I-.9 J0.
N6400 X5.3 Y348.298 I0. J-.9
N6410 G1 Y338.298
N6420 G3 X6.2 Y337.398 I.9 J0.
N6430 X7.1 Y338.298 I0. J.9
N6440 G1 X6.375
N6450 Z-4.4 F150.
N6460 Y348.298 F500.
N6470 G3 X6.2 Y348.473 I-.175 J0.
N6480 X6.025 Y348.298 I0. J-.175
N6490 G1 Y338.298
N6500 G3 X6.2 Y338.123 I.175 J0.
N6510 X6.375 Y338.298 I0. J.175
N6520 G1 X7.1
N6530 Y348.298
N6540 G3 X6.2 Y349.198 I-.9 J0.
N6550 X5.3 Y348.298 I0. J-.9
N6560 G1 Y338.298
N6570 G3 X6.2 Y337.398 I.9 J0.
N6580 X7.1 Y338.298 I0. J.9
N6590 G1 X7.9
N6600 F150.
N6610 Y348.298 F500.
N6620 G3 X6.2 Y349.998 I-1.7 J0.
N6630 X4.5 Y348.298 I0. J-1.7
N6640 G1 Y338.298
N6650 G3 X6.2 Y336.598 I1.7 J0.
N6660 X7.9 Y338.298 I0. J1.7
N6670 G0 Z.6
N6680 Z5.
N6690 X6.375 Y388.298
N6700 G1 Z-2.2 F150.
N6710 Y398.298 F500.
N6720 G3 X6.2 Y398.473 I-.175 J0.
N6730 X6.025 Y398.298 I0. J-.175
N6740 G1 Y388.298
N6750 G3 X6.2 Y388.123 I.175 J0.
N6760 X6.375 Y388.298 I0. J.175
N6770 G1 X7.1
N6780 Y398.298
N6790 G3 X6.2 Y399.198 I-.9 J0.
N6800 X5.3 Y398.298 I0. J-.9
N6810 G1 Y388.298
N6820 G3 X6.2 Y387.398 I.9 J0.
N6830 X7.1 Y388.298 I0. J.9
N6840 G1 X6.375
N6850 Z-4.4 F150.
N6860 Y398.298 F500.
N6870 G3 X6.2 Y398.473 I-.175 J0.
N6880 X6.025 Y398.298 I0. J-.175
N6890 G1 Y388.298
N6900 G3 X6.2 Y388.123 I.175 J0.
N6910 X6.375 Y388.298 I0. J.175
N6920 G1 X7.1
N6930 Y398.298
N6940 G3 X6.2 Y399.198 I-.9 J0.
N6950 X5.3 Y398.298 I0. J-.9
N6960 G1 Y388.298
N6970 G3 X6.2 Y387.398 I.9 J0.
N6980 X7.1 Y388.298 I0. J.9
N6990 G1 X7.9
N7000 F150.
N7010 Y398.298 F500.
N7020 G3 X6.2 Y399.998 I-1.7 J0.
N7030 X4.5 Y398.298 I0. J-1.7
N7040 G1 Y388.298
N7050 G3 X6.2 Y386.598 I1.7 J0.
N7060 X7.9 Y388.298 I0. J1.7
N7070 G0 Z.6
N7080 Z5.
N7090 X47.3 Y398.323
N7100 G1 Z-2.2 F150.
N7110 G3 X46.575 Y397.598 I0. J-.725 F500.
N7120 X47.3 Y396.873 I.725 J0.
N7130 X48.025 Y397.598 I0. J.725
N7140 X47.3 Y398.323 I-.725 J0.
N7150 G1 Y399.048
N7160 G3 X45.85 Y397.598 I0. J-1.45
N7170 X47.3 Y396.148 I1.45 J0.
N7180 X48.75 Y397.598 I0. J1.45
N7190 X47.3 Y399.048 I-1.45 J0.
N7200 G1 Y400.498
N7210 G3 X44.4 Y397.598 I0. J-2.9
N7220 X47.3 Y394.698 I2.9 J0.
N7230 X50.2 Y397.598 I0. J2.9
N7240 X47.3 Y400.498 I-2.9 J0.
N7250 G1 Y401.948
N7260 G3 X42.95 Y397.598 I0. J-4.35
N7270 X47.3 Y393.248 I4.35 J0.
N7280 X51.65 Y397.598 I0. J4.35
N7290 X47.3 Y401.948 I-4.35 J0.
N7300 G1 Y403.398
N7310 G3 X41.5 Y397.598 I0. J-5.8
N7320 X47.3 Y391.798 I5.8 J0.
N7330 X53.1 Y397.598 I0. J5.8
N7340 X47.3 Y403.398 I-5.8 J0.
N7350 G1 Y398.323
N7360 Z-4.4 F150.
N7370 G3 X46.575 Y397.598 I0. J-.725 F500.
N7380 X47.3 Y396.873 I.725 J0.
N7390 X48.025 Y397.598 I0. J.725
N7400 X47.3 Y398.323 I-.725 J0.
N7410 G1 Y399.048
N7420 G3 X45.85 Y397.598 I0. J-1.45
N7430 X47.3 Y396.148 I1.45 J0.
N7440 X48.75 Y397.598 I0. J1.45
N7450 X47.3 Y399.048 I-1.45 J0.
N7460 G1 Y400.498
N7470 G3 X44.4 Y397.598 I0. J-2.9
N7480 X47.3 Y394.698 I2.9 J0.
N7490 X50.2 Y397.598 I0. J2.9
N7500 X47.3 Y400.498 I-2.9 J0.
N7510 G1 Y401.948
N7520 G3 X42.95 Y397.598 I0. J-4.35
N7530 X47.3 Y393.248 I4.35 J0.
N7540 X51.65 Y397.598 I0. J4.35
N7550 X47.3 Y401.948 I-4.35 J0.
N7560 G1 Y403.398
N7570 G3 X41.5 Y397.598 I0. J-5.8
N7580 X47.3 Y391.798 I5.8 J0.
N7590 X53.1 Y397.598 I0. J5.8
N7600 X47.3 Y403.398 I-5.8 J0.
N7610 G1 Y404.198
N7620 F150.
N7630 G3 X40.7 Y397.598 I0. J-6.6 F500.
N7640 X47.3 Y390.998 I6.6 J0.
N7650 X53.9 Y397.598 I0. J6.6
N7660 X47.3 Y404.198 I-6.6 J0.
N7670 G0 Z.6
N7680 Z5.
N7690 X72. Y413.325
N7700 G1 Z-2.2 F150.
N7710 X82. F500.
N7720 G3 X82.175 Y413.5 I0. J.175
N7730 X82. Y413.675 I-.175 J0.
N7740 G1 X72.
N7750 G3 X71.825 Y413.5 I0. J-.175
N7760 X72. Y413.325 I.175 J0.
N7770 G1 Y412.6
N7780 X82.
N7790 G3 X82.9 Y413.5 I0. J.9
N7800 X82. Y414.4 I-.9 J0.
N7810 G1 X72.
N7820 G3 X71.1 Y413.5 I0. J-.9
N7830 X72. Y412.6 I.9 J0.
N7840 G1 Y413.325
N7850 Z-4.4 F150.
N7860 X82. F500.
N7870 G3 X82.175 Y413.5 I0. J.175
N7880 X82. Y413.675 I-.175 J0.
N7890 G1 X72.
N7900 G3 X71.825 Y413.5 I0. J-.175
N7910 X72. Y413.325 I.175 J0.
N7920 G1 Y412.6
N7930 X82.
N7940 G3 X82.9 Y413.5 I0. J.9
N7950 X82. Y414.4 I-.9 J0.
N7960 G1 X72.
N7970 G3 X71.1 Y413.5 I0. J-.9
N7980 X72. Y412.6 I.9 J0.
N7990 G1 Y411.8
N8000 F150.
N8010 X82. F500.
N8020 G3 X83.7 Y413.5 I0. J1.7
N8030 X82. Y415.2 I-1.7 J0.
N8040 G1 X72.
N8050 G3 X70.3 Y413.5 I0. J-1.7
N8060 X72. Y411.8 I1.7 J0.
N8070 G0 Z.6
N8080 Z5.
N8090 X162.5 Y413.325
N8100 G1 Z-2.2 F150.
N8110 X172.5 F500.
N8120 G3 X172.675 Y413.5 I0. J.175
N8130 X172.5 Y413.675 I-.175 J0.
N8140 G1 X162.5
N8150 G3 X162.325 Y413.5 I0. J-.175
N8160 X162.5 Y413.325 I.175 J0.
N8170 G1 Y412.6
N8180 X172.5
N8190 G3 X173.4 Y413.5 I0. J.9
N8200 X172.5 Y414.4 I-.9 J0.
N8210 G1 X162.5
N8220 G3 X161.6 Y413.5 I0. J-.9
N8230 X162.5 Y412.6 I.9 J0.
N8240 G1 Y413.325
N8250 Z-4.4 F150.
N8260 X172.5 F500.
N8270 G3 X172.675 Y413.5 I0. J.175
N8280 X172.5 Y413.675 I-.175 J0.
N8290 G1 X162.5
N8300 G3 X162.325 Y413.5 I0. J-.175
N8310 X162.5 Y413.325 I.175 J0.
N8320 G1 Y412.6
N8330 X172.5
N8340 G3 X173.4 Y413.5 I0. J.9
N8350 X172.5 Y414.4 I-.9 J0.
N8360 G1 X162.5
N8370 G3 X161.6 Y413.5 I0. J-.9
N8380 X162.5 Y412.6 I.9 J0.
N8390 G1 Y411.8
N8400 F150.
N8410 X172.5 F500.
N8420 G3 X174.2 Y413.5 I0. J1.7
N8430 X172.5 Y415.2 I-1.7 J0.
N8440 G1 X162.5
N8450 G3 X160.8 Y413.5 I0. J-1.7
N8460 X162.5 Y411.8 I1.7 J0.
N8470 G0 Z.6
N8480 Z5.
N8490 X212.5 Y413.325
N8500 G1 Z-2.2 F150.
N8510 X222.5 F500.
N8520 G3 X222.675 Y413.5 I0. J.175
N8530 X222.5 Y413.675 I-.175 J0.
N8540 G1 X212.5
N8550 G3 X212.325 Y413.5 I0. J-.175
N8560 X212.5 Y413.325 I.175 J0.
N8570 G1 Y412.6
N8580 X222.5
N8590 G3 X223.4 Y413.5 I0. J.9
N8600 X222.5 Y414.4 I-.9 J0.
N8610 G1 X212.5
N8620 G3 X211.6 Y413.5 I0. J-.9
N8630 X212.5 Y412.6 I.9 J0.
N8640 G1 Y413.325
N8650 Z-4.4 F150.
N8660 X222.5 F500.
N8670 G3 X222.675 Y413.5 I0. J.175
N8680 X222.5 Y413.675 I-.175 J0.
N8690 G1 X212.5
N8700 G3 X212.325 Y413.5 I0. J-.175
N8710 X212.5 Y413.325 I.175 J0.
N8720 G1 Y412.6
N8730 X222.5
N8740 G3 X223.4 Y413.5 I0. J.9
N8750 X222.5 Y414.4 I-.9 J0.
N8760 G1 X212.5
N8770 G3 X211.6 Y413.5 I0. J-.9
N8780 X212.5 Y412.6 I.9 J0.
N8790 G1 Y411.8
N8800 F150.
N8810 X222.5 F500.
N8820 G3 X224.2 Y413.5 I0. J1.7
N8830 X222.5 Y415.2 I-1.7 J0.
N8840 G1 X212.5
N8850 G3 X210.8 Y413.5 I0. J-1.7
N8860 X212.5 Y411.8 I1.7 J0.
N8870 G0 Z.6
N8880 Z5.
N8890 X303. Y413.325
N8900 G1 Z-2.2 F150.
N8910 X313. F500.
N8920 G3 X313.175 Y413.5 I0. J.175
N8930 X313. Y413.675 I-.175 J0.
N8940 G1 X303.
N8950 G3 X302.825 Y413.5 I0. J-.175
N8960 X303. Y413.325 I.175 J0.
N8970 G1 Y412.6
N8980 X313.
N8990 G3 X313.9 Y413.5 I0. J.9
N9000 X313. Y414.4 I-.9 J0.
N9010 G1 X303.
N9020 G3 X302.1 Y413.5 I0. J-.9
N9030 X303. Y412.6 I.9 J0.
N9040 G1 Y413.325
N9050 Z-4.4 F150.
N9060 X313. F500.
N9070 G3 X313.175 Y413.5 I0. J.175
N9080 X313. Y413.675 I-.175 J0.
N9090 G1 X303.
N9100 G3 X302.825 Y413.5 I0. J-.175
N9110 X303. Y413.325 I.175 J0.
N9120 G1 Y412.6
N9130 X313.
N9140 G3 X313.9 Y413.5 I0. J.9
N9150 X313. Y414.4 I-.9 J0.
N9160 G1 X303.
N9170 G3 X302.1 Y413.5 I0. J-.9
N9180 X303. Y412.6 I.9 J0.
N9190 G1 Y411.8
N9200 F150.
N9210 X313. F500.
N9220 G3 X314.7 Y413.5 I0. J1.7
N9230 X313. Y415.2 I-1.7 J0.
N9240 G1 X303.
N9250 G3 X301.3 Y413.5 I0. J-1.7
N9260 X303. Y411.8 I1.7 J0.
N9270 G0 Z.6
N9280 Z5.
N9290 X359.4 Y398.323
N9300 G1 Z-2.2 F150.
N9310 G3 X358.675 Y397.598 I0. J-.725 F500.
N9320 X359.4 Y396.873 I.725 J0.
N9330 X360.125 Y397.598 I0. J.725
N9340 X359.4 Y398.323 I-.725 J0.
N9350 G1 Y399.048
N9360 G3 X357.95 Y397.598 I0. J-1.45
N9370 X359.4 Y396.148 I1.45 J0.
N9380 X360.85 Y397.598 I0. J1.45
N9390 X359.4 Y399.048 I-1.45 J0.
N9400 G1 Y400.498
N9410 G3 X356.5 Y397.598 I0. J-2.9
N9420 X359.4 Y394.698 I2.9 J0.
N9430 X362.3 Y397.598 I0. J2.9
N9440 X359.4 Y400.498 I-2.9 J0.
N9450 G1 Y401.948
N9460 G3 X355.05 Y397.598 I0. J-4.35
N9470 X359.4 Y393.248 I4.35 J0.
N9480 X363.75 Y397.598 I0. J4.35
N9490 X359.4 Y401.948 I-4.35 J0.
N9500 G1 Y403.398
N9510 G3 X353.6 Y397.598 I0. J-5.8
N9520 X359.4 Y391.798 I5.8 J0.
N9530 X365.2 Y397.598 I0. J5.8
N9540 X359.4 Y403.398 I-5.8 J0.
N9550 G1 Y398.323
N9560 Z-4.4 F150.
N9570 G3 X358.675 Y397.598 I0. J-.725 F500.
N9580 X359.4 Y396.873 I.725 J0.
N9590 X360.125 Y397.598 I0. J.725
N9600 X359.4 Y398.323 I-.725 J0.
N9610 G1 Y399.048
N9620 G3 X357.95 Y397.598 I0. J-1.45
N9630 X359.4 Y396.148 I1.45 J0.
N9640 X360.85 Y397.598 I0. J1.45
N9650 X359.4 Y399.048 I-1.45 J0.
N9660 G1 Y400.498
N9670 G3 X356.5 Y397.598 I0. J-2.9
N9680 X359.4 Y394.698 I2.9 J0.
N9690 X362.3 Y397.598 I0. J2.9
N9700 X359.4 Y400.498 I-2.9 J0.
N9710 G1 Y401.948
N9720 G3 X355.05 Y397.598 I0. J-4.35
N9730 X359.4 Y393.248 I4.35 J0.
N9740 X363.75 Y397.598 I0. J4.35
N9750 X359.4 Y401.948 I-4.35 J0.
N9760 G1 Y403.398
N9770 G3 X353.6 Y397.598 I0. J-5.8
N9780 X359.4 Y391.798 I5.8 J0.
N9790 X365.2 Y397.598 I0. J5.8
N9800 X359.4 Y403.398 I-5.8 J0.
N9810 G1 Y404.198
N9820 F150.
N9830 G3 X352.8 Y397.598 I0. J-6.6 F500.
N9840 X359.4 Y390.998 I6.6 J0.
N9850 X366. Y397.598 I0. J6.6
N9860 X359.4 Y404.198 I-6.6 J0.
N9870 G0 Z.6
N9880 Z5.
N9890 X378.625 Y398.298
N9900 G1 Z-2.2 F150.
N9910 Y388.298 F500.
N9920 G3 X378.8 Y388.123 I.175 J0.
N9930 X378.975 Y388.298 I0. J.175
N9940 G1 Y398.298
N9950 G3 X378.8 Y398.473 I-.175 J0.
N9960 X378.625 Y398.298 I0. J-.175
N9970 G1 X377.9
N9980 Y388.298
N9990 G3 X378.8 Y387.398 I.9 J0.
N100 X379.7 Y388.298 I0. J.9
N110 G1 Y398.298
N120 G3 X378.8 Y399.198 I-.9 J0.
N130 X377.9 Y398.298 I0. J-.9
N140 G1 X378.625
N150 Z-4.4 F150.
N160 Y388.298 F500.
N170 G3 X378.8 Y388.123 I.175 J0.
N180 X378.975 Y388.298 I0. J.175
N190 G1 Y398.298
N200 G3 X378.8 Y398.473 I-.175 J0.
N210 X378.625 Y398.298 I0. J-.175
N220 G1 X377.9
N230 Y388.298
N240 G3 X378.8 Y387.398 I.9 J0.
N250 X379.7 Y388.298 I0. J.9
N260 G1 Y398.298
N270 G3 X378.8 Y399.198 I-.9 J0.
N280 X377.9 Y398.298 I0. J-.9
N290 G1 X377.1
N300 F150.
N310 Y388.298 F500.
N320 G3 X378.8 Y386.598 I1.7 J0.
N330 X380.5 Y388.298 I0. J1.7
N340 G1 Y398.298
N350 G3 X378.8 Y399.998 I-1.7 J0.
N360 X377.1 Y398.298 I0. J-1.7
N370 G0 Z.6
N380 Z5.
N390 X378.625 Y348.298
N400 G1 Z-2.2 F150.
N410 Y338.298 F500.
N420 G3 X378.8 Y338.123 I.175 J0.
N430 X378.975 Y338.298 I0. J.175
N440 G1 Y348.298
N450 G3 X378.8 Y348.473 I-.175 J0.
N460 X378.625 Y348.298 I0. J-.175
N470 G1 X377.9
N480 Y338.298
N490 G3 X378.8 Y337.398 I.9 J0.
N500 X379.7 Y338.298 I0. J.9
N510 G1 Y348.298
N520 G3 X378.8 Y349.198 I-.9 J0.
N530 X377.9 Y348.298 I0. J-.9
N540 G1 X378.625
N550 Z-4.4 F150.
N560 Y338.298 F500.
N570 G3 X378.8 Y338.123 I.175 J0.
N580 X378.975 Y338.298 I0. J.175
N590 G1 Y348.298
N600 G3 X378.8 Y348.473 I-.175 J0.
N610 X378.625 Y348.298 I0. J-.175
N620 G1 X377.9
N630 Y338.298
N640 G3 X378.8 Y337.398 I.9 J0.
N650 X379.7 Y338.298 I0. J.9
N660 G1 Y348.298
N670 G3 X378.8 Y349.198 I-.9 J0.
N680 X377.9 Y348.298 I0. J-.9
N690 G1 X377.1
N700 F150.
N710 Y338.298 F500.
N720 G3 X378.8 Y336.598 I1.7 J0.
N730 X380.5 Y338.298 I0. J1.7
N740 G1 Y348.298
N750 G3 X378.8 Y349.998 I-1.7 J0.
N760 X377.1 Y348.298 I0. J-1.7
N770 G0 Z.6
N780 Z5.
N790 X378.625 Y245.858
N800 G1 Z-2.2 F150.
N810 Y235.858 F500.
N820 G3 X378.8 Y235.683 I.175 J0.
N830 X378.975 Y235.858 I0. J.175
N840 G1 Y245.858
N850 G3 X378.8 Y246.033 I-.175 J0.
N860 X378.625 Y245.858 I0. J-.175
N870 G1 X377.9
N880 Y235.858
N890 G3 X378.8 Y234.958 I.9 J0.
N900 X379.7 Y235.858 I0. J.9
N910 G1 Y245.858
N920 G3 X378.8 Y246.758 I-.9 J0.
N930 X377.9 Y245.858 I0. J-.9
N940 G1 X378.625
N950 Z-4.4 F150.
N960 Y235.858 F500.
N970 G3 X378.8 Y235.683 I.175 J0.
N980 X378.975 Y235.858 I0. J.175
N990 G1 Y245.858
N1000 G3 X378.8 Y246.033 I-.175 J0.
N1010 X378.625 Y245.858 I0. J-.175
N1020 G1 X377.9
N1030 Y235.858
N1040 G3 X378.8 Y234.958 I.9 J0.
N1050 X379.7 Y235.858 I0. J.9
N1060 G1 Y245.858
N1070 G3 X378.8 Y246.758 I-.9 J0.
N1080 X377.9 Y245.858 I0. J-.9
N1090 G1 X377.1
N1100 F150.
N1110 Y235.858 F500.
N1120 G3 X378.8 Y234.158 I1.7 J0.
N1130 X380.5 Y235.858 I0. J1.7
N1140 G1 Y245.858
N1150 G3 X378.8 Y247.558 I-1.7 J0.
N1160 X377.1 Y245.858 I0. J-1.7
N1170 G0 Z.6
N1180 Z5.
N1190 X378.625 Y194.142
N1200 G1 Z-2.2 F150.
N1210 Y184.142 F500.
N1220 G3 X378.8 Y183.967 I.175 J0.
N1230 X378.975 Y184.142 I0. J.175
N1240 G1 Y194.142
N1250 G3 X378.8 Y194.317 I-.175 J0.
N1260 X378.625 Y194.142 I0. J-.175
N1270 G1 X377.9
N1280 Y184.142
N1290 G3 X378.8 Y183.242 I.9 J0.
N1300 X379.7 Y184.142 I0. J.9
N1310 G1 Y194.142
N1320 G3 X378.8 Y195.042 I-.9 J0.
N1330 X377.9 Y194.142 I0. J-.9
N1340 G1 X378.625
N1350 Z-4.4 F150.
N1360 Y184.142 F500.
N1370 G3 X378.8 Y183.967 I.175 J0.
N1380 X378.975 Y184.142 I0. J.175
N1390 G1 Y194.142
N1400 G3 X378.8 Y194.317 I-.175 J0.
N1410 X378.625 Y194.142 I0. J-.175
N1420 G1 X377.9
N1430 Y184.142
N1440 G3 X378.8 Y183.242 I.9 J0.
N1450 X379.7 Y184.142 I0. J.9
N1460 G1 Y194.142
N1470 G3 X378.8 Y195.042 I-.9 J0.
N1480 X377.9 Y194.142 I0. J-.9
N1490 G1 X377.1
N1500 F150.
N1510 Y184.142 F500.
N1520 G3 X378.8 Y182.442 I1.7 J0.
N1530 X380.5 Y184.142 I0. J1.7
N1540 G1 Y194.142
N1550 G3 X378.8 Y195.842 I-1.7 J0.
N1560 X377.1 Y194.142 I0. J-1.7
N1570 G0 Z5.
N1580 X386.9 Y6.
N1590 G1 Z-2.067 F150.
N1600 Y404.098 F500.
N1610 G3 X379. Y411.998 I-7.9 J0.
N1620 G1 X353.
N1630 G2 X347.944 Y414.355 I0. J6.6
N1640 G1 X344.731 Y418.185
N1650 G3 X336.764 Y421.9 I-7.967 J-6.685
N1660 G1 X48.236
N1670 G3 X40.269 Y418.185 I0. J-10.4
N1680 G1 X37.056 Y414.355
N1690 G2 X32. Y411.998 I-5.056 J4.243
N1700 G1 X6.
N1710 G3 X-1.9 Y404.098 I0. J-7.9
N1720 G1 Y6.
N1730 G3 X6. Y-1.9 I7.9 J0.
N1740 G1 X32.036
N1750 G3 X40.003 Y1.815 I0. J10.4
N1760 G1 X43.299 Y5.743
N1770 G2 X48.355 Y8.1 I5.056 J-4.243
N1780 G1 X336.645
N1790 G2 X341.701 Y5.743 I0. J-6.6
N1800 G1 X344.997 Y1.815
N1810 G3 X352.964 Y-1.9 I7.967 J6.685
N1820 G1 X379.
N1830 G3 X386.9 Y6. I0. J7.9
N1840 G1 Z-4.133 F150.
N1850 Y404.098 F500.
N1860 G3 X379. Y411.998 I-7.9 J0.
N1870 G1 X353.
N1880 G2 X347.944 Y414.355 I0. J6.6
N1890 G1 X344.731 Y418.185
N1900 G3 X336.764 Y421.9 I-7.967 J-6.685
N1910 G1 X48.236
N1920 G3 X40.269 Y418.185 I0. J-10.4
N1930 G1 X37.056 Y414.355
N1940 G2 X32. Y411.998 I-5.056 J4.243
N1950 G1 X6.
N1960 G3 X-1.9 Y404.098 I0. J-7.9
N1970 G1 Y6.
N1980 G3 X6. Y-1.9 I7.9 J0.
N1990 G1 X32.036
N2000 G3 X40.003 Y1.815 I0. J10.4
N2010 G1 X43.299 Y5.743
N2020 G2 X48.355 Y8.1 I5.056 J-4.243
N2030 G1 X336.645
N2040 G2 X341.701 Y5.743 I0. J-6.6
N2050 G1 X344.997 Y1.815
N2060 G3 X352.964 Y-1.9 I7.967 J6.685
N2070 G1 X379.
N2080 G3 X386.9 Y6. I0. J7.9
N2090 G1 Z-6.2 F150.
N2100 Y127.415 F500.
N2110 Y129.115 Z-4.5
N2120 Y148.615
N2130 Y150.315 Z-6.2
N2140 Y393.302
N2150 Y395.002 Z-4.5
N2160 Y404.098
N2170 G3 X380.983 Y411.745 I-7.9 J0.
N2180 X379.305 Y411.992 Z-6.2 I-1.983 J-7.647
N2190 X379. Y411.998 I-.305 J-7.894
N2200 G1 X353.
N2210 G2 X347.944 Y414.355 I0. J6.6
N2220 G1 X344.731 Y418.185
N2230 G3 X336.764 Y421.9 I-7.967 J-6.685
N2240 G1 X137.246
N2250 X135.546 Z-4.5
N2260 X116.046
N2270 X114.346 Z-6.2
N2280 X48.236
N2290 G3 X40.269 Y418.185 I0. J-10.4
N2300 G1 X37.056 Y414.355
N2310 G2 X32. Y411.998 I-5.056 J4.243
N2320 G1 X6.
N2330 G3 X-1.9 Y404.098 I0. J-7.9
N2340 G1 Y282.637
N2350 Y280.937 Z-4.5
N2360 Y261.437
N2370 Y259.737 Z-6.2
N2380 Y16.735
N2390 Y15.035 Z-4.5
N2400 Y6.
N2410 G3 X4.075 Y-1.662 I7.9 J0.
N2420 X5.756 Y-1.896 Z-6.2 I1.925 J7.662
N2430 X6. Y-1.9 I.244 J7.896
N2440 G1 X32.036
N2450 G3 X40.003 Y1.815 I0. J10.4
N2460 G1 X43.299 Y5.743
N2470 G2 X48.355 Y8.1 I5.056 J-4.243
N2480 G1 X247.754
N2490 X249.454 Z-4.5
N2500 X268.954
N2510 X270.654 Z-6.2
N2520 X336.645
N2530 G2 X341.701 Y5.743 I0. J-6.6
N2540 G1 X344.997 Y1.815
N2550 G3 X352.964 Y-1.9 I7.967 J6.685
N2560 G1 X379.
N2570 G3 X386.9 Y6. I0. J7.9
N2580 G1 X386.4
N2590 Y127.415
N2600 Y129.115 Z-4.5
N2610 Y148.615
N2620 Y150.315 Z-6.2
N2630 Y393.261
N2640 Y394.961 Z-4.5
N2650 Y404.098
N2660 G3 X380.255 Y411.391 I-7.4 J0.
N2670 X379. Y411.498 Z-5.761 I-1.255 J-7.293
N2680 G1 X378.561 Z-6.2
N2690 X353.
N2700 G2 X347.561 Y414.034 I0. J7.1
N2710 G1 X344.348 Y417.864
N2720 G3 X336.764 Y421.4 I-7.584 J-6.364
N2730 G1 X137.246
N2740 X135.546 Z-4.5
N2750 X116.046
N2760 X114.346 Z-6.2
N2770 X48.236
N2780 G3 X40.652 Y417.864 I0. J-9.9
N2790 G1 X37.439 Y414.034
N2800 G2 X32. Y411.498 I-5.439 J4.564
N2810 G1 X6.
N2820 G3 X-1.4 Y404.098 I0. J-7.4
N2830 G1 Y282.637
N2840 Y280.937 Z-4.5
N2850 Y261.437
N2860 Y259.737 Z-6.2
N2870 Y16.78
N2880 Y15.08 Z-4.5
N2890 Y6.
N2900 G3 X4.801 Y-1.302 I7.4 J0.
N2910 X6. Y-1.4 Z-5.704 I1.199 J7.302
N2920 G1 X6.496 Z-6.2
N2930 X32.036
N2940 G3 X39.62 Y2.136 I0. J9.9
N2950 G1 X42.916 Y6.064
N2960 G2 X48.355 Y8.6 I5.439 J-4.564
N2970 G1 X247.754
N2980 X249.454 Z-4.5
N2990 X268.954
N3000 X270.654 Z-6.2
N3010 X336.645
N3020 G2 X342.084 Y6.064 I0. J-7.1
N3030 G1 X345.38 Y2.136
N3040 G3 X352.964 Y-1.4 I7.584 J6.364
N3050 G1 X379.
N3060 G3 X386.4 Y6. I0. J7.4
N3070 G0 Z5.
N3080 Y127.415
N3090 G1 Z-6.2
N3100 Y150.315
N3110 G0 Z5.
N3120 Y393.261
N3130 G1 Z-6.2
N3140 Y404.098
N3150 G3 X379. Y411.498 I-7.4 J0.
N3160 G1 X378.561
N3170 G0 Z5.
N3180 X137.246 Y421.4
N3190 G1 Z-6.2
N3200 X114.346
N3210 G0 Z5.
N3220 X-1.4 Y282.637
N3230 G1 Z-6.2
N3240 Y259.737
N3250 G0 Z5.
N3260 Y16.78
N3270 G1 Z-6.2
N3280 Y6.
N3290 G3 X6. Y-1.4 I7.4 J0.
N3300 G1 X6.496
N3310 G0 Z5.
N3320 X247.754 Y8.6
N3330 G1 Z-6.2
N3340 X270.654
N3350 G0 Z5.
N3360 M5
N3370 G91 Z10
N3390 M30
%
