%
O0000(CORTE NERVIOS)
(DATE=DD-MM-YY - 30-09-15 TIME=HH:MM - 22:31)
(MCX FILE - C:\USERS\CAMPY\DESKTOP\PANELES ULTICAMPY V3 CAM\PANEL_INFERIOR.SLDPRT)
(NC FILE - C:\USERS\CAMPY\DESKTOP\PANELES ULTICAMPY V3 CAM\MACH3\PANEL INFERIOR\CORTE NERVIOS.NC)
(MATERIAL - ALUMINUM MM - 2024)
( T2 | FRESA 3MM CAJA AZUL | H2 | XY STOCK TO LEAVE - -.05 | Z STOCK TO LEAVE - 0. )
N100 G21
N110 G0 G17 G40 G49 G80 G90
N120 T2 M6 Z5
N130 G0 G90 G54 X381.4 Y170.503 A0. S15000 M3
N140 G43 H2 Z5.
N150 G1 Z-6.2 F500.
N160 Y193.403
N170 G0 Z5.
N180 X325.35 Y372.4
N190 G1 Z-6.2
N200 X313.9
N210 Y375.5
N220 G3 X312.5 Y376.9 I-1.4 J0.
N230 G1 X306.349
N240 G0 Z5.
N250 X86.404 Y372.4
N260 G1 Z-6.2
N270 X82.9
N280 Y375.5
N290 G3 X81.5 Y376.9 I-1.4 J0.
N300 G1 X71.5
N310 G3 X70.1 Y375.5 I0. J-1.4
N320 G1 Y373.602
N330 G0 Z5.
N340 X2.285 Y206.1
N350 G1 Z-6.2
N360 X2.6
N370 Y183.515
N380 G0 Z5.
N390 X49.891 Y2.6
N400 G1 Z-6.2
N410 X70.1
N420 Y-.091
N430 G0 Z5.
N440 X286.4 Y16.15
N450 G1 Z-6.2
N460 Y27.6
N470 X297.85
N480 G0 Z5.
N490 M5
N500 G91 Z5
N510 X0. Y0. A0.
N520 M30
%
