%
O0000(PANEL_INFERIOR)
(DATE=DD-MM-YY - 30-09-15 TIME=HH:MM - 22:31)
(MCX FILE - C:\USERS\CAMPY\DESKTOP\PANELES ULTICAMPY V3 CAM\PANEL_INFERIOR.SLDPRT)
(NC FILE - C:\USERS\CAMPY\DESKTOP\PANELES ULTICAMPY V3 CAM\MACH3\PANEL INFERIOR\PANEL_INFERIOR.NC)
(MATERIAL - ALUMINUM MM - 2024)
( T2 | FRESA 3MM CAJA AZUL | H2 | XY STOCK TO LEAVE - -.05 | Z STOCK TO LEAVE - 0. )
N100 G21
N110 G0 G17 G40 G49 G80 G90
N120 T2 M6 Z5
N130 G0 G90 G54 X92.856 Y232.35 A0. S15000 M3
N140 G43 H2 Z5.
N150 G1 Z-2.067 F150.
N160 G3 X92.256 Y232.95 I-.6 J0. F500.
N170 X91.656 Y232.35 I0. J-.6
N180 X92.256 Y231.75 I.6 J0.
N190 X92.856 Y232.35 I0. J.6
N200 G1 Z-4.133 F150.
N210 G3 X92.256 Y232.95 I-.6 J0. F500.
N220 X91.656 Y232.35 I0. J-.6
N230 X92.256 Y231.75 I.6 J0.
N240 X92.856 Y232.35 I0. J.6
N250 G1 Z-6.2 F150.
N260 G3 X92.256 Y232.95 I-.6 J0. F500.
N270 X91.656 Y232.35 I0. J-.6
N280 X92.256 Y231.75 I.6 J0.
N290 X92.856 Y232.35 I0. J.6
N300 G0 Z-1.2
N310 Z5.
N320 Y282.35
N330 G1 Z-2.067 F150.
N340 G3 X92.256 Y282.95 I-.6 J0. F500.
N350 X91.656 Y282.35 I0. J-.6
N360 X92.256 Y281.75 I.6 J0.
N370 X92.856 Y282.35 I0. J.6
N380 G1 Z-4.133 F150.
N390 G3 X92.256 Y282.95 I-.6 J0. F500.
N400 X91.656 Y282.35 I0. J-.6
N410 X92.256 Y281.75 I.6 J0.
N420 X92.856 Y282.35 I0. J.6
N430 G1 Z-6.2 F150.
N440 G3 X92.256 Y282.95 I-.6 J0. F500.
N450 X91.656 Y282.35 I0. J-.6
N460 X92.256 Y281.75 I.6 J0.
N470 X92.856 Y282.35 I0. J.6
N480 G0 Z-1.2
N490 Z5.
N500 X176.3 Y334.5
N510 G1 Z-2.067 F150.
N520 G3 X176.5 Y334.3 I.2 J0. F500.
N530 X176.7 Y334.5 I0. J.2
N540 X176.5 Y334.7 I-.2 J0.
N550 X176.3 Y334.5 I0. J-.2
N560 G1 Z-4.133 F150.
N570 G3 X176.5 Y334.3 I.2 J0. F500.
N580 X176.7 Y334.5 I0. J.2
N590 X176.5 Y334.7 I-.2 J0.
N600 X176.3 Y334.5 I0. J-.2
N610 G1 Z-6.2 F150.
N620 G3 X176.5 Y334.3 I.2 J0. F500.
N630 X176.7 Y334.5 I0. J.2
N640 X176.5 Y334.7 I-.2 J0.
N650 X176.3 Y334.5 I0. J-.2
N660 G0 Z-1.2
N670 Z5.
N680 X207.3
N690 G1 Z-2.067 F150.
N700 G3 X207.5 Y334.3 I.2 J0. F500.
N710 X207.7 Y334.5 I0. J.2
N720 X207.5 Y334.7 I-.2 J0.
N730 X207.3 Y334.5 I0. J-.2
N740 G1 Z-4.133 F150.
N750 G3 X207.5 Y334.3 I.2 J0. F500.
N760 X207.7 Y334.5 I0. J.2
N770 X207.5 Y334.7 I-.2 J0.
N780 X207.3 Y334.5 I0. J-.2
N790 G1 Z-6.2 F150.
N800 G3 X207.5 Y334.3 I.2 J0. F500.
N810 X207.7 Y334.5 I0. J.2
N820 X207.5 Y334.7 I-.2 J0.
N830 X207.3 Y334.5 I0. J-.2
N840 G0 Z-1.2
N850 Z5.
N860 Y365.5
N870 G1 Z-2.067 F150.
N880 G3 X207.5 Y365.3 I.2 J0. F500.
N890 X207.7 Y365.5 I0. J.2
N900 X207.5 Y365.7 I-.2 J0.
N910 X207.3 Y365.5 I0. J-.2
N920 G1 Z-4.133 F150.
N930 G3 X207.5 Y365.3 I.2 J0. F500.
N940 X207.7 Y365.5 I0. J.2
N950 X207.5 Y365.7 I-.2 J0.
N960 X207.3 Y365.5 I0. J-.2
N970 G1 Z-6.2 F150.
N980 G3 X207.5 Y365.3 I.2 J0. F500.
N990 X207.7 Y365.5 I0. J.2
N1000 X207.5 Y365.7 I-.2 J0.
N1010 X207.3 Y365.5 I0. J-.2
N1020 G0 Z-1.2
N1030 Z5.
N1040 X176.3
N1050 G1 Z-2.067 F150.
N1060 G3 X176.5 Y365.3 I.2 J0. F500.
N1070 X176.7 Y365.5 I0. J.2
N1080 X176.5 Y365.7 I-.2 J0.
N1090 X176.3 Y365.5 I0. J-.2
N1100 G1 Z-4.133 F150.
N1110 G3 X176.5 Y365.3 I.2 J0. F500.
N1120 X176.7 Y365.5 I0. J.2
N1130 X176.5 Y365.7 I-.2 J0.
N1140 X176.3 Y365.5 I0. J-.2
N1150 G1 Z-6.2 F150.
N1160 G3 X176.5 Y365.3 I.2 J0. F500.
N1170 X176.7 Y365.5 I0. J.2
N1180 X176.5 Y365.7 I-.2 J0.
N1190 X176.3 Y365.5 I0. J-.2
N1200 G0 Z-1.2
N1210 Z5.
N1220 X242.856 Y282.35
N1230 G1 Z-2.067 F150.
N1240 G3 X242.256 Y282.95 I-.6 J0. F500.
N1250 X241.656 Y282.35 I0. J-.6
N1260 X242.256 Y281.75 I.6 J0.
N1270 X242.856 Y282.35 I0. J.6
N1280 G1 Z-4.133 F150.
N1290 G3 X242.256 Y282.95 I-.6 J0. F500.
N1300 X241.656 Y282.35 I0. J-.6
N1310 X242.256 Y281.75 I.6 J0.
N1320 X242.856 Y282.35 I0. J.6
N1330 G1 Z-6.2 F150.
N1340 G3 X242.256 Y282.95 I-.6 J0. F500.
N1350 X241.656 Y282.35 I0. J-.6
N1360 X242.256 Y281.75 I.6 J0.
N1370 X242.856 Y282.35 I0. J.6
N1380 G0 Z-1.2
N1390 Z5.
N1400 Y232.35
N1410 G1 Z-2.067 F150.
N1420 G3 X242.256 Y232.95 I-.6 J0. F500.
N1430 X241.656 Y232.35 I0. J-.6
N1440 X242.256 Y231.75 I.6 J0.
N1450 X242.856 Y232.35 I0. J.6
N1460 G1 Z-4.133 F150.
N1470 G3 X242.256 Y232.95 I-.6 J0. F500.
N1480 X241.656 Y232.35 I0. J-.6
N1490 X242.256 Y231.75 I.6 J0.
N1500 X242.856 Y232.35 I0. J.6
N1510 G1 Z-6.2 F150.
N1520 G3 X242.256 Y232.95 I-.6 J0. F500.
N1530 X241.656 Y232.35 I0. J-.6
N1540 X242.256 Y231.75 I.6 J0.
N1550 X242.856 Y232.35 I0. J.6
N1560 G0 Z-1.2
N1570 Z5.
N1580 X209.826 Y138.989
N1590 G1 Z-2.067 F150.
N1600 G3 X209.726 Y139.089 I-.1 J0. F500.
N1610 X209.626 Y138.989 I0. J-.1
N1620 X209.726 Y138.889 I.1 J0.
N1630 X209.826 Y138.989 I0. J.1
N1640 G1 Z-4.133 F150.
N1650 G3 X209.726 Y139.089 I-.1 J0. F500.
N1660 X209.626 Y138.989 I0. J-.1
N1670 X209.726 Y138.889 I.1 J0.
N1680 X209.826 Y138.989 I0. J.1
N1690 G1 Z-6.2 F150.
N1700 G3 X209.726 Y139.089 I-.1 J0. F500.
N1710 X209.626 Y138.989 I0. J-.1
N1720 X209.726 Y138.889 I.1 J0.
N1730 X209.826 Y138.989 I0. J.1
N1740 G0 Z-1.2
N1750 Z5.
N1760 X161.826
N1770 G1 Z-2.067 F150.
N1780 G3 X161.726 Y139.089 I-.1 J0. F500.
N1790 X161.626 Y138.989 I0. J-.1
N1800 X161.726 Y138.889 I.1 J0.
N1810 X161.826 Y138.989 I0. J.1
N1820 G1 Z-4.133 F150.
N1830 G3 X161.726 Y139.089 I-.1 J0. F500.
N1840 X161.626 Y138.989 I0. J-.1
N1850 X161.726 Y138.889 I.1 J0.
N1860 X161.826 Y138.989 I0. J.1
N1870 G1 Z-6.2 F150.
N1880 G3 X161.726 Y139.089 I-.1 J0. F500.
N1890 X161.626 Y138.989 I0. J-.1
N1900 X161.726 Y138.889 I.1 J0.
N1910 X161.826 Y138.989 I0. J.1
N1920 G0 Z-1.2
N1930 Z5.
N1940 Y56.489
N1950 G1 Z-2.067 F150.
N1960 G3 X161.726 Y56.589 I-.1 J0. F500.
N1970 X161.626 Y56.489 I0. J-.1
N1980 X161.726 Y56.389 I.1 J0.
N1990 X161.826 Y56.489 I0. J.1
N2000 G1 Z-4.133 F150.
N2010 G3 X161.726 Y56.589 I-.1 J0. F500.
N2020 X161.626 Y56.489 I0. J-.1
N2030 X161.726 Y56.389 I.1 J0.
N2040 X161.826 Y56.489 I0. J.1
N2050 G1 Z-6.2 F150.
N2060 G3 X161.726 Y56.589 I-.1 J0. F500.
N2070 X161.626 Y56.489 I0. J-.1
N2080 X161.726 Y56.389 I.1 J0.
N2090 X161.826 Y56.489 I0. J.1
N2100 G0 Z-1.2
N2110 Z5.
N2120 X209.826 Y63.989
N2130 G1 Z-2.067 F150.
N2140 G3 X209.726 Y64.089 I-.1 J0. F500.
N2150 X209.626 Y63.989 I0. J-.1
N2160 X209.726 Y63.889 I.1 J0.
N2170 X209.826 Y63.989 I0. J.1
N2180 G1 Z-4.133 F150.
N2190 G3 X209.726 Y64.089 I-.1 J0. F500.
N2200 X209.626 Y63.989 I0. J-.1
N2210 X209.726 Y63.889 I.1 J0.
N2220 X209.826 Y63.989 I0. J.1
N2230 G1 Z-6.2 F150.
N2240 G3 X209.726 Y64.089 I-.1 J0. F500.
N2250 X209.626 Y63.989 I0. J-.1
N2260 X209.726 Y63.889 I.1 J0.
N2270 X209.826 Y63.989 I0. J.1
N2280 G0 Z-1.2
N2290 Z5.
N2300 X79.1 Y350.
N2310 G1 Z-2.067 F150.
N2320 G3 X79. Y350.1 I-.1 J0. F500.
N2330 X78.9 Y350. I0. J-.1
N2340 X79. Y349.9 I.1 J0.
N2350 X79.1 Y350. I0. J.1
N2360 G1 Z-4.133 F150.
N2370 G3 X79. Y350.1 I-.1 J0. F500.
N2380 X78.9 Y350. I0. J-.1
N2390 X79. Y349.9 I.1 J0.
N2400 X79.1 Y350. I0. J.1
N2410 G1 Z-6.2 F150.
N2420 G3 X79. Y350.1 I-.1 J0. F500.
N2430 X78.9 Y350. I0. J-.1
N2440 X79. Y349.9 I.1 J0.
N2450 X79.1 Y350. I0. J.1
N2460 G0 Z-1.2
N2470 Z5.
N2480 X114.9
N2490 G1 Z-2.067 F150.
N2500 G3 X115. Y349.9 I.1 J0. F500.
N2510 X115.1 Y350. I0. J.1
N2520 X115. Y350.1 I-.1 J0.
N2530 X114.9 Y350. I0. J-.1
N2540 G1 Z-4.133 F150.
N2550 G3 X115. Y349.9 I.1 J0. F500.
N2560 X115.1 Y350. I0. J.1
N2570 X115. Y350.1 I-.1 J0.
N2580 X114.9 Y350. I0. J-.1
N2590 G1 Z-6.2 F150.
N2600 G3 X115. Y349.9 I.1 J0. F500.
N2610 X115.1 Y350. I0. J.1
N2620 X115. Y350.1 I-.1 J0.
N2630 X114.9 Y350. I0. J-.1
N2640 G0 Z-1.2
N2650 Z5.
N2660 X269.1
N2670 G1 Z-2.067 F150.
N2680 G3 X269. Y350.1 I-.1 J0. F500.
N2690 X268.9 Y350. I0. J-.1
N2700 X269. Y349.9 I.1 J0.
N2710 X269.1 Y350. I0. J.1
N2720 G1 Z-4.133 F150.
N2730 G3 X269. Y350.1 I-.1 J0. F500.
N2740 X268.9 Y350. I0. J-.1
N2750 X269. Y349.9 I.1 J0.
N2760 X269.1 Y350. I0. J.1
N2770 G1 Z-6.2 F150.
N2780 G3 X269. Y350.1 I-.1 J0. F500.
N2790 X268.9 Y350. I0. J-.1
N2800 X269. Y349.9 I.1 J0.
N2810 X269.1 Y350. I0. J.1
N2820 G0 Z-1.2
N2830 Z5.
N2840 X305.1
N2850 G1 Z-2.067 F150.
N2860 G3 X305. Y350.1 I-.1 J0. F500.
N2870 X304.9 Y350. I0. J-.1
N2880 X305. Y349.9 I.1 J0.
N2890 X305.1 Y350. I0. J.1
N2900 G1 Z-4.133 F150.
N2910 G3 X305. Y350.1 I-.1 J0. F500.
N2920 X304.9 Y350. I0. J-.1
N2930 X305. Y349.9 I.1 J0.
N2940 X305.1 Y350. I0. J.1
N2950 G1 Z-6.2 F150.
N2960 G3 X305. Y350.1 I-.1 J0. F500.
N2970 X304.9 Y350. I0. J-.1
N2980 X305. Y349.9 I.1 J0.
N2990 X305.1 Y350. I0. J.1
N3000 G0 Z5.
N3010 X92.9
N3020 G1 Z-2.067 F150.
N3030 G3 X97. Y345.9 I4.1 J0. F500.
N3040 X101.1 Y350. I0. J4.1
N3050 X97. Y354.1 I-4.1 J0.
N3060 X92.9 Y350. I0. J-4.1
N3070 G1 Z-4.133 F150.
N3080 G3 X97. Y345.9 I4.1 J0. F500.
N3090 X101.1 Y350. I0. J4.1
N3100 X97. Y354.1 I-4.1 J0.
N3110 X92.9 Y350. I0. J-4.1
N3120 G1 Z-6.2 F150.
N3130 G3 X97. Y345.9 I4.1 J0. F500.
N3140 X101.1 Y350. I0. J4.1
N3150 X97. Y354.1 I-4.1 J0.
N3160 X92.9 Y350. I0. J-4.1
N3170 G1 X92.4
N3180 G3 X97. Y345.4 I4.6 J0.
N3190 X101.6 Y350. I0. J4.6
N3200 X97. Y354.6 I-4.6 J0.
N3210 X92.4 Y350. I0. J-4.6
N3220 G0 Z-1.2
N3230 Z5.
N3240 X186.9
N3250 G1 Z-2.067 F150.
N3260 G3 X192. Y344.9 I5.1 J0. F500.
N3270 X197.1 Y350. I0. J5.1
N3280 X192. Y355.1 I-5.1 J0.
N3290 X186.9 Y350. I0. J-5.1
N3300 G1 Z-4.133 F150.
N3310 G3 X192. Y344.9 I5.1 J0. F500.
N3320 X197.1 Y350. I0. J5.1
N3330 X192. Y355.1 I-5.1 J0.
N3340 X186.9 Y350. I0. J-5.1
N3350 G1 Z-6.2 F150.
N3360 G3 X192. Y344.9 I5.1 J0. F500.
N3370 X197.1 Y350. I0. J5.1
N3380 X192. Y355.1 I-5.1 J0.
N3390 X186.9 Y350. I0. J-5.1
N3400 G1 X186.4
N3410 G3 X192. Y344.4 I5.6 J0.
N3420 X197.6 Y350. I0. J5.6
N3430 X192. Y355.6 I-5.6 J0.
N3440 X186.4 Y350. I0. J-5.6
N3450 G0 Z-1.2
N3460 Z5.
N3470 X282.9
N3480 G1 Z-2.067 F150.
N3490 G3 X287. Y345.9 I4.1 J0. F500.
N3500 X291.1 Y350. I0. J4.1
N3510 X287. Y354.1 I-4.1 J0.
N3520 X282.9 Y350. I0. J-4.1
N3530 G1 Z-4.133 F150.
N3540 G3 X287. Y345.9 I4.1 J0. F500.
N3550 X291.1 Y350. I0. J4.1
N3560 X287. Y354.1 I-4.1 J0.
N3570 X282.9 Y350. I0. J-4.1
N3580 G1 Z-6.2 F150.
N3590 G3 X287. Y345.9 I4.1 J0. F500.
N3600 X291.1 Y350. I0. J4.1
N3610 X287. Y354.1 I-4.1 J0.
N3620 X282.9 Y350. I0. J-4.1
N3630 G1 X282.4
N3640 G3 X287. Y345.4 I4.6 J0.
N3650 X291.6 Y350. I0. J4.6
N3660 X287. Y354.6 I-4.6 J0.
N3670 X282.4 Y350. I0. J-4.6
N3680 G0 Z5.
N3690 X78.875
N3700 G1 Z-1.25 F150.
N3710 G3 X79. Y349.875 I.125 J0. F500.
N3720 X79.125 Y350. I0. J.125
N3730 X79. Y350.125 I-.125 J0.
N3740 X78.875 Y350. I0. J-.125
N3750 G1 X78.15
N3760 G3 X79. Y349.15 I.85 J0.
N3770 X79.85 Y350. I0. J.85
N3780 X79. Y350.85 I-.85 J0.
N3790 X78.15 Y350. I0. J-.85
N3800 G1 X76.7
N3810 G3 X79. Y347.7 I2.3 J0.
N3820 X81.3 Y350. I0. J2.3
N3830 X79. Y352.3 I-2.3 J0.
N3840 X76.7 Y350. I0. J-2.3
N3850 G1 X78.875
N3860 Z-2.5 F150.
N3870 G3 X79. Y349.875 I.125 J0. F500.
N3880 X79.125 Y350. I0. J.125
N3890 X79. Y350.125 I-.125 J0.
N3900 X78.875 Y350. I0. J-.125
N3910 G1 X78.15
N3920 G3 X79. Y349.15 I.85 J0.
N3930 X79.85 Y350. I0. J.85
N3940 X79. Y350.85 I-.85 J0.
N3950 X78.15 Y350. I0. J-.85
N3960 G1 X76.7
N3970 G3 X79. Y347.7 I2.3 J0.
N3980 X81.3 Y350. I0. J2.3
N3990 X79. Y352.3 I-2.3 J0.
N4000 X76.7 Y350. I0. J-2.3
N4010 G1 X75.9
N4020 F150.
N4030 G3 X79. Y346.9 I3.1 J0. F500.
N4040 X82.1 Y350. I0. J3.1
N4050 X79. Y353.1 I-3.1 J0.
N4060 X75.9 Y350. I0. J-3.1
N4070 G0 Z2.5
N4080 Z5.
N4090 X114.875
N4100 G1 Z-1.25 F150.
N4110 G3 X115. Y349.875 I.125 J0. F500.
N4120 X115.125 Y350. I0. J.125
N4130 X115. Y350.125 I-.125 J0.
N4140 X114.875 Y350. I0. J-.125
N4150 G1 X114.15
N4160 G3 X115. Y349.15 I.85 J0.
N4170 X115.85 Y350. I0. J.85
N4180 X115. Y350.85 I-.85 J0.
N4190 X114.15 Y350. I0. J-.85
N4200 G1 X112.7
N4210 G3 X115. Y347.7 I2.3 J0.
N4220 X117.3 Y350. I0. J2.3
N4230 X115. Y352.3 I-2.3 J0.
N4240 X112.7 Y350. I0. J-2.3
N4250 G1 X114.875
N4260 Z-2.5 F150.
N4270 G3 X115. Y349.875 I.125 J0. F500.
N4280 X115.125 Y350. I0. J.125
N4290 X115. Y350.125 I-.125 J0.
N4300 X114.875 Y350. I0. J-.125
N4310 G1 X114.15
N4320 G3 X115. Y349.15 I.85 J0.
N4330 X115.85 Y350. I0. J.85
N4340 X115. Y350.85 I-.85 J0.
N4350 X114.15 Y350. I0. J-.85
N4360 G1 X112.7
N4370 G3 X115. Y347.7 I2.3 J0.
N4380 X117.3 Y350. I0. J2.3
N4390 X115. Y352.3 I-2.3 J0.
N4400 X112.7 Y350. I0. J-2.3
N4410 G1 X111.9
N4420 F150.
N4430 G3 X115. Y346.9 I3.1 J0. F500.
N4440 X118.1 Y350. I0. J3.1
N4450 X115. Y353.1 I-3.1 J0.
N4460 X111.9 Y350. I0. J-3.1
N4470 G0 Z2.5
N4480 Z5.
N4490 X191.9
N4500 G1 Z-1.25 F150.
N4510 G3 X192. Y349.9 I.1 J0. F500.
N4520 X192.1 Y350. I0. J.1
N4530 X192. Y350.1 I-.1 J0.
N4540 X191.9 Y350. I0. J-.1
N4550 G1 X190.45
N4560 G3 X192. Y348.45 I1.55 J0.
N4570 X193.55 Y350. I0. J1.55
N4580 X192. Y351.55 I-1.55 J0.
N4590 X190.45 Y350. I0. J-1.55
N4600 G1 X189.
N4610 G3 X192. Y347. I3. J0.
N4620 X195. Y350. I0. J3.
N4630 X192. Y353. I-3. J0.
N4640 X189. Y350. I0. J-3.
N4650 G1 X187.55
N4660 G3 X192. Y345.55 I4.45 J0.
N4670 X196.45 Y350. I0. J4.45
N4680 X192. Y354.45 I-4.45 J0.
N4690 X187.55 Y350. I0. J-4.45
N4700 G1 X186.1
N4710 G3 X192. Y344.1 I5.9 J0.
N4720 X197.9 Y350. I0. J5.9
N4730 X192. Y355.9 I-5.9 J0.
N4740 X186.1 Y350. I0. J-5.9
N4750 G1 X184.65
N4760 G3 X192. Y342.65 I7.35 J0.
N4770 X199.35 Y350. I0. J7.35
N4780 X192. Y357.35 I-7.35 J0.
N4790 X184.65 Y350. I0. J-7.35
N4800 G1 X183.2
N4810 G3 X192. Y341.2 I8.8 J0.
N4820 X200.8 Y350. I0. J8.8
N4830 X192. Y358.8 I-8.8 J0.
N4840 X183.2 Y350. I0. J-8.8
N4850 G1 X191.9
N4860 Z-2.5 F150.
N4870 G3 X192. Y349.9 I.1 J0. F500.
N4880 X192.1 Y350. I0. J.1
N4890 X192. Y350.1 I-.1 J0.
N4900 X191.9 Y350. I0. J-.1
N4910 G1 X190.45
N4920 G3 X192. Y348.45 I1.55 J0.
N4930 X193.55 Y350. I0. J1.55
N4940 X192. Y351.55 I-1.55 J0.
N4950 X190.45 Y350. I0. J-1.55
N4960 G1 X189.
N4970 G3 X192. Y347. I3. J0.
N4980 X195. Y350. I0. J3.
N4990 X192. Y353. I-3. J0.
N5000 X189. Y350. I0. J-3.
N5010 G1 X187.55
N5020 G3 X192. Y345.55 I4.45 J0.
N5030 X196.45 Y350. I0. J4.45
N5040 X192. Y354.45 I-4.45 J0.
N5050 X187.55 Y350. I0. J-4.45
N5060 G1 X186.1
N5070 G3 X192. Y344.1 I5.9 J0.
N5080 X197.9 Y350. I0. J5.9
N5090 X192. Y355.9 I-5.9 J0.
N5100 X186.1 Y350. I0. J-5.9
N5110 G1 X184.65
N5120 G3 X192. Y342.65 I7.35 J0.
N5130 X199.35 Y350. I0. J7.35
N5140 X192. Y357.35 I-7.35 J0.
N5150 X184.65 Y350. I0. J-7.35
N5160 G1 X183.2
N5170 G3 X192. Y341.2 I8.8 J0.
N5180 X200.8 Y350. I0. J8.8
N5190 X192. Y358.8 I-8.8 J0.
N5200 X183.2 Y350. I0. J-8.8
N5210 G1 X182.4
N5220 F150.
N5230 G3 X192. Y340.4 I9.6 J0. F500.
N5240 X201.6 Y350. I0. J9.6
N5250 X192. Y359.6 I-9.6 J0.
N5260 X182.4 Y350. I0. J-9.6
N5270 G0 Z2.5
N5280 Z5.
N5290 X268.875
N5300 G1 Z-1.25 F150.
N5310 G3 X269. Y349.875 I.125 J0. F500.
N5320 X269.125 Y350. I0. J.125
N5330 X269. Y350.125 I-.125 J0.
N5340 X268.875 Y350. I0. J-.125
N5350 G1 X268.15
N5360 G3 X269. Y349.15 I.85 J0.
N5370 X269.85 Y350. I0. J.85
N5380 X269. Y350.85 I-.85 J0.
N5390 X268.15 Y350. I0. J-.85
N5400 G1 X266.7
N5410 G3 X269. Y347.7 I2.3 J0.
N5420 X271.3 Y350. I0. J2.3
N5430 X269. Y352.3 I-2.3 J0.
N5440 X266.7 Y350. I0. J-2.3
N5450 G1 X268.875
N5460 Z-2.5 F150.
N5470 G3 X269. Y349.875 I.125 J0. F500.
N5480 X269.125 Y350. I0. J.125
N5490 X269. Y350.125 I-.125 J0.
N5500 X268.875 Y350. I0. J-.125
N5510 G1 X268.15
N5520 G3 X269. Y349.15 I.85 J0.
N5530 X269.85 Y350. I0. J.85
N5540 X269. Y350.85 I-.85 J0.
N5550 X268.15 Y350. I0. J-.85
N5560 G1 X266.7
N5570 G3 X269. Y347.7 I2.3 J0.
N5580 X271.3 Y350. I0. J2.3
N5590 X269. Y352.3 I-2.3 J0.
N5600 X266.7 Y350. I0. J-2.3
N5610 G1 X265.9
N5620 F150.
N5630 G3 X269. Y346.9 I3.1 J0. F500.
N5640 X272.1 Y350. I0. J3.1
N5650 X269. Y353.1 I-3.1 J0.
N5660 X265.9 Y350. I0. J-3.1
N5670 G0 Z2.5
N5680 Z5.
N5690 X304.875
N5700 G1 Z-1.25 F150.
N5710 G3 X305. Y349.875 I.125 J0. F500.
N5720 X305.125 Y350. I0. J.125
N5730 X305. Y350.125 I-.125 J0.
N5740 X304.875 Y350. I0. J-.125
N5750 G1 X304.15
N5760 G3 X305. Y349.15 I.85 J0.
N5770 X305.85 Y350. I0. J.85
N5780 X305. Y350.85 I-.85 J0.
N5790 X304.15 Y350. I0. J-.85
N5800 G1 X302.7
N5810 G3 X305. Y347.7 I2.3 J0.
N5820 X307.3 Y350. I0. J2.3
N5830 X305. Y352.3 I-2.3 J0.
N5840 X302.7 Y350. I0. J-2.3
N5850 G1 X304.875
N5860 Z-2.5 F150.
N5870 G3 X305. Y349.875 I.125 J0. F500.
N5880 X305.125 Y350. I0. J.125
N5890 X305. Y350.125 I-.125 J0.
N5900 X304.875 Y350. I0. J-.125
N5910 G1 X304.15
N5920 G3 X305. Y349.15 I.85 J0.
N5930 X305.85 Y350. I0. J.85
N5940 X305. Y350.85 I-.85 J0.
N5950 X304.15 Y350. I0. J-.85
N5960 G1 X302.7
N5970 G3 X305. Y347.7 I2.3 J0.
N5980 X307.3 Y350. I0. J2.3
N5990 X305. Y352.3 I-2.3 J0.
N6000 X302.7 Y350. I0. J-2.3
N6010 G1 X301.9
N6020 F150.
N6030 G3 X305. Y346.9 I3.1 J0. F500.
N6040 X308.1 Y350. I0. J3.1
N6050 X305. Y353.1 I-3.1 J0.
N6060 X301.9 Y350. I0. J-3.1
N6070 G0 Z5.
N6080 X1.825 Y187.191
N6090 G1 Z-2.2 F150.
N6100 X4. F500.
N6110 X10.5
N6120 G2 X11.979 Y185.942 I0. J-1.5
N6130 G3 X12.028 Y185.901 I.049 J.009
N6140 G1 X13.515
N6150 G2 X13.82 Y186.34 I1.365 J-.622
N6160 G3 X14.193 Y187.241 I-.901 J.901
N6170 X13.82 Y188.142 I-1.274 J0.
N6180 G2 X13.515 Y188.581 I1.06 J1.061
N6190 G1 X12.028
N6200 G3 X11.979 Y188.54 I0. J-.05
N6210 G2 X10.5 Y187.291 I-1.479 J.251
N6220 G1 X4.
N6230 X1.825
N6240 Y187.191
N6250 Z-4.4 F150.
N6260 X4. F500.
N6270 X10.5
N6280 G2 X11.979 Y185.942 I0. J-1.5
N6290 G3 X12.028 Y185.901 I.049 J.009
N6300 G1 X13.515
N6310 G2 X13.82 Y186.34 I1.365 J-.622
N6320 G3 X14.193 Y187.241 I-.901 J.901
N6330 X13.82 Y188.142 I-1.274 J0.
N6340 G2 X13.515 Y188.581 I1.06 J1.061
N6350 G1 X12.028
N6360 G3 X11.979 Y188.54 I0. J-.05
N6370 G2 X10.5 Y187.291 I-1.479 J.251
N6380 G1 X4.
N6390 X1.825
N6400 G0 Z.6
N6410 Z2.8
N6420 Y187.091
N6430 G1 Z-4.4 F150.
N6440 X4. F500.
N6450 X10.5
N6460 G2 X11.88 Y185.926 I0. J-1.4
N6470 G3 X12.028 Y185.801 I.148 J.025
N6480 G1 X13.578
N6490 X13.581
N6500 G2 X13.89 Y186.269 I1.299 J-.522
N6510 G3 X14.293 Y187.241 I-.971 J.972
N6520 X13.89 Y188.213 I-1.374 J0.
N6530 G2 X13.581 Y188.681 I.99 J.99
N6540 G1 X13.578
N6550 X12.028
N6560 G3 X11.88 Y188.557 I0. J-.15
N6570 G2 X10.5 Y187.391 I-1.38 J.234
N6580 G1 X4.
N6590 X1.825
N6600 G0 Z.6
N6610 Z5.
N6620 Y327.678
N6630 G1 Z-2.2 F150.
N6640 X4. F500.
N6650 X10.5
N6660 G2 X11.979 Y326.429 I0. J-1.5
N6670 G3 X12.028 Y326.388 I.049 J.009
N6680 G1 X13.515
N6690 G2 X13.82 Y326.827 I1.365 J-.622
N6700 G3 X14.193 Y327.728 I-.901 J.901
N6710 X13.82 Y328.629 I-1.274 J0.
N6720 G2 X13.515 Y329.068 I1.06 J1.061
N6730 G1 X12.028
N6740 G3 X11.979 Y329.027 I0. J-.05
N6750 G2 X10.5 Y327.778 I-1.479 J.251
N6760 G1 X4.
N6770 X1.825
N6780 Y327.678
N6790 Z-4.4 F150.
N6800 X4. F500.
N6810 X10.5
N6820 G2 X11.979 Y326.429 I0. J-1.5
N6830 G3 X12.028 Y326.388 I.049 J.009
N6840 G1 X13.515
N6850 G2 X13.82 Y326.827 I1.365 J-.622
N6860 G3 X14.193 Y327.728 I-.901 J.901
N6870 X13.82 Y328.629 I-1.274 J0.
N6880 G2 X13.515 Y329.068 I1.06 J1.061
N6890 G1 X12.028
N6900 G3 X11.979 Y329.027 I0. J-.05
N6910 G2 X10.5 Y327.778 I-1.479 J.251
N6920 G1 X4.
N6930 X1.825
N6940 G0 Z.6
N6950 Z2.8
N6960 Y327.578
N6970 G1 Z-4.4 F150.
N6980 X4. F500.
N6990 X10.5
N7000 G2 X11.88 Y326.412 I0. J-1.4
N7010 G3 X12.028 Y326.288 I.148 J.026
N7020 G1 X13.578
N7030 X13.581
N7040 G2 X13.89 Y326.756 I1.299 J-.522
N7050 G3 X14.293 Y327.728 I-.971 J.972
N7060 X13.89 Y328.7 I-1.374 J0.
N7070 G2 X13.581 Y329.168 I.99 J.99
N7080 G1 X13.578
N7090 X12.028
N7100 G3 X11.88 Y329.043 I0. J-.15
N7110 G2 X10.5 Y327.878 I-1.38 J.235
N7120 G1 X4.
N7130 X1.825
N7140 G0 Z.6
N7150 Z5.
N7160 X55.598 Y373.175
N7170 G1 Z-2.2 F150.
N7180 Y371. F500.
N7190 Y364.5
N7200 G2 X54.349 Y363.021 I-1.5 J0.
N7210 G3 X54.308 Y362.972 I.009 J-.049
N7220 G1 Y361.485
N7230 G2 X54.747 Y361.18 I-.622 J-1.365
N7240 G3 X55.648 Y360.807 I.901 J.901
N7250 X56.55 Y361.18 I0. J1.274
N7260 G2 X56.988 Y361.485 I1.06 J-1.06
N7270 G1 Y362.972
N7280 G3 X56.947 Y363.021 I-.05 J0.
N7290 G2 X55.698 Y364.5 I.251 J1.479
N7300 G1 Y371.
N7310 Y373.175
N7320 X55.598
N7330 Z-4.4 F150.
N7340 Y371. F500.
N7350 Y364.5
N7360 G2 X54.349 Y363.021 I-1.5 J0.
N7370 G3 X54.308 Y362.972 I.009 J-.049
N7380 G1 Y361.485
N7390 G2 X54.747 Y361.18 I-.622 J-1.365
N7400 G3 X55.648 Y360.807 I.901 J.901
N7410 X56.55 Y361.18 I0. J1.274
N7420 G2 X56.988 Y361.485 I1.06 J-1.06
N7430 G1 Y362.972
N7440 G3 X56.947 Y363.021 I-.05 J0.
N7450 G2 X55.698 Y364.5 I.251 J1.479
N7460 G1 Y371.
N7470 Y373.175
N7480 G0 Z.6
N7490 Z2.8
N7500 X55.498
N7510 G1 Z-4.4 F150.
N7520 Y371. F500.
N7530 Y364.5
N7540 G2 X54.333 Y363.12 I-1.4 J0.
N7550 G3 X54.208 Y362.972 I.025 J-.148
N7560 G1 Y361.422
N7570 Y361.419
N7580 G2 X54.676 Y361.11 I-.522 J-1.299
N7590 G3 X55.648 Y360.707 I.972 J.971
N7600 X56.62 Y361.11 I0. J1.374
N7610 G2 X57.088 Y361.419 I.99 J-.99
N7620 G1 Y361.422
N7630 Y362.972
N7640 G3 X56.964 Y363.12 I-.15 J0.
N7650 G2 X55.798 Y364.5 I.234 J1.38
N7660 G1 Y371.
N7670 Y373.175
N7680 G0 Z.6
N7690 Z5.
N7700 X328.302
N7710 G1 Z-2.2 F150.
N7720 Y371. F500.
N7730 Y364.5
N7740 G2 X327.053 Y363.021 I-1.5 J0.
N7750 G3 X327.012 Y362.972 I.009 J-.049
N7760 G1 Y361.485
N7770 G2 X327.45 Y361.18 I-.622 J-1.365
N7780 G3 X328.352 Y360.806 I.902 J.901
N7790 X329.253 Y361.18 I0. J1.275
N7800 G2 X329.692 Y361.485 I1.061 J-1.06
N7810 G1 Y362.972
N7820 G3 X329.651 Y363.021 I-.05 J0.
N7830 G2 X328.402 Y364.5 I.251 J1.479
N7840 G1 Y371.
N7850 Y373.175
N7860 X328.302
N7870 Z-4.4 F150.
N7880 Y371. F500.
N7890 Y364.5
N7900 G2 X327.053 Y363.021 I-1.5 J0.
N7910 G3 X327.012 Y362.972 I.009 J-.049
N7920 G1 Y361.485
N7930 G2 X327.45 Y361.18 I-.622 J-1.365
N7940 G3 X328.352 Y360.806 I.902 J.901
N7950 X329.253 Y361.18 I0. J1.275
N7960 G2 X329.692 Y361.485 I1.061 J-1.06
N7970 G1 Y362.972
N7980 G3 X329.651 Y363.021 I-.05 J0.
N7990 G2 X328.402 Y364.5 I.251 J1.479
N8000 G1 Y371.
N8010 Y373.175
N8020 G0 Z.6
N8030 Z2.8
N8040 X328.202
N8050 G1 Z-4.4 F150.
N8060 Y371. F500.
N8070 Y364.5
N8080 G2 X327.036 Y363.12 I-1.4 J0.
N8090 G3 X326.912 Y362.972 I.026 J-.148
N8100 G1 Y361.422
N8110 Y361.419
N8120 G2 X327.38 Y361.11 I-.522 J-1.299
N8130 G3 X328.352 Y360.707 I.972 J.971
N8140 X329.324 Y361.11 I0. J1.374
N8150 G2 X329.792 Y361.419 I.99 J-.99
N8160 G1 Y361.422
N8170 Y362.972
N8180 G3 X329.667 Y363.12 I-.15 J0.
N8190 G2 X328.502 Y364.5 I.235 J1.38
N8200 G1 Y371.
N8210 Y373.175
N8220 G0 Z.6
N8230 Z5.
N8240 X382.175 Y187.456
N8250 G1 Z-2.2 F150.
N8260 X380. F500.
N8270 X373.5
N8280 G2 X372.021 Y188.704 I0. J1.5
N8290 G3 X371.972 Y188.746 I-.049 J-.008
N8300 G1 X370.485
N8310 G2 X370.18 Y188.307 I-1.365 J.622
N8320 G3 X369.807 Y187.406 I.901 J-.901
N8330 X370.18 Y186.504 I1.274 J0.
N8340 G2 X370.485 Y186.065 I-1.06 J-1.061
N8350 G1 X371.972
N8360 G3 X372.021 Y186.107 I0. J.05
N8370 G2 X373.5 Y187.356 I1.479 J-.251
N8380 G1 X380.
N8390 X382.175
N8400 Y187.456
N8410 Z-4.4 F150.
N8420 X380. F500.
N8430 X373.5
N8440 G2 X372.021 Y188.704 I0. J1.5
N8450 G3 X371.972 Y188.746 I-.049 J-.008
N8460 G1 X370.485
N8470 G2 X370.18 Y188.307 I-1.365 J.622
N8480 G3 X369.807 Y187.406 I.901 J-.901
N8490 X370.18 Y186.504 I1.274 J0.
N8500 G2 X370.485 Y186.065 I-1.06 J-1.061
N8510 G1 X371.972
N8520 G3 X372.021 Y186.107 I0. J.05
N8530 G2 X373.5 Y187.356 I1.479 J-.251
N8540 G1 X380.
N8550 X382.175
N8560 G0 Z.6
N8570 Z2.8
N8580 Y187.556
N8590 G1 Z-4.4 F150.
N8600 X380. F500.
N8610 X373.5
N8620 G2 X372.12 Y188.721 I0. J1.4
N8630 G3 X371.972 Y188.846 I-.148 J-.025
N8640 G1 X370.422
N8650 X370.419
N8660 G2 X370.11 Y188.378 I-1.299 J.522
N8670 G3 X369.707 Y187.406 I.971 J-.972
N8680 X370.11 Y186.434 I1.374 J0.
N8690 G2 X370.419 Y185.965 I-.99 J-.991
N8700 G1 X370.422
N8710 X371.972
N8720 G3 X372.12 Y186.09 I0. J.15
N8730 G2 X373.5 Y187.256 I1.38 J-.234
N8740 G1 X380.
N8750 X382.175
N8760 G0 Z.6
N8770 Z5.
N8780 Y46.96
N8790 G1 Z-2.2 F150.
N8800 X380. F500.
N8810 X373.5
N8820 G2 X372.021 Y48.209 I0. J1.5
N8830 G3 X371.972 Y48.25 I-.049 J-.009
N8840 G1 X370.485
N8850 G2 X370.18 Y47.811 I-1.365 J.622
N8860 G3 X369.807 Y46.91 I.901 J-.901
N8870 X370.18 Y46.009 I1.274 J0.
N8880 G2 X370.485 Y45.57 I-1.06 J-1.061
N8890 G1 X371.972
N8900 G3 X372.021 Y45.611 I0. J.05
N8910 G2 X373.5 Y46.86 I1.479 J-.251
N8920 G1 X380.
N8930 X382.175
N8940 Y46.96
N8950 Z-4.4 F150.
N8960 X380. F500.
N8970 X373.5
N8980 G2 X372.021 Y48.209 I0. J1.5
N8990 G3 X371.972 Y48.25 I-.049 J-.009
N9000 G1 X370.485
N9010 G2 X370.18 Y47.811 I-1.365 J.622
N9020 G3 X369.807 Y46.91 I.901 J-.901
N9030 X370.18 Y46.009 I1.274 J0.
N9040 G2 X370.485 Y45.57 I-1.06 J-1.061
N9050 G1 X371.972
N9060 G3 X372.021 Y45.611 I0. J.05
N9070 G2 X373.5 Y46.86 I1.479 J-.251
N9080 G1 X380.
N9090 X382.175
N9100 G0 Z.6
N9110 Z2.8
N9120 Y47.06
N9130 G1 Z-4.4 F150.
N9140 X380. F500.
N9150 X373.5
N9160 G2 X372.12 Y48.225 I0. J1.4
N9170 G3 X371.972 Y48.35 I-.148 J-.025
N9180 G1 X370.422
N9190 X370.419
N9200 G2 X370.11 Y47.882 I-1.299 J.522
N9210 G3 X369.707 Y46.91 I.971 J-.972
N9220 X370.11 Y45.938 I1.374 J0.
N9230 G2 X370.419 Y45.47 I-.99 J-.99
N9240 G1 X370.422
N9250 X371.972
N9260 G3 X372.12 Y45.595 I0. J.15
N9270 G2 X373.5 Y46.76 I1.38 J-.235
N9280 G1 X380.
N9290 X382.175
N9300 G0 Z.6
N9310 Z5.
N9320 X259.049 Y1.825
N9330 G1 Z-2.2 F150.
N9340 Y4. F500.
N9350 Y10.5
N9360 G2 X260.298 Y11.979 I1.5 J0.
N9370 G3 X260.34 Y12.028 I-.008 J.049
N9380 G1 Y13.515
N9390 G2 X259.901 Y13.82 I.622 J1.365
N9400 G3 X258.999 Y14.194 I-.902 J-.901
N9410 X258.098 Y13.82 I0. J-1.275
N9420 G2 X257.659 Y13.515 I-1.061 J1.06
N9430 G1 Y12.028
N9440 G3 X257.701 Y11.979 I.05 J0.
N9450 G2 X258.949 Y10.5 I-.252 J-1.479
N9460 G1 Y4.
N9470 Y1.825
N9480 X259.049
N9490 Z-4.4 F150.
N9500 Y4. F500.
N9510 Y10.5
N9520 G2 X260.298 Y11.979 I1.5 J0.
N9530 G3 X260.34 Y12.028 I-.008 J.049
N9540 G1 Y13.515
N9550 G2 X259.901 Y13.82 I.622 J1.365
N9560 G3 X258.999 Y14.194 I-.902 J-.901
N9570 X258.098 Y13.82 I0. J-1.275
N9580 G2 X257.659 Y13.515 I-1.061 J1.06
N9590 G1 Y12.028
N9600 G3 X257.701 Y11.979 I.05 J0.
N9610 G2 X258.949 Y10.5 I-.252 J-1.479
N9620 G1 Y4.
N9630 Y1.825
N9640 G0 Z.6
N9650 Z2.8
N9660 X259.149
N9670 G1 Z-4.4 F150.
N9680 Y4. F500.
N9690 Y10.5
N9700 G2 X260.315 Y11.88 I1.4 J0.
N9710 G3 X260.44 Y12.028 I-.025 J.148
N9720 G1 Y13.578
N9730 Y13.581
N9740 G2 X259.971 Y13.89 I.522 J1.299
N9750 G3 X258.999 Y14.293 I-.972 J-.971
N9760 X258.027 Y13.89 I0. J-1.374
N9770 G2 X257.559 Y13.581 I-.99 J.99
N9780 G1 Y13.578
N9790 Y12.028
N9800 G3 X257.684 Y11.88 I.15 J0.
N9810 G2 X258.849 Y10.5 I-.235 J-1.38
N9820 G1 Y4.
N9830 Y1.825
N9840 G0 Z.6
N9850 Z5.
N9860 X55.698
N9870 G1 Z-2.2 F150.
N9880 Y4. F500.
N9890 Y10.5
N9900 G2 X56.947 Y11.979 I1.5 J0.
N9910 G3 X56.988 Y12.028 I-.009 J.049
N9920 G1 Y13.515
N9930 G2 X56.55 Y13.82 I.622 J1.365
N9940 G3 X55.648 Y14.194 I-.902 J-.901
N9950 X54.747 Y13.82 I0. J-1.275
N9960 G2 X54.308 Y13.515 I-1.061 J1.06
N9970 G1 Y12.028
N9980 G3 X54.349 Y11.979 I.05 J0.
N9990 G2 X55.598 Y10.5 I-.251 J-1.479
N100 G1 Y4.
N110 Y1.825
N120 X55.698
N130 Z-4.4 F150.
N140 Y4. F500.
N150 Y10.5
N160 G2 X56.947 Y11.979 I1.5 J0.
N170 G3 X56.988 Y12.028 I-.009 J.049
N180 G1 Y13.515
N190 G2 X56.55 Y13.82 I.622 J1.365
N200 G3 X55.648 Y14.194 I-.902 J-.901
N210 X54.747 Y13.82 I0. J-1.275
N220 G2 X54.308 Y13.515 I-1.061 J1.06
N230 G1 Y12.028
N240 G3 X54.349 Y11.979 I.05 J0.
N250 G2 X55.598 Y10.5 I-.251 J-1.479
N260 G1 Y4.
N270 Y1.825
N280 G0 Z.6
N290 Z2.8
N300 X55.798
N310 G1 Z-4.4 F150.
N320 Y4. F500.
N330 Y10.5
N340 G2 X56.964 Y11.88 I1.4 J0.
N350 G3 X57.088 Y12.028 I-.026 J.148
N360 G1 Y13.578
N370 Y13.581
N380 G2 X56.62 Y13.89 I.522 J1.299
N390 G3 X55.648 Y14.293 I-.972 J-.971
N400 X54.676 Y13.89 I0. J-1.374
N410 G2 X54.208 Y13.581 I-.99 J.99
N420 G1 Y13.578
N430 Y12.028
N440 G3 X54.333 Y11.88 I.15 J0.
N450 G2 X55.498 Y10.5 I-.235 J-1.38
N460 G1 Y4.
N470 Y1.825
N480 G0 Z.6
N490 Z5.
N500 X1.825 Y46.686
N510 G1 Z-2.2 F150.
N520 X4. F500.
N530 X10.5
N540 G2 X11.979 Y45.438 I0. J-1.5
N550 G3 X12.028 Y45.396 I.049 J.008
N560 G1 X13.515
N570 G2 X13.82 Y45.835 I1.365 J-.622
N580 G3 X14.193 Y46.736 I-.901 J.901
N590 X13.82 Y47.638 I-1.274 J0.
N600 G2 X13.515 Y48.077 I1.06 J1.061
N610 G1 X12.028
N620 G3 X11.979 Y48.035 I0. J-.05
N630 G2 X10.5 Y46.786 I-1.479 J.251
N640 G1 X4.
N650 X1.825
N660 Y46.686
N670 Z-4.4 F150.
N680 X4. F500.
N690 X10.5
N700 G2 X11.979 Y45.438 I0. J-1.5
N710 G3 X12.028 Y45.396 I.049 J.008
N720 G1 X13.515
N730 G2 X13.82 Y45.835 I1.365 J-.622
N740 G3 X14.193 Y46.736 I-.901 J.901
N750 X13.82 Y47.638 I-1.274 J0.
N760 G2 X13.515 Y48.077 I1.06 J1.061
N770 G1 X12.028
N780 G3 X11.979 Y48.035 I0. J-.05
N790 G2 X10.5 Y46.786 I-1.479 J.251
N800 G1 X4.
N810 X1.825
N820 G0 Z.6
N830 Z2.8
N840 Y46.586
N850 G1 Z-4.4 F150.
N860 X4. F500.
N870 X10.5
N880 G2 X11.88 Y45.421 I0. J-1.4
N890 G3 X12.028 Y45.296 I.148 J.025
N900 G1 X13.578
N910 X13.581
N920 G2 X13.89 Y45.764 I1.299 J-.522
N930 G3 X14.293 Y46.736 I-.971 J.972
N940 X13.89 Y47.709 I-1.374 J0.
N950 G2 X13.581 Y48.177 I.99 J.99
N960 G1 X13.578
N970 X12.028
N980 G3 X11.88 Y48.052 I0. J-.15
N990 G2 X10.5 Y46.886 I-1.38 J.234
N1000 G1 X4.
N1010 X1.825
N1020 G0 Z.6
N1030 Z5.
N1040 X382.175 Y327.959
N1050 G1 Z-2.2 F150.
N1060 X380. F500.
N1070 X373.5
N1080 G2 X372.021 Y329.208 I0. J1.5
N1090 G3 X371.972 Y329.25 I-.049 J-.008
N1100 G1 X370.485
N1110 G2 X370.18 Y328.811 I-1.365 J.622
N1120 G3 X369.806 Y327.909 I.901 J-.902
N1130 X370.18 Y327.008 I1.275 J0.
N1140 G2 X370.485 Y326.569 I-1.06 J-1.061
N1150 G1 X371.972
N1160 G3 X372.021 Y326.611 I0. J.05
N1170 G2 X373.5 Y327.859 I1.479 J-.252
N1180 G1 X380.
N1190 X382.175
N1200 Y327.959
N1210 Z-4.4 F150.
N1220 X380. F500.
N1230 X373.5
N1240 G2 X372.021 Y329.208 I0. J1.5
N1250 G3 X371.972 Y329.25 I-.049 J-.008
N1260 G1 X370.485
N1270 G2 X370.18 Y328.811 I-1.365 J.622
N1280 G3 X369.806 Y327.909 I.901 J-.902
N1290 X370.18 Y327.008 I1.275 J0.
N1300 G2 X370.485 Y326.569 I-1.06 J-1.061
N1310 G1 X371.972
N1320 G3 X372.021 Y326.611 I0. J.05
N1330 G2 X373.5 Y327.859 I1.479 J-.252
N1340 G1 X380.
N1350 X382.175
N1360 G0 Z.6
N1370 Z2.8
N1380 Y328.059
N1390 G1 Z-4.4 F150.
N1400 X380. F500.
N1410 X373.5
N1420 G2 X372.12 Y329.225 I0. J1.4
N1430 G3 X371.972 Y329.35 I-.148 J-.025
N1440 G1 X370.422
N1450 X370.419
N1460 G2 X370.11 Y328.881 I-1.299 J.522
N1470 G3 X369.707 Y327.909 I.971 J-.972
N1480 X370.11 Y326.937 I1.374 J0.
N1490 G2 X370.419 Y326.469 I-.99 J-.99
N1500 G1 X370.422
N1510 X371.972
N1520 G3 X372.12 Y326.594 I0. J.15
N1530 G2 X373.5 Y327.759 I1.38 J-.235
N1540 G1 X380.
N1550 X382.175
N1560 G0 Z5.
N1570 X381.9 Y64.9
N1580 G1 Z-2.067 F150.
N1590 X384.5 F500.
N1600 G3 X386.4 Y66.8 I0. J1.9
N1610 G1 Y76.8
N1620 G3 X384.5 Y78.7 I-1.9 J0.
N1630 G1 X381.9
N1640 Y155.6
N1650 X384.5
N1660 G3 X386.4 Y157.5 I0. J1.9
N1670 G1 Y167.5
N1680 G3 X384.5 Y169.4 I-1.9 J0.
N1690 G1 X381.9
N1700 Y205.6
N1710 X384.5
N1720 G3 X386.4 Y207.5 I0. J1.9
N1730 G1 Y217.5
N1740 G3 X384.5 Y219.4 I-1.9 J0.
N1750 G1 X381.9
N1760 Y296.3
N1770 X384.5
N1780 G3 X386.4 Y298.2 I0. J1.9
N1790 G1 Y308.2
N1800 G3 X384.5 Y310.1 I-1.9 J0.
N1810 G1 X381.9
N1820 Y354.5
N1830 G3 X380. Y356.4 I-1.9 J0.
N1840 G2 X365.4 Y371. I0. J14.6
N1850 G3 X363.5 Y372.9 I-1.9 J0.
N1860 G1 X314.4
N1870 Y375.5
N1880 G3 X312.5 Y377.4 I-1.9 J0.
N1890 G1 X302.5
N1900 G3 X300.6 Y375.5 I0. J-1.9
N1910 G1 Y372.9
N1920 X223.9
N1930 Y375.5
N1940 G3 X222. Y377.4 I-1.9 J0.
N1950 G1 X212.
N1960 G3 X210.1 Y375.5 I0. J-1.9
N1970 G1 Y372.9
N1980 X173.9
N1990 Y375.5
N2000 G3 X172. Y377.4 I-1.9 J0.
N2010 G1 X162.
N2020 G3 X160.1 Y375.5 I0. J-1.9
N2030 G1 Y372.9
N2040 X83.4
N2050 Y375.5
N2060 G3 X81.5 Y377.4 I-1.9 J0.
N2070 G1 X71.5
N2080 G3 X69.6 Y375.5 I0. J-1.9
N2090 G1 Y372.9
N2100 X20.5
N2110 G3 X18.6 Y371. I0. J-1.9
N2120 G2 X4. Y356.4 I-14.6 J0.
N2130 G3 X2.1 Y354.5 I0. J-1.9
N2140 G1 Y310.1
N2150 X-.5
N2160 G3 X-2.4 Y308.2 I0. J-1.9
N2170 G1 Y298.2
N2180 G3 X-.5 Y296.3 I1.9 J0.
N2190 G1 X2.1
N2200 Y219.4
N2210 X-.5
N2220 G3 X-2.4 Y217.5 I0. J-1.9
N2230 G1 Y207.5
N2240 G3 X-.5 Y205.6 I1.9 J0.
N2250 G1 X2.1
N2260 Y169.4
N2270 X-.5
N2280 G3 X-2.4 Y167.5 I0. J-1.9
N2290 G1 Y157.5
N2300 G3 X-.5 Y155.6 I1.9 J0.
N2310 G1 X2.1
N2320 Y78.7
N2330 X-.5
N2340 G3 X-2.4 Y76.8 I0. J-1.9
N2350 G1 Y66.8
N2360 G3 X-.5 Y64.9 I1.9 J0.
N2370 G1 X2.1
N2380 Y16.
N2390 G3 X4. Y14.1 I1.9 J0.
N2400 G1 X14.1
N2410 Y4.
N2420 G3 X16. Y2.1 I1.9 J0.
N2430 G1 X69.6
N2440 Y-.5
N2450 G3 X71.5 Y-2.4 I1.9 J0.
N2460 G1 X81.5
N2470 G3 X83.4 Y-.5 I0. J1.9
N2480 G1 Y2.1
N2490 X265.6
N2500 Y-.5
N2510 G3 X267.5 Y-2.4 I1.9 J0.
N2520 G1 X277.5
N2530 G3 X279.4 Y-.5 I0. J1.9
N2540 G1 Y2.1
N2550 X285.
N2560 G3 X286.9 Y4. I0. J1.9
N2570 G1 Y27.1
N2580 X380.
N2590 G3 X381.9 Y29. I0. J1.9
N2600 G1 Y64.9
N2610 Z-4.133 F150.
N2620 X384.5 F500.
N2630 G3 X386.4 Y66.8 I0. J1.9
N2640 G1 Y76.8
N2650 G3 X384.5 Y78.7 I-1.9 J0.
N2660 G1 X381.9
N2670 Y155.6
N2680 X384.5
N2690 G3 X386.4 Y157.5 I0. J1.9
N2700 G1 Y167.5
N2710 G3 X384.5 Y169.4 I-1.9 J0.
N2720 G1 X381.9
N2730 Y205.6
N2740 X384.5
N2750 G3 X386.4 Y207.5 I0. J1.9
N2760 G1 Y217.5
N2770 G3 X384.5 Y219.4 I-1.9 J0.
N2780 G1 X381.9
N2790 Y296.3
N2800 X384.5
N2810 G3 X386.4 Y298.2 I0. J1.9
N2820 G1 Y308.2
N2830 G3 X384.5 Y310.1 I-1.9 J0.
N2840 G1 X381.9
N2850 Y354.5
N2860 G3 X380. Y356.4 I-1.9 J0.
N2870 G2 X365.4 Y371. I0. J14.6
N2880 G3 X363.5 Y372.9 I-1.9 J0.
N2890 G1 X314.4
N2900 Y375.5
N2910 G3 X312.5 Y377.4 I-1.9 J0.
N2920 G1 X302.5
N2930 G3 X300.6 Y375.5 I0. J-1.9
N2940 G1 Y372.9
N2950 X223.9
N2960 Y375.5
N2970 G3 X222. Y377.4 I-1.9 J0.
N2980 G1 X212.
N2990 G3 X210.1 Y375.5 I0. J-1.9
N3000 G1 Y372.9
N3010 X173.9
N3020 Y375.5
N3030 G3 X172. Y377.4 I-1.9 J0.
N3040 G1 X162.
N3050 G3 X160.1 Y375.5 I0. J-1.9
N3060 G1 Y372.9
N3070 X83.4
N3080 Y375.5
N3090 G3 X81.5 Y377.4 I-1.9 J0.
N3100 G1 X71.5
N3110 G3 X69.6 Y375.5 I0. J-1.9
N3120 G1 Y372.9
N3130 X20.5
N3140 G3 X18.6 Y371. I0. J-1.9
N3150 G2 X4. Y356.4 I-14.6 J0.
N3160 G3 X2.1 Y354.5 I0. J-1.9
N3170 G1 Y310.1
N3180 X-.5
N3190 G3 X-2.4 Y308.2 I0. J-1.9
N3200 G1 Y298.2
N3210 G3 X-.5 Y296.3 I1.9 J0.
N3220 G1 X2.1
N3230 Y219.4
N3240 X-.5
N3250 G3 X-2.4 Y217.5 I0. J-1.9
N3260 G1 Y207.5
N3270 G3 X-.5 Y205.6 I1.9 J0.
N3280 G1 X2.1
N3290 Y169.4
N3300 X-.5
N3310 G3 X-2.4 Y167.5 I0. J-1.9
N3320 G1 Y157.5
N3330 G3 X-.5 Y155.6 I1.9 J0.
N3340 G1 X2.1
N3350 Y78.7
N3360 X-.5
N3370 G3 X-2.4 Y76.8 I0. J-1.9
N3380 G1 Y66.8
N3390 G3 X-.5 Y64.9 I1.9 J0.
N3400 G1 X2.1
N3410 Y16.
N3420 G3 X4. Y14.1 I1.9 J0.
N3430 G1 X14.1
N3440 Y4.
N3450 G3 X16. Y2.1 I1.9 J0.
N3460 G1 X69.6
N3470 Y-.5
N3480 G3 X71.5 Y-2.4 I1.9 J0.
N3490 G1 X81.5
N3500 G3 X83.4 Y-.5 I0. J1.9
N3510 G1 Y2.1
N3520 X265.6
N3530 Y-.5
N3540 G3 X267.5 Y-2.4 I1.9 J0.
N3550 G1 X277.5
N3560 G3 X279.4 Y-.5 I0. J1.9
N3570 G1 Y2.1
N3580 X285.
N3590 G3 X286.9 Y4. I0. J1.9
N3600 G1 Y27.1
N3610 X380.
N3620 G3 X381.9 Y29. I0. J1.9
N3630 G1 Y64.9
N3640 Z-6.2 F150.
N3650 X384.5 F500.
N3660 G3 X386.4 Y66.8 I0. J1.9
N3670 G1 Y76.8
N3680 G3 X384.5 Y78.7 I-1.9 J0.
N3690 G1 X381.9
N3700 Y155.6
N3710 X384.5
N3720 G3 X386.4 Y157.5 I0. J1.9
N3730 G1 Y167.5
N3740 G3 X384.5 Y169.4 I-1.9 J0.
N3750 G1 X381.9
N3760 Y170.503
N3770 Y172.203 Z-4.5
N3780 Y191.703
N3790 Y193.403 Z-6.2
N3800 Y205.6
N3810 X384.5
N3820 G3 X386.4 Y207.5 I0. J1.9
N3830 G1 Y217.5
N3840 G3 X384.5 Y219.4 I-1.9 J0.
N3850 G1 X381.9
N3860 Y296.3
N3870 X384.5
N3880 G3 X386.4 Y298.2 I0. J1.9
N3890 G1 Y308.2
N3900 G3 X384.5 Y310.1 I-1.9 J0.
N3910 G1 X381.9
N3920 Y354.5
N3930 G3 X380. Y356.4 I-1.9 J0.
N3940 G2 X365.4 Y371. I0. J14.6
N3950 G3 X363.5 Y372.9 I-1.9 J0.
N3960 G1 X325.85
N3970 X324.15 Z-4.5
N3980 X314.4
N3990 Y375.5
N4000 G3 X312.5 Y377.4 I-1.9 J0.
N4010 G1 X308.335
N4020 X306.635 Z-6.2
N4030 X302.5
N4040 G3 X300.6 Y375.5 I0. J-1.9
N4050 G1 Y372.9
N4060 X223.9
N4070 Y375.5
N4080 G3 X222. Y377.4 I-1.9 J0.
N4090 G1 X212.
N4100 G3 X210.1 Y375.5 I0. J-1.9
N4110 G1 Y372.9
N4120 X173.9
N4130 Y375.5
N4140 G3 X172. Y377.4 I-1.9 J0.
N4150 G1 X162.
N4160 G3 X160.1 Y375.5 I0. J-1.9
N4170 G1 Y372.9
N4180 X86.619
N4190 X84.919 Z-4.5
N4200 X83.4
N4210 Y375.5
N4220 G3 X81.5 Y377.4 I-1.9 J0.
N4230 G1 X71.5
N4240 G3 X69.69 Y376.078 I0. J-1.9
N4250 X69.6 Y375.5 Z-5.088 I1.81 J-.578
N4260 G1 Y374.388 Z-6.2
N4270 Y372.9
N4280 X20.5
N4290 G3 X18.6 Y371. I0. J-1.9
N4300 G2 X4. Y356.4 I-14.6 J0.
N4310 G3 X2.1 Y354.5 I0. J-1.9
N4320 G1 Y310.1
N4330 X-.5
N4340 G3 X-2.4 Y308.2 I0. J-1.9
N4350 G1 Y298.2
N4360 G3 X-.5 Y296.3 I1.9 J0.
N4370 G1 X2.1
N4380 Y219.4
N4390 X-.5
N4400 G3 X-2.4 Y217.5 I0. J-1.9
N4410 G1 Y207.5
N4420 G3 X-.5 Y205.6 I1.9 J0.
N4430 G1 X1.285
N4440 X2.1 Z-5.385
N4450 Y204.715 Z-4.5
N4460 Y185.215
N4470 Y183.515 Z-6.2
N4480 Y169.4
N4490 X-.5
N4500 G3 X-2.4 Y167.5 I0. J-1.9
N4510 G1 Y157.5
N4520 G3 X-.5 Y155.6 I1.9 J0.
N4530 G1 X2.1
N4540 Y78.7
N4550 X-.5
N4560 G3 X-2.4 Y76.8 I0. J-1.9
N4570 G1 Y66.8
N4580 G3 X-.5 Y64.9 I1.9 J0.
N4590 G1 X2.1
N4600 Y16.
N4610 G3 X4. Y14.1 I1.9 J0.
N4620 G1 X14.1
N4630 Y4.
N4640 G3 X16. Y2.1 I1.9 J0.
N4650 G1 X49.891
N4660 X51.591 Z-4.5
N4670 X69.6
N4680 Y.609
N4690 Y-.5 Z-5.609
N4700 G3 X69.691 Y-1.081 Z-6.2 I1.9 J0.
N4710 X71.5 Y-2.4 I1.809 J.581
N4720 G1 X81.5
N4730 G3 X83.4 Y-.5 I0. J1.9
N4740 G1 Y2.1
N4750 X265.6
N4760 Y-.5
N4770 G3 X267.5 Y-2.4 I1.9 J0.
N4780 G1 X277.5
N4790 G3 X279.4 Y-.5 I0. J1.9
N4800 G1 Y2.1
N4810 X285.
N4820 G3 X286.9 Y4. I0. J1.9
N4830 G1 Y15.65
N4840 Y17.35 Z-4.5
N4850 Y27.1
N4860 X296.65
N4870 X298.35 Z-6.2
N4880 X380.
N4890 G3 X381.9 Y29. I0. J1.9
N4900 G1 Y64.9
N4910 X381.4 Y65.4
N4920 X384.5
N4930 G3 X385.9 Y66.8 I0. J1.4
N4940 G1 Y76.8
N4950 G3 X384.5 Y78.2 I-1.4 J0.
N4960 G1 X381.4
N4970 Y156.1
N4980 X384.5
N4990 G3 X385.9 Y157.5 I0. J1.4
N5000 G1 Y167.5
N5010 G3 X384.5 Y168.9 I-1.4 J0.
N5020 G1 X381.4
N5030 Y170.503
N5040 Y172.203 Z-4.5
N5050 Y191.703
N5060 Y193.403 Z-6.2
N5070 Y206.1
N5080 X384.5
N5090 G3 X385.9 Y207.5 I0. J1.4
N5100 G1 Y217.5
N5110 G3 X384.5 Y218.9 I-1.4 J0.
N5120 G1 X381.4
N5130 Y296.8
N5140 X384.5
N5150 G3 X385.9 Y298.2 I0. J1.4
N5160 G1 Y308.2
N5170 G3 X384.5 Y309.6 I-1.4 J0.
N5180 G1 X381.4
N5190 Y354.5
N5200 G3 X380. Y355.9 I-1.4 J0.
N5210 G2 X364.9 Y371. I0. J15.1
N5220 G3 X363.5 Y372.4 I-1.4 J0.
N5230 G1 X325.35
N5240 X323.65 Z-4.5
N5250 X313.9
N5260 Y375.5
N5270 G3 X312.5 Y376.9 I-1.4 J0.
N5280 G1 X308.049
N5290 X306.349 Z-6.2
N5300 X302.5
N5310 G3 X301.1 Y375.5 I0. J-1.4
N5320 G1 Y372.4
N5330 X223.4
N5340 Y375.5
N5350 G3 X222. Y376.9 I-1.4 J0.
N5360 G1 X212.
N5370 G3 X210.6 Y375.5 I0. J-1.4
N5380 G1 Y372.4
N5390 X173.4
N5400 Y375.5
N5410 G3 X172. Y376.9 I-1.4 J0.
N5420 G1 X162.
N5430 G3 X160.6 Y375.5 I0. J-1.4
N5440 G1 Y372.4
N5450 X86.404
N5460 X84.704 Z-4.5
N5470 X82.9
N5480 Y375.5
N5490 G3 X81.5 Y376.9 I-1.4 J0.
N5500 G1 X71.5
N5510 G3 X70.1 Y375.5 I0. J-1.4
N5520 G1 Y375.302
N5530 Y373.602 Z-6.2
N5540 Y372.4
N5550 X20.5
N5560 G3 X19.1 Y371. I0. J-1.4
N5570 G2 X4. Y355.9 I-15.1 J0.
N5580 G3 X2.6 Y354.5 I0. J-1.4
N5590 G1 Y309.6
N5600 X-.5
N5610 G3 X-1.9 Y308.2 I0. J-1.4
N5620 G1 Y298.2
N5630 G3 X-.5 Y296.8 I1.4 J0.
N5640 G1 X2.6
N5650 Y218.9
N5660 X-.5
N5670 G3 X-1.9 Y217.5 I0. J-1.4
N5680 G1 Y207.5
N5690 G3 X-.5 Y206.1 I1.4 J0.
N5700 G1 X2.285
N5710 X2.6 Z-5.885
N5720 Y204.715 Z-4.5
N5730 Y185.215
N5740 Y183.515 Z-6.2
N5750 Y168.9
N5760 X-.5
N5770 G3 X-1.9 Y167.5 I0. J-1.4
N5780 G1 Y157.5
N5790 G3 X-.5 Y156.1 I1.4 J0.
N5800 G1 X2.6
N5810 Y78.2
N5820 X-.5
N5830 G3 X-1.9 Y76.8 I0. J-1.4
N5840 G1 Y66.8
N5850 G3 X-.5 Y65.4 I1.4 J0.
N5860 G1 X2.6
N5870 Y16.
N5880 G3 X4. Y14.6 I1.4 J0.
N5890 G1 X14.6
N5900 Y4.
N5910 G3 X16. Y2.6 I1.4 J0.
N5920 G1 X49.891
N5930 X51.591 Z-4.5
N5940 X70.1
N5950 Y1.609
N5960 Y-.091 Z-6.2
N5970 Y-.5
N5980 G3 X71.5 Y-1.9 I1.4 J0.
N5990 G1 X81.5
N6000 G3 X82.9 Y-.5 I0. J1.4
N6010 G1 Y2.6
N6020 X266.1
N6030 Y-.5
N6040 G3 X267.5 Y-1.9 I1.4 J0.
N6050 G1 X277.5
N6060 G3 X278.9 Y-.5 I0. J1.4
N6070 G1 Y2.6
N6080 X285.
N6090 G3 X286.4 Y4. I0. J1.4
N6100 G1 Y16.15
N6110 Y17.85 Z-4.5
N6120 Y27.6
N6130 X296.15
N6140 X297.85 Z-6.2
N6150 X380.
N6160 G3 X381.4 Y29. I0. J1.4
N6170 G1 Y65.4
N6180 G0 Z5.
N6190 M5
N6200 G91 Z5
N6210 X0. Y0. A0.
N6220 M30
%
