%
O0000(CAM-PANELFRONTAL)
(DATE=DD-MM-YY - 16-09-15 TIME=HH:MM - 15:12)
(MCX FILE - C:\USERS\CAMPY\DESKTOP\PANELES ULTICAMPY V3 CAM\CAM-PANELFRONTAL.SLDASM)
(NC FILE - C:\USERS\CAMPY\DESKTOP\PANELES ULTICAMPY V3 CAM\MACH3\CAM-PANELFRONTAL.NC)
(MATERIAL - ALUMINUM MM - 2024)
( T2 | FRESA 3MM CAJA AZUL | H2 | XY STOCK TO LEAVE - -.05 | Z STOCK TO LEAVE - 0. )
N100 G21
N110 G0 G17 G40 G49 G80 G90
N120 T2 M6 Z5
N130 G0 G90 G54 X59.2 Y412. A0. S15000 M3
N140 G43 H2 Z5.
N150 G1 Z-2.067 F150.
N160 G3 X59. Y412.2 I-.2 J0. F500.
N170 X58.8 Y412. I0. J-.2
N180 X59. Y411.8 I.2 J0.
N190 X59.2 Y412. I0. J.2
N200 G1 Z-4.133 F150.
N210 G3 X59. Y412.2 I-.2 J0. F500.
N220 X58.8 Y412. I0. J-.2
N230 X59. Y411.8 I.2 J0.
N240 X59.2 Y412. I0. J.2
N250 G1 Z-6.2 F150.
N260 G3 X59. Y412.2 I-.2 J0. F500.
N270 X58.8 Y412. I0. J-.2
N280 X59. Y411.8 I.2 J0.
N290 X59.2 Y412. I0. J.2
N300 G0 Z-1.2
N310 Z5.
N320 X195.25 Y394.
N330 G1 Z-2.067 F150.
N340 G3 X195.35 Y393.9 I.1 J0. F500.
N350 X195.45 Y394. I0. J.1
N360 X195.35 Y394.1 I-.1 J0.
N370 X195.25 Y394. I0. J-.1
N380 G1 Z-4.133 F150.
N390 G3 X195.35 Y393.9 I.1 J0. F500.
N400 X195.45 Y394. I0. J.1
N410 X195.35 Y394.1 I-.1 J0.
N420 X195.25 Y394. I0. J-.1
N430 G1 Z-6.2 F150.
N440 G3 X195.35 Y393.9 I.1 J0. F500.
N450 X195.45 Y394. I0. J.1
N460 X195.35 Y394.1 I-.1 J0.
N470 X195.25 Y394. I0. J-.1
N480 G0 Z-1.2
N490 Z5.
N500 X195.55 Y412.
N510 G1 Z-2.067 F150.
N520 G3 X195.35 Y412.2 I-.2 J0. F500.
N530 X195.15 Y412. I0. J-.2
N540 X195.35 Y411.8 I.2 J0.
N550 X195.55 Y412. I0. J.2
N560 G1 Z-4.133 F150.
N570 G3 X195.35 Y412.2 I-.2 J0. F500.
N580 X195.15 Y412. I0. J-.2
N590 X195.35 Y411.8 I.2 J0.
N600 X195.55 Y412. I0. J.2
N610 G1 Z-6.2 F150.
N620 G3 X195.35 Y412.2 I-.2 J0. F500.
N630 X195.15 Y412. I0. J-.2
N640 X195.35 Y411.8 I.2 J0.
N650 X195.55 Y412. I0. J.2
N660 G0 Z-1.2
N670 Z5.
N680 X331.5
N690 G1 Z-2.067 F150.
N700 G3 X331.7 Y411.8 I.2 J0. F500.
N710 X331.9 Y412. I0. J.2
N720 X331.7 Y412.2 I-.2 J0.
N730 X331.5 Y412. I0. J-.2
N740 G1 Z-4.133 F150.
N750 G3 X331.7 Y411.8 I.2 J0. F500.
N760 X331.9 Y412. I0. J.2
N770 X331.7 Y412.2 I-.2 J0.
N780 X331.5 Y412. I0. J-.2
N790 G1 Z-6.2 F150.
N800 G3 X331.7 Y411.8 I.2 J0. F500.
N810 X331.9 Y412. I0. J.2
N820 X331.7 Y412.2 I-.2 J0.
N830 X331.5 Y412. I0. J-.2
N840 G0 Z-1.2
N850 Z5.
N860 X345.75 Y240.
N870 G1 Z-2.067 F150.
N880 G3 X345.85 Y239.9 I.1 J0. F500.
N890 X345.95 Y240. I0. J.1
N900 X345.85 Y240.1 I-.1 J0.
N910 X345.75 Y240. I0. J-.1
N920 G1 Z-4.133 F150.
N930 G3 X345.85 Y239.9 I.1 J0. F500.
N940 X345.95 Y240. I0. J.1
N950 X345.85 Y240.1 I-.1 J0.
N960 X345.75 Y240. I0. J-.1
N970 G1 Z-6.2 F150.
N980 G3 X345.85 Y239.9 I.1 J0. F500.
N990 X345.95 Y240. I0. J.1
N1000 X345.85 Y240.1 I-.1 J0.
N1010 X345.75 Y240. I0. J-.1
N1020 G0 Z-1.2
N1030 Z5.
N1040 X293.404 Y196.848
N1050 G1 Z-2.067 F150.
N1060 G3 X293.304 Y196.948 I-.1 J0. F500.
N1070 X293.204 Y196.848 I0. J-.1
N1080 X293.304 Y196.748 I.1 J0.
N1090 X293.404 Y196.848 I0. J.1
N1100 G1 Z-4.133 F150.
N1110 G3 X293.304 Y196.948 I-.1 J0. F500.
N1120 X293.204 Y196.848 I0. J-.1
N1130 X293.304 Y196.748 I.1 J0.
N1140 X293.404 Y196.848 I0. J.1
N1150 G1 Z-6.2 F150.
N1160 G3 X293.304 Y196.948 I-.1 J0. F500.
N1170 X293.204 Y196.848 I0. J-.1
N1180 X293.304 Y196.748 I.1 J0.
N1190 X293.404 Y196.848 I0. J.1
N1200 G0 Z-1.2
N1210 Z5.
N1220 X282.591 Y182.161
N1230 G1 Z-2.067 F150.
N1240 G3 X281.991 Y182.761 I-.6 J0. F500.
N1250 X281.391 Y182.161 I0. J-.6
N1260 X281.991 Y181.561 I.6 J0.
N1270 X282.591 Y182.161 I0. J.6
N1280 G1 Z-4.133 F150.
N1290 G3 X281.991 Y182.761 I-.6 J0. F500.
N1300 X281.391 Y182.161 I0. J-.6
N1310 X281.991 Y181.561 I.6 J0.
N1320 X282.591 Y182.161 I0. J.6
N1330 G1 Z-6.2 F150.
N1340 G3 X281.991 Y182.761 I-.6 J0. F500.
N1350 X281.391 Y182.161 I0. J-.6
N1360 X281.991 Y181.561 I.6 J0.
N1370 X282.591 Y182.161 I0. J.6
N1380 G0 Z-1.2
N1390 Z5.
N1400 X305.218
N1410 G1 Z-2.067 F150.
N1420 G3 X304.618 Y182.761 I-.6 J0. F500.
N1430 X304.018 Y182.161 I0. J-.6
N1440 X304.618 Y181.561 I.6 J0.
N1450 X305.218 Y182.161 I0. J.6
N1460 G1 Z-4.133 F150.
N1470 G3 X304.618 Y182.761 I-.6 J0. F500.
N1480 X304.018 Y182.161 I0. J-.6
N1490 X304.618 Y181.561 I.6 J0.
N1500 X305.218 Y182.161 I0. J.6
N1510 G1 Z-6.2 F150.
N1520 G3 X304.618 Y182.761 I-.6 J0. F500.
N1530 X304.018 Y182.161 I0. J-.6
N1540 X304.618 Y181.561 I.6 J0.
N1550 X305.218 Y182.161 I0. J.6
N1560 G0 Z-1.2
N1570 Z5.
N1580 Y159.534
N1590 G1 Z-2.067 F150.
N1600 G3 X304.618 Y160.134 I-.6 J0. F500.
N1610 X304.018 Y159.534 I0. J-.6
N1620 X304.618 Y158.934 I.6 J0.
N1630 X305.218 Y159.534 I0. J.6
N1640 G1 Z-4.133 F150.
N1650 G3 X304.618 Y160.134 I-.6 J0. F500.
N1660 X304.018 Y159.534 I0. J-.6
N1670 X304.618 Y158.934 I.6 J0.
N1680 X305.218 Y159.534 I0. J.6
N1690 G1 Z-6.2 F150.
N1700 G3 X304.618 Y160.134 I-.6 J0. F500.
N1710 X304.018 Y159.534 I0. J-.6
N1720 X304.618 Y158.934 I.6 J0.
N1730 X305.218 Y159.534 I0. J.6
N1740 G0 Z-1.2
N1750 Z5.
N1760 X282.591
N1770 G1 Z-2.067 F150.
N1780 G3 X281.991 Y160.134 I-.6 J0. F500.
N1790 X281.391 Y159.534 I0. J-.6
N1800 X281.991 Y158.934 I.6 J0.
N1810 X282.591 Y159.534 I0. J.6
N1820 G1 Z-4.133 F150.
N1830 G3 X281.991 Y160.134 I-.6 J0. F500.
N1840 X281.391 Y159.534 I0. J-.6
N1850 X281.991 Y158.934 I.6 J0.
N1860 X282.591 Y159.534 I0. J.6
N1870 G1 Z-6.2 F150.
N1880 G3 X281.991 Y160.134 I-.6 J0. F500.
N1890 X281.391 Y159.534 I0. J-.6
N1900 X281.991 Y158.934 I.6 J0.
N1910 X282.591 Y159.534 I0. J.6
N1920 G0 Z-1.2
N1930 Z5.
N1940 X292.8 Y135.
N1950 G1 Z-2.067 F150.
N1960 G3 X292.7 Y135.1 I-.1 J0. F500.
N1970 X292.6 Y135. I0. J-.1
N1980 X292.7 Y134.9 I.1 J0.
N1990 X292.8 Y135. I0. J.1
N2000 G1 Z-4.133 F150.
N2010 G3 X292.7 Y135.1 I-.1 J0. F500.
N2020 X292.6 Y135. I0. J-.1
N2030 X292.7 Y134.9 I.1 J0.
N2040 X292.8 Y135. I0. J.1
N2050 G1 Z-6.2 F150.
N2060 G3 X292.7 Y135.1 I-.1 J0. F500.
N2070 X292.6 Y135. I0. J-.1
N2080 X292.7 Y134.9 I.1 J0.
N2090 X292.8 Y135. I0. J.1
N2100 G0 Z-1.2
N2110 Z5.
N2120 Y70.
N2130 G1 Z-2.067 F150.
N2140 G3 X292.7 Y70.1 I-.1 J0. F500.
N2150 X292.6 Y70. I0. J-.1
N2160 X292.7 Y69.9 I.1 J0.
N2170 X292.8 Y70. I0. J.1
N2180 G1 Z-4.133 F150.
N2190 G3 X292.7 Y70.1 I-.1 J0. F500.
N2200 X292.6 Y70. I0. J-.1
N2210 X292.7 Y69.9 I.1 J0.
N2220 X292.8 Y70. I0. J.1
N2230 G1 Z-6.2 F150.
N2240 G3 X292.7 Y70.1 I-.1 J0. F500.
N2250 X292.6 Y70. I0. J-.1
N2260 X292.7 Y69.9 I.1 J0.
N2270 X292.8 Y70. I0. J.1
N2280 G0 Z-1.2
N2290 Z5.
N2300 X318.15 Y58.65
N2310 G1 Z-2.067 F150.
N2320 G3 X318.05 Y58.75 I-.1 J0. F500.
N2330 X317.95 Y58.65 I0. J-.1
N2340 X318.05 Y58.55 I.1 J0.
N2350 X318.15 Y58.65 I0. J.1
N2360 G1 Z-4.133 F150.
N2370 G3 X318.05 Y58.75 I-.1 J0. F500.
N2380 X317.95 Y58.65 I0. J-.1
N2390 X318.05 Y58.55 I.1 J0.
N2400 X318.15 Y58.65 I0. J.1
N2410 G1 Z-6.2 F150.
N2420 G3 X318.05 Y58.75 I-.1 J0. F500.
N2430 X317.95 Y58.65 I0. J-.1
N2440 X318.05 Y58.55 I.1 J0.
N2450 X318.15 Y58.65 I0. J.1
N2460 G0 Z-1.2
N2470 Z5.
N2480 X262.441 Y70.
N2490 G1 Z-2.067 F150.
N2500 G3 X262.341 Y70.1 I-.1 J0. F500.
N2510 X262.241 Y70. I0. J-.1
N2520 X262.341 Y69.9 I.1 J0.
N2530 X262.441 Y70. I0. J.1
N2540 G1 Z-4.133 F150.
N2550 G3 X262.341 Y70.1 I-.1 J0. F500.
N2560 X262.241 Y70. I0. J-.1
N2570 X262.341 Y69.9 I.1 J0.
N2580 X262.441 Y70. I0. J.1
N2590 G1 Z-6.2 F150.
N2600 G3 X262.341 Y70.1 I-.1 J0. F500.
N2610 X262.241 Y70. I0. J-.1
N2620 X262.341 Y69.9 I.1 J0.
N2630 X262.441 Y70. I0. J.1
N2640 G0 Z-1.2
N2650 Z5.
N2660 X195.25 Y100.
N2670 G1 Z-2.067 F150.
N2680 G3 X195.35 Y99.9 I.1 J0. F500.
N2690 X195.45 Y100. I0. J.1
N2700 X195.35 Y100.1 I-.1 J0.
N2710 X195.25 Y100. I0. J-.1
N2720 G1 Z-4.133 F150.
N2730 G3 X195.35 Y99.9 I.1 J0. F500.
N2740 X195.45 Y100. I0. J.1
N2750 X195.35 Y100.1 I-.1 J0.
N2760 X195.25 Y100. I0. J-.1
N2770 G1 Z-6.2 F150.
N2780 G3 X195.35 Y99.9 I.1 J0. F500.
N2790 X195.45 Y100. I0. J.1
N2800 X195.35 Y100.1 I-.1 J0.
N2810 X195.25 Y100. I0. J-.1
N2820 G0 Z-1.2
N2830 Z5.
N2840 X192.548 Y165.191
N2850 G1 Z-2.067 F150.
N2860 G3 X192.648 Y165.091 I.1 J0. F500.
N2870 X192.748 Y165.191 I0. J.1
N2880 X192.648 Y165.291 I-.1 J0.
N2890 X192.548 Y165.191 I0. J-.1
N2900 G1 Z-4.133 F150.
N2910 G3 X192.648 Y165.091 I.1 J0. F500.
N2920 X192.748 Y165.191 I0. J.1
N2930 X192.648 Y165.291 I-.1 J0.
N2940 X192.548 Y165.191 I0. J-.1
N2950 G1 Z-6.2 F150.
N2960 G3 X192.648 Y165.091 I.1 J0. F500.
N2970 X192.748 Y165.191 I0. J.1
N2980 X192.648 Y165.291 I-.1 J0.
N2990 X192.548 Y165.191 I0. J-.1
N3000 G0 Z-1.2
N3010 Z5.
N3020 Y176.505
N3030 G1 Z-2.067 F150.
N3040 G3 X192.648 Y176.405 I.1 J0. F500.
N3050 X192.748 Y176.505 I0. J.1
N3060 X192.648 Y176.605 I-.1 J0.
N3070 X192.548 Y176.505 I0. J-.1
N3080 G1 Z-4.133 F150.
N3090 G3 X192.648 Y176.405 I.1 J0. F500.
N3100 X192.748 Y176.505 I0. J.1
N3110 X192.648 Y176.605 I-.1 J0.
N3120 X192.548 Y176.505 I0. J-.1
N3130 G1 Z-6.2 F150.
N3140 G3 X192.648 Y176.405 I.1 J0. F500.
N3150 X192.748 Y176.505 I0. J.1
N3160 X192.648 Y176.605 I-.1 J0.
N3170 X192.548 Y176.505 I0. J-.1
N3180 G0 Z-1.2
N3190 Z5.
N3200 X203.861
N3210 G1 Z-2.067 F150.
N3220 G3 X203.961 Y176.405 I.1 J0. F500.
N3230 X204.061 Y176.505 I0. J.1
N3240 X203.961 Y176.605 I-.1 J0.
N3250 X203.861 Y176.505 I0. J-.1
N3260 G1 Z-4.133 F150.
N3270 G3 X203.961 Y176.405 I.1 J0. F500.
N3280 X204.061 Y176.505 I0. J.1
N3290 X203.961 Y176.605 I-.1 J0.
N3300 X203.861 Y176.505 I0. J-.1
N3310 G1 Z-6.2 F150.
N3320 G3 X203.961 Y176.405 I.1 J0. F500.
N3330 X204.061 Y176.505 I0. J.1
N3340 X203.961 Y176.605 I-.1 J0.
N3350 X203.861 Y176.505 I0. J-.1
N3360 G0 Z-1.2
N3370 Z5.
N3380 Y165.191
N3390 G1 Z-2.067 F150.
N3400 G3 X203.961 Y165.091 I.1 J0. F500.
N3410 X204.061 Y165.191 I0. J.1
N3420 X203.961 Y165.291 I-.1 J0.
N3430 X203.861 Y165.191 I0. J-.1
N3440 G1 Z-4.133 F150.
N3450 G3 X203.961 Y165.091 I.1 J0. F500.
N3460 X204.061 Y165.191 I0. J.1
N3470 X203.961 Y165.291 I-.1 J0.
N3480 X203.861 Y165.191 I0. J-.1
N3490 G1 Z-6.2 F150.
N3500 G3 X203.961 Y165.091 I.1 J0. F500.
N3510 X204.061 Y165.191 I0. J.1
N3520 X203.961 Y165.291 I-.1 J0.
N3530 X203.861 Y165.191 I0. J-.1
N3540 G0 Z-1.2
N3550 Z5.
N3560 X198.409 Y196.848
N3570 G1 Z-2.067 F150.
N3580 G3 X198.309 Y196.948 I-.1 J0. F500.
N3590 X198.209 Y196.848 I0. J-.1
N3600 X198.309 Y196.748 I.1 J0.
N3610 X198.409 Y196.848 I0. J.1
N3620 G1 Z-4.133 F150.
N3630 G3 X198.309 Y196.948 I-.1 J0. F500.
N3640 X198.209 Y196.848 I0. J-.1
N3650 X198.309 Y196.748 I.1 J0.
N3660 X198.409 Y196.848 I0. J.1
N3670 G1 Z-6.2 F150.
N3680 G3 X198.309 Y196.948 I-.1 J0. F500.
N3690 X198.209 Y196.848 I0. J-.1
N3700 X198.309 Y196.748 I.1 J0.
N3710 X198.409 Y196.848 I0. J.1
N3720 G0 Z-1.2
N3730 Z5.
N3740 X114.018 Y182.161
N3750 G1 Z-2.067 F150.
N3760 G3 X114.618 Y181.561 I.6 J0. F500.
N3770 X115.218 Y182.161 I0. J.6
N3780 X114.618 Y182.761 I-.6 J0.
N3790 X114.018 Y182.161 I0. J-.6
N3800 G1 Z-4.133 F150.
N3810 G3 X114.618 Y181.561 I.6 J0. F500.
N3820 X115.218 Y182.161 I0. J.6
N3830 X114.618 Y182.761 I-.6 J0.
N3840 X114.018 Y182.161 I0. J-.6
N3850 G1 Z-6.2 F150.
N3860 G3 X114.618 Y181.561 I.6 J0. F500.
N3870 X115.218 Y182.161 I0. J.6
N3880 X114.618 Y182.761 I-.6 J0.
N3890 X114.018 Y182.161 I0. J-.6
N3900 G0 Z-1.2
N3910 Z5.
N3920 X103.204 Y196.848
N3930 G1 Z-2.067 F150.
N3940 G3 X103.304 Y196.748 I.1 J0. F500.
N3950 X103.404 Y196.848 I0. J.1
N3960 X103.304 Y196.948 I-.1 J0.
N3970 X103.204 Y196.848 I0. J-.1
N3980 G1 Z-4.133 F150.
N3990 G3 X103.304 Y196.748 I.1 J0. F500.
N4000 X103.404 Y196.848 I0. J.1
N4010 X103.304 Y196.948 I-.1 J0.
N4020 X103.204 Y196.848 I0. J-.1
N4030 G1 Z-6.2 F150.
N4040 G3 X103.304 Y196.748 I.1 J0. F500.
N4050 X103.404 Y196.848 I0. J.1
N4060 X103.304 Y196.948 I-.1 J0.
N4070 X103.204 Y196.848 I0. J-.1
N4080 G0 Z-1.2
N4090 Z5.
N4100 X91.391 Y182.161
N4110 G1 Z-2.067 F150.
N4120 G3 X91.991 Y181.561 I.6 J0. F500.
N4130 X92.591 Y182.161 I0. J.6
N4140 X91.991 Y182.761 I-.6 J0.
N4150 X91.391 Y182.161 I0. J-.6
N4160 G1 Z-4.133 F150.
N4170 G3 X91.991 Y181.561 I.6 J0. F500.
N4180 X92.591 Y182.161 I0. J.6
N4190 X91.991 Y182.761 I-.6 J0.
N4200 X91.391 Y182.161 I0. J-.6
N4210 G1 Z-6.2 F150.
N4220 G3 X91.991 Y181.561 I.6 J0. F500.
N4230 X92.591 Y182.161 I0. J.6
N4240 X91.991 Y182.761 I-.6 J0.
N4250 X91.391 Y182.161 I0. J-.6
N4260 G0 Z-1.2
N4270 Z5.
N4280 Y159.534
N4290 G1 Z-2.067 F150.
N4300 G3 X91.991 Y158.934 I.6 J0. F500.
N4310 X92.591 Y159.534 I0. J.6
N4320 X91.991 Y160.134 I-.6 J0.
N4330 X91.391 Y159.534 I0. J-.6
N4340 G1 Z-4.133 F150.
N4350 G3 X91.991 Y158.934 I.6 J0. F500.
N4360 X92.591 Y159.534 I0. J.6
N4370 X91.991 Y160.134 I-.6 J0.
N4380 X91.391 Y159.534 I0. J-.6
N4390 G1 Z-6.2 F150.
N4400 G3 X91.991 Y158.934 I.6 J0. F500.
N4410 X92.591 Y159.534 I0. J.6
N4420 X91.991 Y160.134 I-.6 J0.
N4430 X91.391 Y159.534 I0. J-.6
N4440 G0 Z-1.2
N4450 Z5.
N4460 X114.018
N4470 G1 Z-2.067 F150.
N4480 G3 X114.618 Y158.934 I.6 J0. F500.
N4490 X115.218 Y159.534 I0. J.6
N4500 X114.618 Y160.134 I-.6 J0.
N4510 X114.018 Y159.534 I0. J-.6
N4520 G1 Z-4.133 F150.
N4530 G3 X114.618 Y158.934 I.6 J0. F500.
N4540 X115.218 Y159.534 I0. J.6
N4550 X114.618 Y160.134 I-.6 J0.
N4560 X114.018 Y159.534 I0. J-.6
N4570 G1 Z-6.2 F150.
N4580 G3 X114.618 Y158.934 I.6 J0. F500.
N4590 X115.218 Y159.534 I0. J.6
N4600 X114.618 Y160.134 I-.6 J0.
N4610 X114.018 Y159.534 I0. J-.6
N4620 G0 Z-1.2
N4630 Z5.
N4640 X48.9 Y240.
N4650 G1 Z-2.067 F150.
N4660 G3 X49. Y239.9 I.1 J0. F500.
N4670 X49.1 Y240. I0. J.1
N4680 X49. Y240.1 I-.1 J0.
N4690 X48.9 Y240. I0. J-.1
N4700 G1 Z-4.133 F150.
N4710 G3 X49. Y239.9 I.1 J0. F500.
N4720 X49.1 Y240. I0. J.1
N4730 X49. Y240.1 I-.1 J0.
N4740 X48.9 Y240. I0. J-.1
N4750 G1 Z-6.2 F150.
N4760 G3 X49. Y239.9 I.1 J0. F500.
N4770 X49.1 Y240. I0. J.1
N4780 X49. Y240.1 I-.1 J0.
N4790 X48.9 Y240. I0. J-.1
N4800 G0 Z-1.2
N4810 Z5.
N4820 X59.2 Y70.
N4830 G1 Z-2.067 F150.
N4840 G3 X59. Y70.2 I-.2 J0. F500.
N4850 X58.8 Y70. I0. J-.2
N4860 X59. Y69.8 I.2 J0.
N4870 X59.2 Y70. I0. J.2
N4880 G1 Z-4.133 F150.
N4890 G3 X59. Y70.2 I-.2 J0. F500.
N4900 X58.8 Y70. I0. J-.2
N4910 X59. Y69.8 I.2 J0.
N4920 X59.2 Y70. I0. J.2
N4930 G1 Z-6.2 F150.
N4940 G3 X59. Y70.2 I-.2 J0. F500.
N4950 X58.8 Y70. I0. J-.2
N4960 X59. Y69.8 I.2 J0.
N4970 X59.2 Y70. I0. J.2
N4980 G0 Z-1.2
N4990 Z5.
N5000 X380.8
N5010 G1 Z-2.067 F150.
N5020 G3 X380.7 Y70.1 I-.1 J0. F500.
N5030 X380.6 Y70. I0. J-.1
N5040 X380.7 Y69.9 I.1 J0.
N5050 X380.8 Y70. I0. J.1
N5060 G1 Z-4.133 F150.
N5070 G3 X380.7 Y70.1 I-.1 J0. F500.
N5080 X380.6 Y70. I0. J-.1
N5090 X380.7 Y69.9 I.1 J0.
N5100 X380.8 Y70. I0. J.1
N5110 G1 Z-6.2 F150.
N5120 G3 X380.7 Y70.1 I-.1 J0. F500.
N5130 X380.6 Y70. I0. J-.1
N5140 X380.7 Y69.9 I.1 J0.
N5150 X380.8 Y70. I0. J.1
N5160 G0 Z-1.2
N5170 Z5.
N5180 Y135.
N5190 G1 Z-2.067 F150.
N5200 G3 X380.7 Y135.1 I-.1 J0. F500.
N5210 X380.6 Y135. I0. J-.1
N5220 X380.7 Y134.9 I.1 J0.
N5230 X380.8 Y135. I0. J.1
N5240 G1 Z-4.133 F150.
N5250 G3 X380.7 Y135.1 I-.1 J0. F500.
N5260 X380.6 Y135. I0. J-.1
N5270 X380.7 Y134.9 I.1 J0.
N5280 X380.8 Y135. I0. J.1
N5290 G1 Z-6.2 F150.
N5300 G3 X380.7 Y135.1 I-.1 J0. F500.
N5310 X380.6 Y135. I0. J-.1
N5320 X380.7 Y134.9 I.1 J0.
N5330 X380.8 Y135. I0. J.1
N5340 G0 Z5.
N5350 X301.9 Y58.65
N5360 G1 Z-2.067 F150.
N5370 G3 X300.3 Y60.25 I-1.6 J0. F500.
N5380 X298.7 Y58.65 I0. J-1.6
N5390 X300.3 Y57.05 I1.6 J0.
N5400 X301.9 Y58.65 I0. J1.6
N5410 G1 Z-4.133 F150.
N5420 G3 X300.3 Y60.25 I-1.6 J0. F500.
N5430 X298.7 Y58.65 I0. J-1.6
N5440 X300.3 Y57.05 I1.6 J0.
N5450 X301.9 Y58.65 I0. J1.6
N5460 G1 Z-6.2 F150.
N5470 G3 X300.3 Y60.25 I-1.6 J0. F500.
N5480 X298.7 Y58.65 I0. J-1.6
N5490 X300.3 Y57.05 I1.6 J0.
N5500 X301.9 Y58.65 I0. J1.6
N5510 G1 X302.4
N5520 G3 X300.3 Y60.75 I-2.1 J0.
N5530 X298.2 Y58.65 I0. J-2.1
N5540 X300.3 Y56.55 I2.1 J0.
N5550 X302.4 Y58.65 I0. J2.1
N5560 G0 Z-1.2
N5570 Z5.
N5580 X299.6 Y78.4
N5590 G1 Z-2.067 F150.
N5600 X374.3 F500.
N5610 Y126.1
N5620 X299.6
N5630 Y78.4
N5640 Z-4.133 F150.
N5650 X374.3 F500.
N5660 Y126.1
N5670 X299.6
N5680 Y78.4
N5690 Z-6.2 F150.
N5700 X374.3 F500.
N5710 Y126.1
N5720 X299.6
N5730 Y78.4
N5740 X299.1 Y77.9
N5750 X374.8
N5760 Y126.6
N5770 X299.1
N5780 Y77.9
N5790 G0 Z-1.2
N5800 Z5.
N5810 X335.4 Y58.65
N5820 G1 Z-2.067 F150.
N5830 G3 X333.3 Y60.75 I-2.1 J0. F500.
N5840 X331.2 Y58.65 I0. J-2.1
N5850 X333.3 Y56.55 I2.1 J0.
N5860 X335.4 Y58.65 I0. J2.1
N5870 G1 Z-4.133 F150.
N5880 G3 X333.3 Y60.75 I-2.1 J0. F500.
N5890 X331.2 Y58.65 I0. J-2.1
N5900 X333.3 Y56.55 I2.1 J0.
N5910 X335.4 Y58.65 I0. J2.1
N5920 G1 Z-6.2 F150.
N5930 G3 X333.3 Y60.75 I-2.1 J0. F500.
N5940 X331.2 Y58.65 I0. J-2.1
N5950 X333.3 Y56.55 I2.1 J0.
N5960 X335.4 Y58.65 I0. J2.1
N5970 G1 X335.9
N5980 G3 X333.3 Y61.25 I-2.6 J0.
N5990 X330.7 Y58.65 I0. J-2.6
N6000 X333.3 Y56.05 I2.6 J0.
N6010 X335.9 Y58.65 I0. J2.6
N6020 G0 Z-1.2
N6030 Z5.
N6040 X288.454 Y170.848
N6050 G1 Z-2.067 F150.
N6060 G3 X293.304 Y165.998 I4.85 J0. F500.
N6070 X298.154 Y170.848 I0. J4.85
N6080 X293.304 Y175.698 I-4.85 J0.
N6090 X288.454 Y170.848 I0. J-4.85
N6100 G1 Z-4.133 F150.
N6110 G3 X293.304 Y165.998 I4.85 J0. F500.
N6120 X298.154 Y170.848 I0. J4.85
N6130 X293.304 Y175.698 I-4.85 J0.
N6140 X288.454 Y170.848 I0. J-4.85
N6150 G1 Z-6.2 F150.
N6160 G3 X293.304 Y165.998 I4.85 J0. F500.
N6170 X298.154 Y170.848 I0. J4.85
N6180 X293.304 Y175.698 I-4.85 J0.
N6190 X288.454 Y170.848 I0. J-4.85
N6200 G1 X287.954
N6210 G3 X293.304 Y165.498 I5.35 J0.
N6220 X298.654 Y170.848 I0. J5.35
N6230 X293.304 Y176.198 I-5.35 J0.
N6240 X287.954 Y170.848 I0. J-5.35
N6250 G0 Z-1.2
N6260 Z5.
N6270 X292.154 Y206.748
N6280 G1 Z-2.067 F150.
N6290 X294.454 F500.
N6300 Y217.948
N6310 X292.154
N6320 Y206.748
N6330 Z-4.133 F150.
N6340 X294.454 F500.
N6350 Y217.948
N6360 X292.154
N6370 Y206.748
N6380 Z-6.2 F150.
N6390 X294.454 F500.
N6400 Y217.948
N6410 X292.154
N6420 Y206.748
N6430 X291.654 Y206.248
N6440 X294.954
N6450 Y218.448
N6460 X291.654
N6470 Y206.248
N6480 G0 Z-1.2
N6490 Z5.
N6500 X199.454 Y206.748
N6510 G1 Z-2.067 F150.
N6520 Y217.948 F500.
N6530 X197.154
N6540 Y206.748
N6550 X199.454
N6560 Z-4.133 F150.
N6570 Y217.948 F500.
N6580 X197.154
N6590 Y206.748
N6600 X199.454
N6610 Z-6.2 F150.
N6620 Y217.948 F500.
N6630 X197.154
N6640 Y206.748
N6650 X199.454
N6660 X199.954 Y206.248
N6670 Y218.448
N6680 X196.654
N6690 Y206.248
N6700 X199.954
N6710 G0 Z-1.2
N6720 Z5.
N6730 X104.454 Y206.748
N6740 G1 Z-2.067 F150.
N6750 Y217.948 F500.
N6760 X102.154
N6770 Y206.748
N6780 X104.454
N6790 Z-4.133 F150.
N6800 Y217.948 F500.
N6810 X102.154
N6820 Y206.748
N6830 X104.454
N6840 Z-6.2 F150.
N6850 Y217.948 F500.
N6860 X102.154
N6870 Y206.748
N6880 X104.454
N6890 X104.954 Y206.248
N6900 Y218.448
N6910 X101.654
N6920 Y206.248
N6930 X104.954
N6940 G0 Z-1.2
N6950 Z5.
N6960 X98.454 Y170.848
N6970 G1 Z-2.067 F150.
N6980 G3 X103.304 Y165.998 I4.85 J0. F500.
N6990 X108.154 Y170.848 I0. J4.85
N7000 X103.304 Y175.698 I-4.85 J0.
N7010 X98.454 Y170.848 I0. J-4.85
N7020 G1 Z-4.133 F150.
N7030 G3 X103.304 Y165.998 I4.85 J0. F500.
N7040 X108.154 Y170.848 I0. J4.85
N7050 X103.304 Y175.698 I-4.85 J0.
N7060 X98.454 Y170.848 I0. J-4.85
N7070 G1 Z-6.2 F150.
N7080 G3 X103.304 Y165.998 I4.85 J0. F500.
N7090 X108.154 Y170.848 I0. J4.85
N7100 X103.304 Y175.698 I-4.85 J0.
N7110 X98.454 Y170.848 I0. J-4.85
N7120 G1 X97.954
N7130 G3 X103.304 Y165.498 I5.35 J0.
N7140 X108.654 Y170.848 I0. J5.35
N7150 X103.304 Y176.198 I-5.35 J0.
N7160 X97.954 Y170.848 I0. J-5.35
N7170 G0 Z-1.2
N7180 Z5.
N7190 X194.954
N7200 G1 Z-2.067 F150.
N7210 G3 X198.304 Y167.498 I3.35 J0. F500.
N7220 X201.654 Y170.848 I0. J3.35
N7230 X198.304 Y174.198 I-3.35 J0.
N7240 X194.954 Y170.848 I0. J-3.35
N7250 G1 Z-4.133 F150.
N7260 G3 X198.304 Y167.498 I3.35 J0. F500.
N7270 X201.654 Y170.848 I0. J3.35
N7280 X198.304 Y174.198 I-3.35 J0.
N7290 X194.954 Y170.848 I0. J-3.35
N7300 G1 Z-6.2 F150.
N7310 G3 X198.304 Y167.498 I3.35 J0. F500.
N7320 X201.654 Y170.848 I0. J3.35
N7330 X198.304 Y174.198 I-3.35 J0.
N7340 X194.954 Y170.848 I0. J-3.35
N7350 G1 X194.454
N7360 G3 X198.304 Y166.998 I3.85 J0.
N7370 X202.154 Y170.848 I0. J3.85
N7380 X198.304 Y174.698 I-3.85 J0.
N7390 X194.454 Y170.848 I0. J-3.85
N7400 G0 Z5.
N7410 X29.15 Y379.6
N7420 G1 Z-2.2 F150.
N7430 G3 X28.85 Y379.9 I-.3 J0. F500.
N7440 X28.55 Y379.6 I0. J-.3
N7450 X28.85 Y379.3 I.3 J0.
N7460 X29.15 Y379.6 I0. J.3
N7470 G1 X30.6
N7480 G3 X28.85 Y381.35 I-1.75 J0.
N7490 X27.1 Y379.6 I0. J-1.75
N7500 X28.85 Y377.85 I1.75 J0.
N7510 X30.6 Y379.6 I0. J1.75
N7520 G1 X32.05
N7530 G3 X28.85 Y382.8 I-3.2 J0.
N7540 X25.65 Y379.6 I0. J-3.2
N7550 X28.85 Y376.4 I3.2 J0.
N7560 X32.05 Y379.6 I0. J3.2
N7570 G1 X33.5
N7580 G3 X28.85 Y384.25 I-4.65 J0.
N7590 X24.2 Y379.6 I0. J-4.65
N7600 X28.85 Y374.95 I4.65 J0.
N7610 X33.5 Y379.6 I0. J4.65
N7620 G1 X34.95
N7630 G3 X28.85 Y385.7 I-6.1 J0.
N7640 X22.75 Y379.6 I0. J-6.1
N7650 X28.85 Y373.5 I6.1 J0.
N7660 X34.95 Y379.6 I0. J6.1
N7670 G1 X29.15
N7680 Z-4.4 F150.
N7690 G3 X28.85 Y379.9 I-.3 J0. F500.
N7700 X28.55 Y379.6 I0. J-.3
N7710 X28.85 Y379.3 I.3 J0.
N7720 X29.15 Y379.6 I0. J.3
N7730 G1 X30.6
N7740 G3 X28.85 Y381.35 I-1.75 J0.
N7750 X27.1 Y379.6 I0. J-1.75
N7760 X28.85 Y377.85 I1.75 J0.
N7770 X30.6 Y379.6 I0. J1.75
N7780 G1 X32.05
N7790 G3 X28.85 Y382.8 I-3.2 J0.
N7800 X25.65 Y379.6 I0. J-3.2
N7810 X28.85 Y376.4 I3.2 J0.
N7820 X32.05 Y379.6 I0. J3.2
N7830 G1 X33.5
N7840 G3 X28.85 Y384.25 I-4.65 J0.
N7850 X24.2 Y379.6 I0. J-4.65
N7860 X28.85 Y374.95 I4.65 J0.
N7870 X33.5 Y379.6 I0. J4.65
N7880 G1 X34.95
N7890 G3 X28.85 Y385.7 I-6.1 J0.
N7900 X22.75 Y379.6 I0. J-6.1
N7910 X28.85 Y373.5 I6.1 J0.
N7920 X34.95 Y379.6 I0. J6.1
N7930 G1 X35.45
N7940 F150.
N7950 G3 X28.85 Y386.2 I-6.6 J0. F500.
N7960 X22.25 Y379.6 I0. J-6.6
N7970 X28.85 Y373. I6.6 J0.
N7980 X35.45 Y379.6 I0. J6.6
N7990 G0 Z.6
N8000 Z5.
N8010 X74.85 Y413.025
N8020 G1 Z-2.2 F150.
N8030 X84.85 F500.
N8040 G3 X85.325 Y413.5 I0. J.475
N8050 X84.85 Y413.975 I-.475 J0.
N8060 G1 X74.85
N8070 G3 X74.375 Y413.5 I0. J-.475
N8080 X74.85 Y413.025 I.475 J0.
N8090 G1 Y412.3
N8100 X84.85
N8110 G3 X86.05 Y413.5 I0. J1.2
N8120 X84.85 Y414.7 I-1.2 J0.
N8130 G1 X74.85
N8140 G3 X73.65 Y413.5 I0. J-1.2
N8150 X74.85 Y412.3 I1.2 J0.
N8160 G1 Y413.025
N8170 Z-4.4 F150.
N8180 X84.85 F500.
N8190 G3 X85.325 Y413.5 I0. J.475
N8200 X84.85 Y413.975 I-.475 J0.
N8210 G1 X74.85
N8220 G3 X74.375 Y413.5 I0. J-.475
N8230 X74.85 Y413.025 I.475 J0.
N8240 G1 Y412.3
N8250 X84.85
N8260 G3 X86.05 Y413.5 I0. J1.2
N8270 X84.85 Y414.7 I-1.2 J0.
N8280 G1 X74.85
N8290 G3 X73.65 Y413.5 I0. J-1.2
N8300 X74.85 Y412.3 I1.2 J0.
N8310 G1 Y411.8
N8320 F150.
N8330 X84.85 F500.
N8340 G3 X86.55 Y413.5 I0. J1.7
N8350 X84.85 Y415.2 I-1.7 J0.
N8360 G1 X74.85
N8370 G3 X73.15 Y413.5 I0. J-1.7
N8380 X74.85 Y411.8 I1.7 J0.
N8390 G0 Z.6
N8400 Z5.
N8410 X165.35 Y413.025
N8420 G1 Z-2.2 F150.
N8430 X175.35 F500.
N8440 G3 X175.825 Y413.5 I0. J.475
N8450 X175.35 Y413.975 I-.475 J0.
N8460 G1 X165.35
N8470 G3 X164.875 Y413.5 I0. J-.475
N8480 X165.35 Y413.025 I.475 J0.
N8490 G1 Y412.3
N8500 X175.35
N8510 G3 X176.55 Y413.5 I0. J1.2
N8520 X175.35 Y414.7 I-1.2 J0.
N8530 G1 X165.35
N8540 G3 X164.15 Y413.5 I0. J-1.2
N8550 X165.35 Y412.3 I1.2 J0.
N8560 G1 Y413.025
N8570 Z-4.4 F150.
N8580 X175.35 F500.
N8590 G3 X175.825 Y413.5 I0. J.475
N8600 X175.35 Y413.975 I-.475 J0.
N8610 G1 X165.35
N8620 G3 X164.875 Y413.5 I0. J-.475
N8630 X165.35 Y413.025 I.475 J0.
N8640 G1 Y412.3
N8650 X175.35
N8660 G3 X176.55 Y413.5 I0. J1.2
N8670 X175.35 Y414.7 I-1.2 J0.
N8680 G1 X165.35
N8690 G3 X164.15 Y413.5 I0. J-1.2
N8700 X165.35 Y412.3 I1.2 J0.
N8710 G1 Y411.8
N8720 F150.
N8730 X175.35 F500.
N8740 G3 X177.05 Y413.5 I0. J1.7
N8750 X175.35 Y415.2 I-1.7 J0.
N8760 G1 X165.35
N8770 G3 X163.65 Y413.5 I0. J-1.7
N8780 X165.35 Y411.8 I1.7 J0.
N8790 G0 Z.6
N8800 Z5.
N8810 X215.35 Y413.025
N8820 G1 Z-2.2 F150.
N8830 X225.35 F500.
N8840 G3 X225.825 Y413.5 I0. J.475
N8850 X225.35 Y413.975 I-.475 J0.
N8860 G1 X215.35
N8870 G3 X214.875 Y413.5 I0. J-.475
N8880 X215.35 Y413.025 I.475 J0.
N8890 G1 Y412.3
N8900 X225.35
N8910 G3 X226.55 Y413.5 I0. J1.2
N8920 X225.35 Y414.7 I-1.2 J0.
N8930 G1 X215.35
N8940 G3 X214.15 Y413.5 I0. J-1.2
N8950 X215.35 Y412.3 I1.2 J0.
N8960 G1 Y413.025
N8970 Z-4.4 F150.
N8980 X225.35 F500.
N8990 G3 X225.825 Y413.5 I0. J.475
N9000 X225.35 Y413.975 I-.475 J0.
N9010 G1 X215.35
N9020 G3 X214.875 Y413.5 I0. J-.475
N9030 X215.35 Y413.025 I.475 J0.
N9040 G1 Y412.3
N9050 X225.35
N9060 G3 X226.55 Y413.5 I0. J1.2
N9070 X225.35 Y414.7 I-1.2 J0.
N9080 G1 X215.35
N9090 G3 X214.15 Y413.5 I0. J-1.2
N9100 X215.35 Y412.3 I1.2 J0.
N9110 G1 Y411.8
N9120 F150.
N9130 X225.35 F500.
N9140 G3 X227.05 Y413.5 I0. J1.7
N9150 X225.35 Y415.2 I-1.7 J0.
N9160 G1 X215.35
N9170 G3 X213.65 Y413.5 I0. J-1.7
N9180 X215.35 Y411.8 I1.7 J0.
N9190 G0 Z.6
N9200 Z5.
N9210 X305.85 Y413.025
N9220 G1 Z-2.2 F150.
N9230 X315.85 F500.
N9240 G3 X316.325 Y413.5 I0. J.475
N9250 X315.85 Y413.975 I-.475 J0.
N9260 G1 X305.85
N9270 G3 X305.375 Y413.5 I0. J-.475
N9280 X305.85 Y413.025 I.475 J0.
N9290 G1 Y412.3
N9300 X315.85
N9310 G3 X317.05 Y413.5 I0. J1.2
N9320 X315.85 Y414.7 I-1.2 J0.
N9330 G1 X305.85
N9340 G3 X304.65 Y413.5 I0. J-1.2
N9350 X305.85 Y412.3 I1.2 J0.
N9360 G1 Y413.025
N9370 Z-4.4 F150.
N9380 X315.85 F500.
N9390 G3 X316.325 Y413.5 I0. J.475
N9400 X315.85 Y413.975 I-.475 J0.
N9410 G1 X305.85
N9420 G3 X305.375 Y413.5 I0. J-.475
N9430 X305.85 Y413.025 I.475 J0.
N9440 G1 Y412.3
N9450 X315.85
N9460 G3 X317.05 Y413.5 I0. J1.2
N9470 X315.85 Y414.7 I-1.2 J0.
N9480 G1 X305.85
N9490 G3 X304.65 Y413.5 I0. J-1.2
N9500 X305.85 Y412.3 I1.2 J0.
N9510 G1 Y411.8
N9520 F150.
N9530 X315.85 F500.
N9540 G3 X317.55 Y413.5 I0. J1.7
N9550 X315.85 Y415.2 I-1.7 J0.
N9560 G1 X305.85
N9570 G3 X304.15 Y413.5 I0. J-1.7
N9580 X305.85 Y411.8 I1.7 J0.
N9590 G0 Z.6
N9600 Z5.
N9610 X359. Y379.6
N9620 G1 Z-2.2 F150.
N9630 G3 X358.7 Y379.9 I-.3 J0. F500.
N9640 X358.4 Y379.6 I0. J-.3
N9650 X358.7 Y379.3 I.3 J0.
N9660 X359. Y379.6 I0. J.3
N9670 G1 X360.45
N9680 G3 X358.7 Y381.35 I-1.75 J0.
N9690 X356.95 Y379.6 I0. J-1.75
N9700 X358.7 Y377.85 I1.75 J0.
N9710 X360.45 Y379.6 I0. J1.75
N9720 G1 X361.9
N9730 G3 X358.7 Y382.8 I-3.2 J0.
N9740 X355.5 Y379.6 I0. J-3.2
N9750 X358.7 Y376.4 I3.2 J0.
N9760 X361.9 Y379.6 I0. J3.2
N9770 G1 X363.35
N9780 G3 X358.7 Y384.25 I-4.65 J0.
N9790 X354.05 Y379.6 I0. J-4.65
N9800 X358.7 Y374.95 I4.65 J0.
N9810 X363.35 Y379.6 I0. J4.65
N9820 G1 X364.8
N9830 G3 X358.7 Y385.7 I-6.1 J0.
N9840 X352.6 Y379.6 I0. J-6.1
N9850 X358.7 Y373.5 I6.1 J0.
N9860 X364.8 Y379.6 I0. J6.1
N9870 G1 X359.
N9880 Z-4.4 F150.
N9890 G3 X358.7 Y379.9 I-.3 J0. F500.
N9900 X358.4 Y379.6 I0. J-.3
N9910 X358.7 Y379.3 I.3 J0.
N9920 X359. Y379.6 I0. J.3
N9930 G1 X360.45
N9940 G3 X358.7 Y381.35 I-1.75 J0.
N9950 X356.95 Y379.6 I0. J-1.75
N9960 X358.7 Y377.85 I1.75 J0.
N9970 X360.45 Y379.6 I0. J1.75
N9980 G1 X361.9
N9990 G3 X358.7 Y382.8 I-3.2 J0.
N100 X355.5 Y379.6 I0. J-3.2
N110 X358.7 Y376.4 I3.2 J0.
N120 X361.9 Y379.6 I0. J3.2
N130 G1 X363.35
N140 G3 X358.7 Y384.25 I-4.65 J0.
N150 X354.05 Y379.6 I0. J-4.65
N160 X358.7 Y374.95 I4.65 J0.
N170 X363.35 Y379.6 I0. J4.65
N180 G1 X364.8
N190 G3 X358.7 Y385.7 I-6.1 J0.
N200 X352.6 Y379.6 I0. J-6.1
N210 X358.7 Y373.5 I6.1 J0.
N220 X364.8 Y379.6 I0. J6.1
N230 G1 X365.3
N240 F150.
N250 G3 X358.7 Y386.2 I-6.6 J0. F500.
N260 X352.1 Y379.6 I0. J-6.6
N270 X358.7 Y373. I6.6 J0.
N280 X365.3 Y379.6 I0. J6.6
N290 G0 Z.6
N300 Z5.
N310 X280.85 Y71.975
N320 G1 Z-2.2 F150.
N330 X270.85 F500.
N340 G3 X270.375 Y71.5 I0. J-.475
N350 X270.85 Y71.025 I.475 J0.
N360 G1 X280.85
N370 G3 X281.325 Y71.5 I0. J.475
N380 X280.85 Y71.975 I-.475 J0.
N390 G1 Y72.7
N400 X270.85
N410 G3 X269.65 Y71.5 I0. J-1.2
N420 X270.85 Y70.3 I1.2 J0.
N430 G1 X280.85
N440 G3 X282.05 Y71.5 I0. J1.2
N450 X280.85 Y72.7 I-1.2 J0.
N460 G1 Y71.975
N470 Z-4.4 F150.
N480 X270.85 F500.
N490 G3 X270.375 Y71.5 I0. J-.475
N500 X270.85 Y71.025 I.475 J0.
N510 G1 X280.85
N520 G3 X281.325 Y71.5 I0. J.475
N530 X280.85 Y71.975 I-.475 J0.
N540 G1 Y72.7
N550 X270.85
N560 G3 X269.65 Y71.5 I0. J-1.2
N570 X270.85 Y70.3 I1.2 J0.
N580 G1 X280.85
N590 G3 X282.05 Y71.5 I0. J1.2
N600 X280.85 Y72.7 I-1.2 J0.
N610 G1 Y73.2
N620 F150.
N630 X270.85 F500.
N640 G3 X269.15 Y71.5 I0. J-1.7
N650 X270.85 Y69.8 I1.7 J0.
N660 G1 X280.85
N670 G3 X282.55 Y71.5 I0. J1.7
N680 X280.85 Y73.2 I-1.7 J0.
N690 G0 Z.6
N700 Z5.
N710 X84.85 Y71.975
N720 G1 Z-2.2 F150.
N730 X74.85 F500.
N740 G3 X74.375 Y71.5 I0. J-.475
N750 X74.85 Y71.025 I.475 J0.
N760 G1 X84.85
N770 G3 X85.325 Y71.5 I0. J.475
N780 X84.85 Y71.975 I-.475 J0.
N790 G1 Y72.7
N800 X74.85
N810 G3 X73.65 Y71.5 I0. J-1.2
N820 X74.85 Y70.3 I1.2 J0.
N830 G1 X84.85
N840 G3 X86.05 Y71.5 I0. J1.2
N850 X84.85 Y72.7 I-1.2 J0.
N860 G1 Y71.975
N870 Z-4.4 F150.
N880 X74.85 F500.
N890 G3 X74.375 Y71.5 I0. J-.475
N900 X74.85 Y71.025 I.475 J0.
N910 G1 X84.85
N920 G3 X85.325 Y71.5 I0. J.475
N930 X84.85 Y71.975 I-.475 J0.
N940 G1 Y72.7
N950 X74.85
N960 G3 X73.65 Y71.5 I0. J-1.2
N970 X74.85 Y70.3 I1.2 J0.
N980 G1 X84.85
N990 G3 X86.05 Y71.5 I0. J1.2
N1000 X84.85 Y72.7 I-1.2 J0.
N1010 G1 Y73.2
N1020 F150.
N1030 X74.85 F500.
N1040 G3 X73.15 Y71.5 I0. J-1.7
N1050 X74.85 Y69.8 I1.7 J0.
N1060 G1 X84.85
N1070 G3 X86.55 Y71.5 I0. J1.7
N1080 X84.85 Y73.2 I-1.7 J0.
N1090 G0 Z5.
N1100 X376.101 Y61.7
N1110 G1 Z-2.2 F150.
N1120 G2 X375.433 Y62.55 I1.099 J1.55 F500.
N1130 G1 X374.455
N1140 G2 X373.946 Y61.7 I-1.828 J.517
N1150 X374.455 Y60.85 I-1.319 J-1.367
N1160 G1 X375.433
N1170 G2 X376.101 Y61.7 I1.767 J-.7
N1180 G1 Z-4.4 F150.
N1190 G2 X375.433 Y62.55 I1.099 J1.55 F500.
N1200 G1 X374.455
N1210 G2 X373.946 Y61.7 I-1.828 J.517
N1220 X374.455 Y60.85 I-1.319 J-1.367
N1230 G1 X375.433
N1240 G2 X376.101 Y61.7 I1.767 J-.7
N1250 G1 X386.6 Y61.85
N1260 F150.
N1270 X383.7 F500.
N1280 X377.2
N1290 G2 X375.836 Y62.934 I0. J1.4
N1300 G3 X375.69 Y63.05 I-.146 J-.034
N1310 G1 X374.14
N1320 G3 X374.025 Y62.996 I0. J-.15
N1330 G2 X373.287 Y61.832 I-1.398 J.071
N1340 G3 X373.208 Y61.7 I.07 J-.132
N1350 X373.287 Y61.568 I.149 J0.
N1360 G2 X374.025 Y60.404 I-.66 J-1.235
N1370 G3 X374.14 Y60.35 I.115 J.096
N1380 G1 X375.69
N1390 G3 X375.836 Y60.466 I0. J.15
N1400 G2 X377.2 Y61.55 I1.364 J-.316
N1410 G1 X383.7
N1420 X386.6
N1430 G0 Z.6
N1440 Z5.
N1450 X376.101 Y215.
N1460 G1 Z-2.2 F150.
N1470 G2 X375.433 Y215.85 I1.099 J1.55 F500.
N1480 G1 X374.455
N1490 G2 X373.946 Y215. I-1.828 J.517
N1500 X374.455 Y214.15 I-1.319 J-1.367
N1510 G1 X375.433
N1520 G2 X376.101 Y215. I1.767 J-.7
N1530 G1 Z-4.4 F150.
N1540 G2 X375.433 Y215.85 I1.099 J1.55 F500.
N1550 G1 X374.455
N1560 G2 X373.946 Y215. I-1.828 J.517
N1570 X374.455 Y214.15 I-1.319 J-1.367
N1580 G1 X375.433
N1590 G2 X376.101 Y215. I1.767 J-.7
N1600 G1 X386.6 Y215.15
N1610 F150.
N1620 X383.7 F500.
N1630 X377.2
N1640 G2 X375.836 Y216.234 I0. J1.4
N1650 G3 X375.69 Y216.35 I-.146 J-.034
N1660 G1 X374.14
N1670 G3 X374.025 Y216.296 I0. J-.15
N1680 G2 X373.287 Y215.132 I-1.398 J.071
N1690 G3 X373.208 Y215. I.07 J-.132
N1700 X373.287 Y214.868 I.149 J0.
N1710 G2 X374.025 Y213.704 I-.66 J-1.235
N1720 G3 X374.14 Y213.65 I.115 J.096
N1730 G1 X375.69
N1740 G3 X375.836 Y213.766 I0. J.15
N1750 G2 X377.2 Y214.85 I1.364 J-.316
N1760 G1 X383.7
N1770 X386.6
N1780 G0 Z.6
N1790 Z5.
N1800 X376.101 Y368.3
N1810 G1 Z-2.2 F150.
N1820 G2 X375.433 Y369.15 I1.099 J1.55 F500.
N1830 G1 X374.455
N1840 G2 X373.946 Y368.3 I-1.828 J.517
N1850 X374.455 Y367.45 I-1.319 J-1.367
N1860 G1 X375.433
N1870 G2 X376.101 Y368.3 I1.767 J-.7
N1880 G1 Z-4.4 F150.
N1890 G2 X375.433 Y369.15 I1.099 J1.55 F500.
N1900 G1 X374.455
N1910 G2 X373.946 Y368.3 I-1.828 J.517
N1920 X374.455 Y367.45 I-1.319 J-1.367
N1930 G1 X375.433
N1940 G2 X376.101 Y368.3 I1.767 J-.7
N1950 G1 X386.6 Y368.45
N1960 F150.
N1970 X383.7 F500.
N1980 X377.2
N1990 G2 X375.836 Y369.534 I0. J1.4
N2000 G3 X375.69 Y369.65 I-.146 J-.034
N2010 G1 X374.14
N2020 G3 X374.025 Y369.596 I0. J-.15
N2030 G2 X373.287 Y368.432 I-1.398 J.071
N2040 G3 X373.208 Y368.3 I.07 J-.132
N2050 X373.287 Y368.168 I.149 J0.
N2060 G2 X374.025 Y367.004 I-.66 J-1.235
N2070 G3 X374.14 Y366.95 I.115 J.096
N2080 G1 X375.69
N2090 G3 X375.836 Y367.066 I0. J.15
N2100 G2 X377.2 Y368.15 I1.364 J-.316
N2110 G1 X383.7
N2120 X386.6
N2130 G0 Z.6
N2140 Z5.
N2150 X14.599 Y368.3
N2160 G1 Z-2.2 F150.
N2170 G2 X15.267 Y367.45 I-1.099 J-1.55 F500.
N2180 G1 X16.245
N2190 G2 X16.754 Y368.3 I1.828 J-.517
N2200 X16.245 Y369.15 I1.319 J1.367
N2210 G1 X15.267
N2220 G2 X14.599 Y368.3 I-1.767 J.7
N2230 G1 Z-4.4 F150.
N2240 G2 X15.267 Y367.45 I-1.099 J-1.55 F500.
N2250 G1 X16.245
N2260 G2 X16.754 Y368.3 I1.828 J-.517
N2270 X16.245 Y369.15 I1.319 J1.367
N2280 G1 X15.267
N2290 G2 X14.599 Y368.3 I-1.767 J.7
N2300 G1 X4.1 Y368.15
N2310 F150.
N2320 X7. F500.
N2330 X13.5
N2340 G2 X14.864 Y367.066 I0. J-1.4
N2350 G3 X15.01 Y366.95 I.146 J.034
N2360 G1 X16.56
N2370 G3 X16.675 Y367.004 I0. J.15
N2380 G2 X17.413 Y368.168 I1.398 J-.071
N2390 G3 X17.492 Y368.3 I-.07 J.132
N2400 X17.413 Y368.432 I-.149 J0.
N2410 G2 X16.675 Y369.596 I.66 J1.235
N2420 G3 X16.56 Y369.65 I-.115 J-.096
N2430 G1 X15.01
N2440 G3 X14.864 Y369.534 I0. J-.15
N2450 G2 X13.5 Y368.45 I-1.364 J.316
N2460 G1 X7.
N2470 X4.1
N2480 G0 Z.6
N2490 Z5.
N2500 X14.599 Y215.
N2510 G1 Z-2.2 F150.
N2520 G2 X15.267 Y214.15 I-1.099 J-1.55 F500.
N2530 G1 X16.245
N2540 G2 X16.754 Y215. I1.828 J-.517
N2550 X16.245 Y215.85 I1.319 J1.367
N2560 G1 X15.267
N2570 G2 X14.599 Y215. I-1.767 J.7
N2580 G1 Z-4.4 F150.
N2590 G2 X15.267 Y214.15 I-1.099 J-1.55 F500.
N2600 G1 X16.245
N2610 G2 X16.754 Y215. I1.828 J-.517
N2620 X16.245 Y215.85 I1.319 J1.367
N2630 G1 X15.267
N2640 G2 X14.599 Y215. I-1.767 J.7
N2650 G1 X4.1 Y214.85
N2660 F150.
N2670 X7. F500.
N2680 X13.5
N2690 G2 X14.864 Y213.766 I0. J-1.4
N2700 G3 X15.01 Y213.65 I.146 J.034
N2710 G1 X16.56
N2720 G3 X16.675 Y213.704 I0. J.15
N2730 G2 X17.413 Y214.868 I1.398 J-.071
N2740 G3 X17.492 Y215. I-.07 J.132
N2750 X17.413 Y215.132 I-.149 J0.
N2760 G2 X16.675 Y216.296 I.66 J1.235
N2770 G3 X16.56 Y216.35 I-.115 J-.096
N2780 G1 X15.01
N2790 G3 X14.864 Y216.234 I0. J-.15
N2800 G2 X13.5 Y215.15 I-1.364 J.316
N2810 G1 X7.
N2820 X4.1
N2830 G0 Z.6
N2840 Z5.
N2850 X14.599 Y61.7
N2860 G1 Z-2.2 F150.
N2870 G2 X15.267 Y60.85 I-1.099 J-1.55 F500.
N2880 G1 X16.245
N2890 G2 X16.754 Y61.7 I1.828 J-.517
N2900 X16.245 Y62.55 I1.319 J1.367
N2910 G1 X15.267
N2920 G2 X14.599 Y61.7 I-1.767 J.7
N2930 G1 Z-4.4 F150.
N2940 G2 X15.267 Y60.85 I-1.099 J-1.55 F500.
N2950 G1 X16.245
N2960 G2 X16.754 Y61.7 I1.828 J-.517
N2970 X16.245 Y62.55 I1.319 J1.367
N2980 G1 X15.267
N2990 G2 X14.599 Y61.7 I-1.767 J.7
N3000 G1 X4.1 Y61.55
N3010 F150.
N3020 X7. F500.
N3030 X13.5
N3040 G2 X14.864 Y60.466 I0. J-1.4
N3050 G3 X15.01 Y60.35 I.146 J.034
N3060 G1 X16.56
N3070 G3 X16.675 Y60.404 I0. J.15
N3080 G2 X17.413 Y61.568 I1.398 J-.071
N3090 G3 X17.492 Y61.7 I-.07 J.132
N3100 X17.413 Y61.832 I-.149 J0.
N3110 G2 X16.675 Y62.996 I.66 J1.235
N3120 G3 X16.56 Y63.05 I-.115 J-.096
N3130 G1 X15.01
N3140 G3 X14.864 Y62.934 I0. J-.15
N3150 G2 X13.5 Y61.85 I-1.364 J.316
N3160 G1 X7.
N3170 X4.1
N3180 G0 Z5.
N3190 X307.304 Y152.948
N3200 G1 Z-2.067 F150.
N3210 G3 X311.204 Y156.848 I0. J3.9 F500.
N3220 G1 Y186.848
N3230 G2 X316.513 Y210.456 I55.153 J0.
N3240 G3 X317.658 Y215.549 I-10.755 J5.093
N3250 X305.758 Y227.449 I-11.9 J0.
N3260 G1 X91.176
N3270 G3 X79.276 Y215.549 I0. J-11.9
N3280 X80.548 Y210.197 I11.9 J0.
N3290 G2 X85.476 Y189.455 I-41.191 J-20.742
N3300 X85.404 Y186.9 I-46.119 J0.
N3310 G1 Y156.848
N3320 G3 X89.304 Y152.948 I3.9 J0.
N3330 G1 X166.189
N3340 G3 X170.089 Y156.848 I0. J3.9
N3350 G1 Y158.038
N3360 X226.52
N3370 Y156.848
N3380 G3 X230.42 Y152.948 I3.9 J0.
N3390 G1 X307.304
N3400 Z-4.133 F150.
N3410 G3 X311.204 Y156.848 I0. J3.9 F500.
N3420 G1 Y186.848
N3430 G2 X316.513 Y210.456 I55.153 J0.
N3440 G3 X317.658 Y215.549 I-10.755 J5.093
N3450 X305.758 Y227.449 I-11.9 J0.
N3460 G1 X91.176
N3470 G3 X79.276 Y215.549 I0. J-11.9
N3480 X80.548 Y210.197 I11.9 J0.
N3490 G2 X85.476 Y189.455 I-41.191 J-20.742
N3500 X85.404 Y186.9 I-46.119 J0.
N3510 G1 Y156.848
N3520 G3 X89.304 Y152.948 I3.9 J0.
N3530 G1 X166.189
N3540 G3 X170.089 Y156.848 I0. J3.9
N3550 G1 Y158.038
N3560 X226.52
N3570 Y156.848
N3580 G3 X230.42 Y152.948 I3.9 J0.
N3590 G1 X307.304
N3600 Z-6.2 F150.
N3610 G3 X311.204 Y156.848 I0. J3.9 F500.
N3620 G1 Y186.848
N3630 G2 X316.513 Y210.456 I55.153 J0.
N3640 G3 X317.658 Y215.549 I-10.755 J5.093
N3650 X305.758 Y227.449 I-11.9 J0.
N3660 G1 X296.037
N3670 X294.337 Z-4.5
N3680 X274.837
N3690 X273.137 Z-6.2
N3700 X95.548
N3710 X93.848 Z-4.5
N3720 X91.176
N3730 G3 X79.422 Y217.406 I0. J-11.9
N3740 X79.277 Y215.714 Z-6.2 I11.754 J-1.857
N3750 X79.276 Y215.549 I11.899 J-.165
N3760 X80.548 Y210.197 I11.9 J0.
N3770 G2 X85.476 Y189.455 I-41.191 J-20.742
N3780 X85.404 Y186.9 I-46.119 J0.
N3790 G1 Y156.848
N3800 G3 X89.304 Y152.948 I3.9 J0.
N3810 G1 X166.189
N3820 G3 X170.089 Y156.848 I0. J3.9
N3830 G1 Y158.038
N3840 X200.406
N3850 X202.106 Z-4.5
N3860 X221.606
N3870 X223.306 Z-6.2
N3880 X226.52
N3890 Y156.848
N3900 G3 X230.42 Y152.948 I3.9 J0.
N3910 G1 X307.304
N3920 Y153.448
N3930 G3 X310.704 Y156.848 I0. J3.4
N3940 G1 Y186.848
N3950 G2 X316.061 Y210.67 I55.653 J0.
N3960 G3 X317.158 Y215.549 I-10.303 J4.879
N3970 X305.758 Y226.949 I-11.4 J0.
N3980 G1 X296.037
N3990 X294.337 Z-4.5
N4000 X274.837
N4010 X273.137 Z-6.2
N4020 X95.845
N4030 X94.145 Z-4.5
N4040 X91.176
N4050 G3 X79.859 Y216.922 I0. J-11.4
N4060 X79.776 Y215.549 Z-5.876 I11.317 J-1.373
N4070 X79.781 Y215.226 Z-6.199 I11.4 J0.
N4080 X80.994 Y210.422 Z-6.2 I11.395 J.323
N4090 G2 X85.975 Y189.455 I-41.637 J-20.967
N4100 X85.904 Y186.886 I-46.618 J0.
N4110 G1 Y156.848
N4120 G3 X89.304 Y153.448 I3.4 J0.
N4130 G1 X166.189
N4140 G3 X169.589 Y156.848 I0. J3.4
N4150 G1 Y158.538
N4160 X200.406
N4170 X202.106 Z-4.5
N4180 X221.606
N4190 X223.306 Z-6.2
N4200 X227.02
N4210 Y156.848
N4220 G3 X230.42 Y153.448 I3.4 J0.
N4230 G1 X307.304
N4240 G0 Z5.
N4250 X331.35 Y384.1
N4260 G1 Z-2.067 F150.
N4270 X63.5 F500.
N4280 G3 X58.9 Y379.5 I0. J-4.6
N4290 G1 Y131.33
N4300 G3 X60.481 Y129.216 I2.203 J0.
N4310 X197.549 Y111.125 I137.068 J510.207
N4320 X279.937 Y117.589 I0. J528.298
N4330 X282.11 Y120.132 I-.402 J2.543
N4340 G1 Y141.922
N4350 G2 X288.935 Y148.748 I6.825 J0.
N4360 G1 X333.831
N4370 G3 X335.95 Y150.867 I0. J2.119
N4380 G1 Y379.5
N4390 G3 X331.35 Y384.1 I-4.6 J0.
N4400 G1 Z-4.133 F150.
N4410 X63.5 F500.
N4420 G3 X58.9 Y379.5 I0. J-4.6
N4430 G1 Y131.33
N4440 G3 X60.481 Y129.216 I2.203 J0.
N4450 X197.549 Y111.125 I137.068 J510.207
N4460 X279.937 Y117.589 I0. J528.298
N4470 X282.11 Y120.132 I-.402 J2.543
N4480 G1 Y141.922
N4490 G2 X288.935 Y148.748 I6.825 J0.
N4500 G1 X333.831
N4510 G3 X335.95 Y150.867 I0. J2.119
N4520 G1 Y379.5
N4530 G3 X331.35 Y384.1 I-4.6 J0.
N4540 G1 Z-6.2 F150.
N4550 X207.846 F500.
N4560 X206.146 Z-4.5
N4570 X186.646
N4580 X184.946 Z-6.2
N4590 X63.5
N4600 G3 X58.9 Y379.5 I0. J-4.6
N4610 G1 Y264.149
N4620 Y262.449 Z-4.5
N4630 Y242.949
N4640 Y241.249 Z-6.2
N4650 Y131.33
N4660 G3 X60.481 Y129.216 I2.203 J0.
N4670 X190.154 Y111.177 I137.068 J510.207
N4680 X191.854 Y111.156 Z-4.5 I7.395 J528.246
N4690 X197.549 Y111.125 I5.695 J528.267
N4700 X211.352 Y111.305 I0. J528.298
N4710 X213.051 Y111.353 Z-6.2 I-13.803 J528.118
N4720 X279.937 Y117.589 I-15.502 J528.07
N4730 X282.11 Y120.132 I-.402 J2.543
N4740 G1 Y141.922
N4750 G2 X288.935 Y148.748 I6.825 J0.
N4760 G1 X333.831
N4770 G3 X335.95 Y150.867 I0. J2.119
N4780 G1 Y243.306
N4790 Y245.006 Z-4.5
N4800 Y264.506
N4810 Y266.206 Z-6.2
N4820 Y379.5
N4830 G3 X331.35 Y384.1 I-4.6 J0.
N4840 G1 Y384.6
N4850 X207.846
N4860 X206.146 Z-4.5
N4870 X186.646
N4880 X184.946 Z-6.2
N4890 X63.5
N4900 G3 X58.4 Y379.5 I0. J-5.1
N4910 G1 Y264.149
N4920 Y262.449 Z-4.5
N4930 Y242.949
N4940 Y241.249 Z-6.2
N4950 Y131.33
N4960 G3 X60.346 Y128.735 I2.703 J0.
N4970 X190.158 Y110.677 I137.203 J510.688
N4980 X191.857 Y110.656 Z-4.5 I7.391 J528.746
N4990 X197.549 Y110.625 I5.692 J528.767
N5000 X211.356 Y110.805 I0. J528.798
N5010 X213.055 Y110.853 Z-6.2 I-13.807 J528.618
N5020 X280.015 Y117.095 I-15.506 J528.57
N5030 X282.61 Y120.132 I-.48 J3.037
N5040 G1 Y141.922
N5050 G2 X288.935 Y148.248 I6.325 J0.
N5060 G1 X333.831
N5070 G3 X336.45 Y150.867 I0. J2.619
N5080 G1 Y243.306
N5090 Y245.006 Z-4.5
N5100 Y264.506
N5110 Y266.206 Z-6.2
N5120 Y379.5
N5130 G3 X331.35 Y384.6 I-5.1 J0.
N5140 G0 Z5.
N5150 X385.6 Y196.9
N5160 G1 Z-2.067 F150.
N5170 Y233.1 F500.
N5180 X387.85
N5190 G3 X389.75 Y235. I0. J1.9
N5200 G1 Y245.
N5210 G3 X387.85 Y246.9 I-1.9 J0.
N5220 G1 X385.6
N5230 Y336.4
N5240 X387.85
N5250 G3 X389.75 Y338.3 I0. J1.9
N5260 G1 Y348.3
N5270 G3 X387.85 Y350.2 I-1.9 J0.
N5280 G1 X385.6
N5290 Y386.4
N5300 X387.85
N5310 G3 X389.75 Y388.3 I0. J1.9
N5320 G1 Y398.3
N5330 G3 X387.85 Y400.2 I-1.9 J0.
N5340 G1 X385.6
N5350 Y404.1
N5360 G3 X377.7 Y412. I-7.9 J0.
N5370 G1 X351.7
N5380 G2 X346.644 Y414.358 I0. J6.6
N5390 G1 X343.433 Y418.185
N5400 G3 X335.466 Y421.9 I-7.967 J-6.685
N5410 G1 X55.234
N5420 G3 X47.267 Y418.185 I0. J-10.4
N5430 G1 X44.056 Y414.358
N5440 G2 X39. Y412. I-5.056 J4.242
N5450 G1 X13.
N5460 G3 X5.1 Y404.1 I0. J-7.9
N5470 G1 Y400.2
N5480 X2.85
N5490 G3 X.95 Y398.3 I0. J-1.9
N5500 G1 Y388.3
N5510 G3 X2.85 Y386.4 I1.9 J0.
N5520 G1 X5.1
N5530 Y350.2
N5540 X2.85
N5550 G3 X.95 Y348.3 I0. J-1.9
N5560 G1 Y338.3
N5570 G3 X2.85 Y336.4 I1.9 J0.
N5580 G1 X5.1
N5590 Y246.9
N5600 X2.85
N5610 G3 X.95 Y245. I0. J-1.9
N5620 G1 Y235.
N5630 G3 X2.85 Y233.1 I1.9 J0.
N5640 G1 X5.1
N5650 Y196.9
N5660 X2.85
N5670 G3 X.95 Y195. I0. J-1.9
N5680 G1 Y185.
N5690 G3 X2.85 Y183.1 I1.9 J0.
N5700 G1 X5.1
N5710 Y93.6
N5720 X2.85
N5730 G3 X.95 Y91.7 I0. J-1.9
N5740 G1 Y81.7
N5750 G3 X2.85 Y79.8 I1.9 J0.
N5760 G1 X5.1
N5770 Y43.6
N5780 X2.85
N5790 G3 X.95 Y41.7 I0. J-1.9
N5800 G1 Y31.7
N5810 G3 X2.85 Y29.8 I1.9 J0.
N5820 G1 X5.1
N5830 Y6.
N5840 G3 X13. Y-1.9 I7.9 J0.
N5850 G1 X45.
N5860 G3 X52.967 Y1.815 I0. J10.4
N5870 G1 X57.159 Y6.811
N5880 G2 X59.923 Y8.1 I2.764 J-2.319
N5890 G1 X330.777
N5900 G2 X333.541 Y6.811 I0. J-3.608
N5910 G1 X337.733 Y1.815
N5920 G3 X345.7 Y-1.9 I7.967 J6.685
N5930 G1 X377.7
N5940 G3 X385.6 Y6. I0. J7.9
N5950 G1 Y29.8
N5960 X387.85
N5970 G3 X389.75 Y31.7 I0. J1.9
N5980 G1 Y41.7
N5990 G3 X387.85 Y43.6 I-1.9 J0.
N6000 G1 X385.6
N6010 Y79.8
N6020 X387.85
N6030 G3 X389.75 Y81.7 I0. J1.9
N6040 G1 Y91.7
N6050 G3 X387.85 Y93.6 I-1.9 J0.
N6060 G1 X385.6
N6070 Y183.1
N6080 X387.85
N6090 G3 X389.75 Y185. I0. J1.9
N6100 G1 Y195.
N6110 G3 X387.85 Y196.9 I-1.9 J0.
N6120 G1 X385.6
N6130 Z-4.133 F150.
N6140 Y233.1 F500.
N6150 X387.85
N6160 G3 X389.75 Y235. I0. J1.9
N6170 G1 Y245.
N6180 G3 X387.85 Y246.9 I-1.9 J0.
N6190 G1 X385.6
N6200 Y336.4
N6210 X387.85
N6220 G3 X389.75 Y338.3 I0. J1.9
N6230 G1 Y348.3
N6240 G3 X387.85 Y350.2 I-1.9 J0.
N6250 G1 X385.6
N6260 Y386.4
N6270 X387.85
N6280 G3 X389.75 Y388.3 I0. J1.9
N6290 G1 Y398.3
N6300 G3 X387.85 Y400.2 I-1.9 J0.
N6310 G1 X385.6
N6320 Y404.1
N6330 G3 X377.7 Y412. I-7.9 J0.
N6340 G1 X351.7
N6350 G2 X346.644 Y414.358 I0. J6.6
N6360 G1 X343.433 Y418.185
N6370 G3 X335.466 Y421.9 I-7.967 J-6.685
N6380 G1 X55.234
N6390 G3 X47.267 Y418.185 I0. J-10.4
N6400 G1 X44.056 Y414.358
N6410 G2 X39. Y412. I-5.056 J4.242
N6420 G1 X13.
N6430 G3 X5.1 Y404.1 I0. J-7.9
N6440 G1 Y400.2
N6450 X2.85
N6460 G3 X.95 Y398.3 I0. J-1.9
N6470 G1 Y388.3
N6480 G3 X2.85 Y386.4 I1.9 J0.
N6490 G1 X5.1
N6500 Y350.2
N6510 X2.85
N6520 G3 X.95 Y348.3 I0. J-1.9
N6530 G1 Y338.3
N6540 G3 X2.85 Y336.4 I1.9 J0.
N6550 G1 X5.1
N6560 Y246.9
N6570 X2.85
N6580 G3 X.95 Y245. I0. J-1.9
N6590 G1 Y235.
N6600 G3 X2.85 Y233.1 I1.9 J0.
N6610 G1 X5.1
N6620 Y196.9
N6630 X2.85
N6640 G3 X.95 Y195. I0. J-1.9
N6650 G1 Y185.
N6660 G3 X2.85 Y183.1 I1.9 J0.
N6670 G1 X5.1
N6680 Y93.6
N6690 X2.85
N6700 G3 X.95 Y91.7 I0. J-1.9
N6710 G1 Y81.7
N6720 G3 X2.85 Y79.8 I1.9 J0.
N6730 G1 X5.1
N6740 Y43.6
N6750 X2.85
N6760 G3 X.95 Y41.7 I0. J-1.9
N6770 G1 Y31.7
N6780 G3 X2.85 Y29.8 I1.9 J0.
N6790 G1 X5.1
N6800 Y6.
N6810 G3 X13. Y-1.9 I7.9 J0.
N6820 G1 X45.
N6830 G3 X52.967 Y1.815 I0. J10.4
N6840 G1 X57.159 Y6.811
N6850 G2 X59.923 Y8.1 I2.764 J-2.319
N6860 G1 X330.777
N6870 G2 X333.541 Y6.811 I0. J-3.608
N6880 G1 X337.733 Y1.815
N6890 G3 X345.7 Y-1.9 I7.967 J6.685
N6900 G1 X377.7
N6910 G3 X385.6 Y6. I0. J7.9
N6920 G1 Y29.8
N6930 X387.85
N6940 G3 X389.75 Y31.7 I0. J1.9
N6950 G1 Y41.7
N6960 G3 X387.85 Y43.6 I-1.9 J0.
N6970 G1 X385.6
N6980 Y79.8
N6990 X387.85
N7000 G3 X389.75 Y81.7 I0. J1.9
N7010 G1 Y91.7
N7020 G3 X387.85 Y93.6 I-1.9 J0.
N7030 G1 X385.6
N7040 Y183.1
N7050 X387.85
N7060 G3 X389.75 Y185. I0. J1.9
N7070 G1 Y195.
N7080 G3 X387.85 Y196.9 I-1.9 J0.
N7090 G1 X385.6
N7100 Z-6.2 F150.
N7110 Y233.1 F500.
N7120 X387.85
N7130 G3 X389.75 Y235. I0. J1.9
N7140 G1 Y245.
N7150 G3 X387.85 Y246.9 I-1.9 J0.
N7160 G1 X385.6
N7170 Y296.829
N7180 Y298.529 Z-4.5
N7190 Y318.029
N7200 Y319.729 Z-6.2
N7210 Y336.4
N7220 X387.85
N7230 G3 X389.75 Y338.3 I0. J1.9
N7240 G1 Y348.3
N7250 G3 X387.85 Y350.2 I-1.9 J0.
N7260 G1 X385.6
N7270 Y386.4
N7280 X387.85
N7290 G3 X389.75 Y388.3 I0. J1.9
N7300 G1 Y398.3
N7310 G3 X387.85 Y400.2 I-1.9 J0.
N7320 G1 X385.6
N7330 Y404.1
N7340 G3 X377.7 Y412. I-7.9 J0.
N7350 G1 X351.7
N7360 G2 X346.644 Y414.358 I0. J6.6
N7370 G1 X343.433 Y418.185
N7380 G3 X335.466 Y421.9 I-7.967 J-6.685
N7390 G1 X274.536
N7400 X272.836 Z-4.5
N7410 X253.336
N7420 X251.636 Z-6.2
N7430 X55.234
N7440 G3 X47.267 Y418.185 I0. J-10.4
N7450 G1 X44.056 Y414.358
N7460 G2 X40.717 Y412.227 I-5.056 J4.242
N7470 X39.037 Y412. Z-4.5 I-1.717 J6.373
N7480 G1 X39.
N7490 X19.537
N7500 X17.837 Z-6.2
N7510 X13.
N7520 G3 X5.1 Y404.1 I0. J-7.9
N7530 G1 Y400.2
N7540 X2.85
N7550 G3 X.95 Y398.3 I0. J-1.9
N7560 G1 Y388.3
N7570 G3 X2.85 Y386.4 I1.9 J0.
N7580 G1 X5.1
N7590 Y350.2
N7600 X2.85
N7610 G3 X.95 Y348.3 I0. J-1.9
N7620 G1 Y338.3
N7630 G3 X2.85 Y336.4 I1.9 J0.
N7640 G1 X5.1
N7650 Y246.9
N7660 X2.85
N7670 G3 X.95 Y245. I0. J-1.9
N7680 G1 Y235.
N7690 G3 X2.85 Y233.1 I1.9 J0.
N7700 G1 X5.1
N7710 Y224.774
N7720 Y223.074 Z-4.5
N7730 Y203.574
N7740 Y201.874 Z-6.2
N7750 Y196.9
N7760 X2.85
N7770 G3 X.95 Y195. I0. J-1.9
N7780 G1 Y185.
N7790 G3 X2.85 Y183.1 I1.9 J0.
N7800 G1 X5.1
N7810 Y93.6
N7820 X2.85
N7830 G3 X.95 Y91.7 I0. J-1.9
N7840 G1 Y81.7
N7850 G3 X2.85 Y79.8 I1.9 J0.
N7860 G1 X5.1
N7870 Y43.6
N7880 X2.85
N7890 G3 X.95 Y41.7 I0. J-1.9
N7900 G1 Y31.7
N7910 G3 X2.85 Y29.8 I1.9 J0.
N7920 G1 X5.1
N7930 Y6.
N7940 G3 X5.124 Y5.385 I7.9 J0.
N7950 X5.437 Y3.717 Z-4.5 I7.876 J.615
N7960 X13. Y-1.9 I7.563 J2.283
N7970 G1 X22.406
N7980 X24.106 Z-6.2
N7990 X45.
N8000 G3 X52.967 Y1.815 I0. J10.4
N8010 G1 X57.159 Y6.811
N8020 G2 X59.923 Y8.1 I2.764 J-2.319
N8030 G1 X234.862
N8040 X236.562 Z-4.5
N8050 X256.062
N8060 X257.762 Z-6.2
N8070 X330.777
N8080 G2 X333.541 Y6.811 I0. J-3.608
N8090 G1 X337.733 Y1.815
N8100 G3 X345.7 Y-1.9 I7.967 J6.685
N8110 G1 X377.7
N8120 G3 X385.6 Y6. I0. J7.9
N8130 G1 Y29.8
N8140 X387.85
N8150 G3 X389.75 Y31.7 I0. J1.9
N8160 G1 Y41.7
N8170 G3 X387.85 Y43.6 I-1.9 J0.
N8180 G1 X385.6
N8190 Y79.8
N8200 X385.991
N8210 X387.691 Z-4.5
N8220 X387.85
N8230 G3 X389.75 Y81.7 I0. J1.9
N8240 G1 Y91.7
N8250 G3 X387.85 Y93.6 I-1.9 J0.
N8260 G1 X385.6
N8270 Y94.722
N8280 Y96.422 Z-6.2
N8290 Y183.1
N8300 X387.85
N8310 G3 X389.75 Y185. I0. J1.9
N8320 G1 Y195.
N8330 G3 X387.85 Y196.9 I-1.9 J0.
N8340 G1 X385.6
N8350 X385.1 Y196.55
N8360 Y233.45
N8370 G2 X385.25 Y233.6 I.15 J0.
N8380 G1 X387.85
N8390 G3 X389.25 Y235. I0. J1.4
N8400 G1 Y245.
N8410 G3 X387.85 Y246.4 I-1.4 J0.
N8420 G1 X385.25
N8430 G2 X385.1 Y246.55 I0. J.15
N8440 G1 Y296.829
N8450 Y298.529 Z-4.5
N8460 Y318.029
N8470 Y319.729 Z-6.2
N8480 Y336.75
N8490 G2 X385.25 Y336.9 I.15 J0.
N8500 G1 X387.85
N8510 G3 X389.25 Y338.3 I0. J1.4
N8520 G1 Y348.3
N8530 G3 X387.85 Y349.7 I-1.4 J0.
N8540 G1 X385.25
N8550 G2 X385.1 Y349.85 I0. J.15
N8560 G1 Y386.75
N8570 G2 X385.25 Y386.9 I.15 J0.
N8580 G1 X387.85
N8590 G3 X389.25 Y388.3 I0. J1.4
N8600 G1 Y398.3
N8610 G3 X387.85 Y399.7 I-1.4 J0.
N8620 G1 X385.25
N8630 G2 X385.1 Y399.85 I0. J.15
N8640 G1 Y404.1
N8650 G3 X377.7 Y411.5 I-7.4 J0.
N8660 G1 X351.7
N8670 G2 X346.261 Y414.036 I0. J7.1
N8680 G1 X343.05 Y417.864
N8690 G3 X335.466 Y421.4 I-7.584 J-6.364
N8700 G1 X274.536
N8710 X272.836 Z-4.5
N8720 X253.336
N8730 X251.636 Z-6.2
N8740 X55.234
N8750 G3 X47.65 Y417.864 I0. J-9.9
N8760 G1 X44.439 Y414.036
N8770 G2 X40.72 Y411.711 I-5.439 J4.564
N8780 X39.037 Y411.5 Z-4.5 I-1.72 J6.889
N8790 G1 X39.
N8800 X19.537
N8810 X17.837 Z-6.2
N8820 X13.
N8830 G3 X5.6 Y404.1 I0. J-7.4
N8840 G1 Y399.85
N8850 G2 X5.45 Y399.7 I-.15 J0.
N8860 G1 X2.85
N8870 G3 X1.45 Y398.3 I0. J-1.4
N8880 G1 Y388.3
N8890 G3 X2.85 Y386.9 I1.4 J0.
N8900 G1 X5.45
N8910 G2 X5.6 Y386.75 I0. J-.15
N8920 G1 Y349.85
N8930 G2 X5.45 Y349.7 I-.15 J0.
N8940 G1 X2.85
N8950 G3 X1.45 Y348.3 I0. J-1.4
N8960 G1 Y338.3
N8970 G3 X2.85 Y336.9 I1.4 J0.
N8980 G1 X5.45
N8990 G2 X5.6 Y336.75 I0. J-.15
N9000 G1 Y246.55
N9010 G2 X5.45 Y246.4 I-.15 J0.
N9020 G1 X2.85
N9030 G3 X1.45 Y245. I0. J-1.4
N9040 G1 Y235.
N9050 G3 X2.85 Y233.6 I1.4 J0.
N9060 G1 X5.45
N9070 G2 X5.6 Y233.45 I0. J-.15
N9080 G1 Y224.774
N9090 Y223.074 Z-4.5
N9100 Y203.574
N9110 Y201.874 Z-6.2
N9120 Y196.55
N9130 G2 X5.45 Y196.4 I-.15 J0.
N9140 G1 X2.85
N9150 G3 X1.45 Y195. I0. J-1.4
N9160 G1 Y185.
N9170 G3 X2.85 Y183.6 I1.4 J0.
N9180 G1 X5.45
N9190 G2 X5.6 Y183.45 I0. J-.15
N9200 G1 Y93.25
N9210 G2 X5.45 Y93.1 I-.15 J0.
N9220 G1 X2.85
N9230 G3 X1.45 Y91.7 I0. J-1.4
N9240 G1 Y81.7
N9250 G3 X2.85 Y80.3 I1.4 J0.
N9260 G1 X5.45
N9270 G2 X5.6 Y80.15 I0. J-.15
N9280 G1 Y43.25
N9290 G2 X5.45 Y43.1 I-.15 J0.
N9300 G1 X2.85
N9310 G3 X1.45 Y41.7 I0. J-1.4
N9320 G1 Y31.7
N9330 G3 X2.85 Y30.3 I1.4 J0.
N9340 G1 X5.45
N9350 G2 X5.6 Y30.15 I0. J-.15
N9360 G1 Y6.148
N9370 Y6. Z-6.052
N9380 G3 X5.762 Y4.459 Z-4.5 I7.4 J0.
N9390 X13. Y-1.4 I7.238 J1.541
N9400 G1 X22.428
N9410 X24.128 Z-6.2
N9420 X45.
N9430 G3 X52.584 Y2.136 I0. J9.9
N9440 G1 X56.776 Y7.132
N9450 G2 X59.923 Y8.6 I3.147 J-2.64
N9460 G1 X234.862
N9470 X236.562 Z-4.5
N9480 X256.062
N9490 X257.762 Z-6.2
N9500 X330.777
N9510 G2 X333.924 Y7.132 I0. J-4.108
N9520 G1 X338.116 Y2.136
N9530 G3 X345.7 Y-1.4 I7.584 J6.364
N9540 G1 X377.7
N9550 G3 X385.1 Y6. I0. J7.4
N9560 G1 Y30.15
N9570 G2 X385.25 Y30.3 I.15 J0.
N9580 G1 X387.85
N9590 G3 X389.25 Y31.7 I0. J1.4
N9600 G1 Y41.7
N9610 G3 X387.85 Y43.1 I-1.4 J0.
N9620 G1 X385.25
N9630 G2 X385.1 Y43.25 I0. J.15
N9640 G1 Y80.15
N9650 G2 X385.206 Y80.293 I.15 J0.
N9660 X385.25 Y80.3 Z-6.155 I.044 J-.143
N9670 G1 X386.905 Z-4.5
N9680 X387.85
N9690 G3 X389.25 Y81.7 I0. J1.4
N9700 G1 Y91.7
N9710 G3 X387.85 Y93.1 I-1.4 J0.
N9720 G1 X385.25
N9730 G2 X385.1 Y93.25 I0. J.15
N9740 G1 Y94.571
N9750 Y96.271 Z-6.2
N9760 Y183.45
N9770 G2 X385.25 Y183.6 I.15 J0.
N9780 G1 X387.85
N9790 G3 X389.25 Y185. I0. J1.4
N9800 G1 Y195.
N9810 G3 X387.85 Y196.4 I-1.4 J0.
N9820 G1 X385.25
N9830 G2 X385.1 Y196.55 I0. J.15
N9840 G0 Z5.
N9850 X296.037 Y226.949
N9860 G1 Z-6.2
N9870 X273.137
N9880 G0 Z5.
N9890 X95.845
N9900 G1 Z-6.2
N9910 X91.176
N9920 G3 X79.776 Y215.549 I0. J-11.4
N9930 X79.781 Y215.226 I11.4 J0.
N9940 G0 Z5.
N9950 X200.406 Y158.538
N9960 G1 Z-6.2
N9970 X223.306
N9980 G0 Z5.
N9990 X207.846 Y384.6
N100 G1 Z-6.2
N110 X184.946
N120 G0 Z5.
N130 X58.4 Y264.149
N140 G1 Z-6.2
N150 Y241.249
N160 G0 Z5.
N170 X190.158 Y110.677
N180 G1 Z-6.2
N190 G3 X197.549 Y110.625 I7.391 J528.746
N200 X213.055 Y110.853 I0. J528.798
N210 G0 Z5.
N220 X336.45 Y243.306
N230 G1 Z-6.2
N240 Y266.206
N250 G0 Z5.
N260 X385.1 Y296.829
N270 G1 Z-6.2
N280 Y319.729
N290 G0 Z5.
N300 X274.536 Y421.4
N310 G1 Z-6.2
N320 X251.636
N330 G0 Z5.
N340 X40.72 Y411.711
N350 G1 Z-6.2
N360 G2 X39. Y411.5 I-1.72 J6.889
N370 G1 X17.837
N380 G0 Z5.
N390 X5.6 Y224.774
N400 G1 Z-6.2
N410 Y201.874
N420 G0 Z5.
N430 Y6.148
N440 G1 Z-6.2
N450 Y6.
N460 G3 X13. Y-1.4 I7.4 J0.
N470 G1 X24.128
N480 G0 Z5.
N490 X234.862 Y8.6
N500 G1 Z-6.2
N510 X257.762
N520 G0 Z5.
N530 X385.206 Y80.293
N540 G1 Z-6.2
N550 G2 X385.25 Y80.3 I.044 J-.143
N560 G1 X387.85
N570 G3 X389.25 Y81.7 I0. J1.4
N580 G1 Y91.7
N590 G3 X387.85 Y93.1 I-1.4 J0.
N600 G1 X385.25
N610 G2 X385.1 Y93.25 I0. J.15
N620 G1 Y96.271
N630 G0 Z5.
N640 M5
N650 G91 G28 Z10
N670 M30
%
