%
O0000(CAMPANELSUPERIOR1)
(DATE=DD-MM-YY - 15-09-15 TIME=HH:MM - 02:00)
(MCX FILE - C:\USERS\CAMPY\DESKTOP\PANELES ULTICAMPY V3 CAM\CAMPANELSUPERIOR1.SLDASM)
(NC FILE - C:\USERS\CAMPY\DESKTOP\PANELES ULTICAMPY V3 CAM\MACH3\CAMPANELSUPERIOR1.NC)
(MATERIAL - ALUMINUM MM - 2024)
( T2 | FRESA 3MM CAJA AZUL | H2 | XY STOCK TO LEAVE - -.05 | Z STOCK TO LEAVE - 0. )
N100 G21
N110 G0 G17 G40 G49 G80 G90
N120 T2 M6 Z5
N130 G0 G90 G54 X51.1 Y297. A0. S15000 M3
N140 G43 H2 Z5.
N150 G1 Z-2.067 F150.
N160 G3 X51. Y297.1 I-.1 J0. F500.
N170 X50.9 Y297. I0. J-.1
N180 X51. Y296.9 I.1 J0.
N190 X51.1 Y297. I0. J.1
N200 G1 Z-4.133 F150.
N210 G3 X51. Y297.1 I-.1 J0. F500.
N220 X50.9 Y297. I0. J-.1
N230 X51. Y296.9 I.1 J0.
N240 X51.1 Y297. I0. J.1
N250 G1 Z-6.2 F150.
N260 G3 X51. Y297.1 I-.1 J0. F500.
N270 X50.9 Y297. I0. J-.1
N280 X51. Y296.9 I.1 J0.
N290 X51.1 Y297. I0. J.1
N300 G0 Z-1.2
N310 Z5.
N320 Y52.
N330 G1 Z-2.067 F150.
N340 G3 X51. Y52.1 I-.1 J0. F500.
N350 X50.9 Y52. I0. J-.1
N360 X51. Y51.9 I.1 J0.
N370 X51.1 Y52. I0. J.1
N380 G1 Z-4.133 F150.
N390 G3 X51. Y52.1 I-.1 J0. F500.
N400 X50.9 Y52. I0. J-.1
N410 X51. Y51.9 I.1 J0.
N420 X51.1 Y52. I0. J.1
N430 G1 Z-6.2 F150.
N440 G3 X51. Y52.1 I-.1 J0. F500.
N450 X50.9 Y52. I0. J-.1
N460 X51. Y51.9 I.1 J0.
N470 X51.1 Y52. I0. J.1
N480 G0 Z-1.2
N490 Z5.
N500 X336.1
N510 G1 Z-2.067 F150.
N520 G3 X336. Y52.1 I-.1 J0. F500.
N530 X335.9 Y52. I0. J-.1
N540 X336. Y51.9 I.1 J0.
N550 X336.1 Y52. I0. J.1
N560 G1 Z-4.133 F150.
N570 G3 X336. Y52.1 I-.1 J0. F500.
N580 X335.9 Y52. I0. J-.1
N590 X336. Y51.9 I.1 J0.
N600 X336.1 Y52. I0. J.1
N610 G1 Z-6.2 F150.
N620 G3 X336. Y52.1 I-.1 J0. F500.
N630 X335.9 Y52. I0. J-.1
N640 X336. Y51.9 I.1 J0.
N650 X336.1 Y52. I0. J.1
N660 G0 Z-1.2
N670 Z5.
N680 Y297.
N690 G1 Z-2.067 F150.
N700 G3 X336. Y297.1 I-.1 J0. F500.
N710 X335.9 Y297. I0. J-.1
N720 X336. Y296.9 I.1 J0.
N730 X336.1 Y297. I0. J.1
N740 G1 Z-4.133 F150.
N750 G3 X336. Y297.1 I-.1 J0. F500.
N760 X335.9 Y297. I0. J-.1
N770 X336. Y296.9 I.1 J0.
N780 X336.1 Y297. I0. J.1
N790 G1 Z-6.2 F150.
N800 G3 X336. Y297.1 I-.1 J0. F500.
N810 X335.9 Y297. I0. J-.1
N820 X336. Y296.9 I.1 J0.
N830 X336.1 Y297. I0. J.1
N840 G0 Z5.
N850 X100.175 Y348.
N860 G1 Z-2.2 F150.
N870 G3 X100. Y348.175 I-.175 J0. F500.
N880 X99.825 Y348. I0. J-.175
N890 X100. Y347.825 I.175 J0.
N900 X100.175 Y348. I0. J.175
N910 G1 X100.9
N920 G3 X100. Y348.9 I-.9 J0.
N930 X99.1 Y348. I0. J-.9
N940 X100. Y347.1 I.9 J0.
N950 X100.9 Y348. I0. J.9
N960 G1 X102.35
N970 G3 X100. Y350.35 I-2.35 J0.
N980 X97.65 Y348. I0. J-2.35
N990 X100. Y345.65 I2.35 J0.
N1000 X102.35 Y348. I0. J2.35
N1010 G1 X103.8
N1020 G3 X100. Y351.8 I-3.8 J0.
N1030 X96.2 Y348. I0. J-3.8
N1040 X100. Y344.2 I3.8 J0.
N1050 X103.8 Y348. I0. J3.8
N1060 G1 X100.175
N1070 Z-4.4 F150.
N1080 G3 X100. Y348.175 I-.175 J0. F500.
N1090 X99.825 Y348. I0. J-.175
N1100 X100. Y347.825 I.175 J0.
N1110 X100.175 Y348. I0. J.175
N1120 G1 X100.9
N1130 G3 X100. Y348.9 I-.9 J0.
N1140 X99.1 Y348. I0. J-.9
N1150 X100. Y347.1 I.9 J0.
N1160 X100.9 Y348. I0. J.9
N1170 G1 X102.35
N1180 G3 X100. Y350.35 I-2.35 J0.
N1190 X97.65 Y348. I0. J-2.35
N1200 X100. Y345.65 I2.35 J0.
N1210 X102.35 Y348. I0. J2.35
N1220 G1 X103.8
N1230 G3 X100. Y351.8 I-3.8 J0.
N1240 X96.2 Y348. I0. J-3.8
N1250 X100. Y344.2 I3.8 J0.
N1260 X103.8 Y348. I0. J3.8
N1270 G1 X104.6
N1280 F150.
N1290 G3 X100. Y352.6 I-4.6 J0. F500.
N1300 X95.4 Y348. I0. J-4.6
N1310 X100. Y343.4 I4.6 J0.
N1320 X104.6 Y348. I0. J4.6
N1330 G0 Z.6
N1340 Z5.
N1350 X290.175
N1360 G1 Z-2.2 F150.
N1370 G3 X290. Y348.175 I-.175 J0. F500.
N1380 X289.825 Y348. I0. J-.175
N1390 X290. Y347.825 I.175 J0.
N1400 X290.175 Y348. I0. J.175
N1410 G1 X290.9
N1420 G3 X290. Y348.9 I-.9 J0.
N1430 X289.1 Y348. I0. J-.9
N1440 X290. Y347.1 I.9 J0.
N1450 X290.9 Y348. I0. J.9
N1460 G1 X292.35
N1470 G3 X290. Y350.35 I-2.35 J0.
N1480 X287.65 Y348. I0. J-2.35
N1490 X290. Y345.65 I2.35 J0.
N1500 X292.35 Y348. I0. J2.35
N1510 G1 X293.8
N1520 G3 X290. Y351.8 I-3.8 J0.
N1530 X286.2 Y348. I0. J-3.8
N1540 X290. Y344.2 I3.8 J0.
N1550 X293.8 Y348. I0. J3.8
N1560 G1 X290.175
N1570 Z-4.4 F150.
N1580 G3 X290. Y348.175 I-.175 J0. F500.
N1590 X289.825 Y348. I0. J-.175
N1600 X290. Y347.825 I.175 J0.
N1610 X290.175 Y348. I0. J.175
N1620 G1 X290.9
N1630 G3 X290. Y348.9 I-.9 J0.
N1640 X289.1 Y348. I0. J-.9
N1650 X290. Y347.1 I.9 J0.
N1660 X290.9 Y348. I0. J.9
N1670 G1 X292.35
N1680 G3 X290. Y350.35 I-2.35 J0.
N1690 X287.65 Y348. I0. J-2.35
N1700 X290. Y345.65 I2.35 J0.
N1710 X292.35 Y348. I0. J2.35
N1720 G1 X293.8
N1730 G3 X290. Y351.8 I-3.8 J0.
N1740 X286.2 Y348. I0. J-3.8
N1750 X290. Y344.2 I3.8 J0.
N1760 X293.8 Y348. I0. J3.8
N1770 G1 X294.6
N1780 F150.
N1790 G3 X290. Y352.6 I-4.6 J0. F500.
N1800 X285.4 Y348. I0. J-4.6
N1810 X290. Y343.4 I4.6 J0.
N1820 X294.6 Y348. I0. J4.6
N1830 G0 Z5.
N1840 X385.9 Y44.9
N1850 G1 Z-2.2 F150.
N1860 X383. F500.
N1870 X376.5
N1880 G2 X375.021 Y46.149 I0. J1.5
N1890 G3 X374.972 Y46.19 I-.049 J-.009
N1900 G1 X373.485
N1910 G2 X372.644 Y45.409 I-1.363 J.626
N1920 G3 X372.256 Y44.85 I.208 J-.559
N1930 X372.644 Y44.291 I.596 J0.
N1940 G2 X373.485 Y43.51 I-.522 J-1.407
N1950 G1 X374.972
N1960 G3 X375.021 Y43.551 I0. J.05
N1970 G2 X376.5 Y44.8 I1.479 J-.251
N1980 G1 X383.
N1990 X385.9
N2000 Y44.9
N2010 Z-4.4 F150.
N2020 X383. F500.
N2030 X376.5
N2040 G2 X375.021 Y46.149 I0. J1.5
N2050 G3 X374.972 Y46.19 I-.049 J-.009
N2060 G1 X373.485
N2070 G2 X372.644 Y45.409 I-1.363 J.626
N2080 G3 X372.256 Y44.85 I.208 J-.559
N2090 X372.644 Y44.291 I.596 J0.
N2100 G2 X373.485 Y43.51 I-.522 J-1.407
N2110 G1 X374.972
N2120 G3 X375.021 Y43.551 I0. J.05
N2130 G2 X376.5 Y44.8 I1.479 J-.251
N2140 G1 X383.
N2150 X385.9
N2160 G0 Z.6
N2170 Z2.8
N2180 Y45.
N2190 G1 Z-4.4 F150.
N2200 X383. F500.
N2210 X376.5
N2220 G2 X375.12 Y46.165 I0. J1.4
N2230 G3 X374.972 Y46.29 I-.148 J-.025
N2240 G1 X373.422
N2250 X373.42
N2260 G2 X372.61 Y45.503 I-1.298 J.526
N2270 G3 X372.156 Y44.85 I.242 J-.653
N2280 X372.61 Y44.197 I.696 J0.
N2290 G2 X373.42 Y43.41 I-.488 J-1.313
N2300 G1 X373.422
N2310 X374.972
N2320 G3 X375.12 Y43.535 I0. J.15
N2330 G2 X376.5 Y44.7 I1.38 J-.235
N2340 G1 X383.
N2350 X385.9
N2360 G0 Z.6
N2370 Z5.
N2380 X331.4 Y-.9
N2390 G1 Z-2.2 F150.
N2400 Y2. F500.
N2410 Y8.5
N2420 G2 X332.649 Y9.979 I1.5 J0.
N2430 G3 X332.69 Y10.028 I-.009 J.049
N2440 G1 Y11.515
N2450 G2 X331.909 Y12.356 I.626 J1.363
N2460 G3 X331.35 Y12.744 I-.559 J-.208
N2470 X330.791 Y12.356 I0. J-.596
N2480 G2 X330.01 Y11.515 I-1.407 J.522
N2490 G1 Y10.028
N2500 G3 X330.051 Y9.979 I.05 J0.
N2510 G2 X331.3 Y8.5 I-.251 J-1.479
N2520 G1 Y2.
N2530 Y-.9
N2540 X331.4
N2550 Z-4.4 F150.
N2560 Y2. F500.
N2570 Y8.5
N2580 G2 X332.649 Y9.979 I1.5 J0.
N2590 G3 X332.69 Y10.028 I-.009 J.049
N2600 G1 Y11.515
N2610 G2 X331.909 Y12.356 I.626 J1.363
N2620 G3 X331.35 Y12.744 I-.559 J-.208
N2630 X330.791 Y12.356 I0. J-.596
N2640 G2 X330.01 Y11.515 I-1.407 J.522
N2650 G1 Y10.028
N2660 G3 X330.051 Y9.979 I.05 J0.
N2670 G2 X331.3 Y8.5 I-.251 J-1.479
N2680 G1 Y2.
N2690 Y-.9
N2700 G0 Z.6
N2710 Z2.8
N2720 X331.5
N2730 G1 Z-4.4 F150.
N2740 Y2. F500.
N2750 Y8.5
N2760 G2 X332.665 Y9.88 I1.4 J0.
N2770 G3 X332.79 Y10.028 I-.025 J.148
N2780 G1 Y11.578
N2790 Y11.58
N2800 G2 X332.003 Y12.39 I.526 J1.298
N2810 G3 X331.35 Y12.844 I-.653 J-.242
N2820 X330.697 Y12.39 I0. J-.696
N2830 G2 X329.91 Y11.58 I-1.313 J.488
N2840 G1 Y11.578
N2850 Y10.028
N2860 G3 X330.035 Y9.88 I.15 J0.
N2870 G2 X331.2 Y8.5 I-.235 J-1.38
N2880 G1 Y2.
N2890 Y-.9
N2900 G0 Z.6
N2910 Z5.
N2920 X58.698
N2930 G1 Z-2.2 F150.
N2940 Y2. F500.
N2950 Y8.5
N2960 G2 X59.947 Y9.979 I1.5 J0.
N2970 G3 X59.988 Y10.028 I-.009 J.049
N2980 G1 Y11.515
N2990 G2 X59.208 Y12.356 I.626 J1.363
N3000 G3 X58.648 Y12.745 I-.56 J-.208
N3010 X58.089 Y12.356 I0. J-.597
N3020 G2 X57.308 Y11.515 I-1.406 J.522
N3030 G1 Y10.028
N3040 G3 X57.349 Y9.979 I.05 J0.
N3050 G2 X58.598 Y8.5 I-.251 J-1.479
N3060 G1 Y2.
N3070 Y-.9
N3080 X58.698
N3090 Z-4.4 F150.
N3100 Y2. F500.
N3110 Y8.5
N3120 G2 X59.947 Y9.979 I1.5 J0.
N3130 G3 X59.988 Y10.028 I-.009 J.049
N3140 G1 Y11.515
N3150 G2 X59.208 Y12.356 I.626 J1.363
N3160 G3 X58.648 Y12.745 I-.56 J-.208
N3170 X58.089 Y12.356 I0. J-.597
N3180 G2 X57.308 Y11.515 I-1.406 J.522
N3190 G1 Y10.028
N3200 G3 X57.349 Y9.979 I.05 J0.
N3210 G2 X58.598 Y8.5 I-.251 J-1.479
N3220 G1 Y2.
N3230 Y-.9
N3240 G0 Z.6
N3250 Z2.8
N3260 X58.798
N3270 G1 Z-4.4 F150.
N3280 Y2. F500.
N3290 Y8.5
N3300 G2 X59.964 Y9.88 I1.4 J0.
N3310 G3 X60.088 Y10.028 I-.026 J.148
N3320 G1 Y11.578
N3330 Y11.58
N3340 G2 X59.301 Y12.39 I.526 J1.298
N3350 G3 X58.648 Y12.844 I-.653 J-.242
N3360 X57.995 Y12.39 I0. J-.696
N3370 G2 X57.208 Y11.58 I-1.312 J.488
N3380 G1 Y11.578
N3390 Y10.028
N3400 G3 X57.333 Y9.88 I.15 J0.
N3410 G2 X58.498 Y8.5 I-.235 J-1.38
N3420 G1 Y2.
N3430 Y-.9
N3440 G0 Z.6
N3450 Z5.
N3460 X4.1 Y44.678
N3470 G1 Z-2.2 F150.
N3480 X7. F500.
N3490 X13.5
N3500 G2 X14.979 Y43.429 I0. J-1.5
N3510 G3 X15.028 Y43.388 I.049 J.009
N3520 G1 X16.515
N3530 G2 X17.356 Y44.168 I1.363 J-.626
N3540 G3 X17.745 Y44.728 I-.208 J.56
N3550 X17.356 Y45.287 I-.597 J0.
N3560 G2 X16.515 Y46.068 I.522 J1.407
N3570 G1 X15.028
N3580 G3 X14.979 Y46.027 I0. J-.05
N3590 G2 X13.5 Y44.778 I-1.479 J.251
N3600 G1 X7.
N3610 X4.1
N3620 Y44.678
N3630 Z-4.4 F150.
N3640 X7. F500.
N3650 X13.5
N3660 G2 X14.979 Y43.429 I0. J-1.5
N3670 G3 X15.028 Y43.388 I.049 J.009
N3680 G1 X16.515
N3690 G2 X17.356 Y44.168 I1.363 J-.626
N3700 G3 X17.745 Y44.728 I-.208 J.56
N3710 X17.356 Y45.287 I-.597 J0.
N3720 G2 X16.515 Y46.068 I.522 J1.407
N3730 G1 X15.028
N3740 G3 X14.979 Y46.027 I0. J-.05
N3750 G2 X13.5 Y44.778 I-1.479 J.251
N3760 G1 X7.
N3770 X4.1
N3780 G0 Z.6
N3790 Z2.8
N3800 Y44.578
N3810 G1 Z-4.4 F150.
N3820 X7. F500.
N3830 X13.5
N3840 G2 X14.88 Y43.413 I0. J-1.4
N3850 G3 X15.028 Y43.288 I.148 J.025
N3860 G1 X16.578
N3870 X16.58
N3880 G2 X17.39 Y44.075 I1.298 J-.526
N3890 G3 X17.844 Y44.728 I-.242 J.653
N3900 X17.39 Y45.381 I-.696 J0.
N3910 G2 X16.58 Y46.168 I.488 J1.313
N3920 G1 X16.578
N3930 X15.028
N3940 G3 X14.88 Y46.043 I0. J-.15
N3950 G2 X13.5 Y44.878 I-1.38 J.235
N3960 G1 X7.
N3970 X4.1
N3980 G0 Z.6
N3990 Z5.
N4000 Y325.65
N4010 G1 Z-2.2 F150.
N4020 X7. F500.
N4030 X13.5
N4040 G2 X14.979 Y324.401 I0. J-1.5
N4050 G3 X15.028 Y324.36 I.049 J.009
N4060 G1 X16.515
N4070 G2 X17.356 Y325.141 I1.363 J-.626
N4080 G3 X17.744 Y325.7 I-.208 J.559
N4090 X17.356 Y326.259 I-.596 J0.
N4100 G2 X16.515 Y327.04 I.522 J1.407
N4110 G1 X15.028
N4120 G3 X14.979 Y326.999 I0. J-.05
N4130 G2 X13.5 Y325.75 I-1.479 J.251
N4140 G1 X7.
N4150 X4.1
N4160 Y325.65
N4170 Z-4.4 F150.
N4180 X7. F500.
N4190 X13.5
N4200 G2 X14.979 Y324.401 I0. J-1.5
N4210 G3 X15.028 Y324.36 I.049 J.009
N4220 G1 X16.515
N4230 G2 X17.356 Y325.141 I1.363 J-.626
N4240 G3 X17.744 Y325.7 I-.208 J.559
N4250 X17.356 Y326.259 I-.596 J0.
N4260 G2 X16.515 Y327.04 I.522 J1.407
N4270 G1 X15.028
N4280 G3 X14.979 Y326.999 I0. J-.05
N4290 G2 X13.5 Y325.75 I-1.479 J.251
N4300 G1 X7.
N4310 X4.1
N4320 G0 Z.6
N4330 Z2.8
N4340 Y325.55
N4350 G1 Z-4.4 F150.
N4360 X7. F500.
N4370 X13.5
N4380 G2 X14.88 Y324.385 I0. J-1.4
N4390 G3 X15.028 Y324.26 I.148 J.025
N4400 G1 X16.578
N4410 X16.58
N4420 G2 X17.39 Y325.047 I1.298 J-.526
N4430 G3 X17.844 Y325.7 I-.242 J.653
N4440 X17.39 Y326.353 I-.696 J0.
N4450 G2 X16.58 Y327.14 I.488 J1.313
N4460 G1 X16.578
N4470 X15.028
N4480 G3 X14.88 Y327.015 I0. J-.15
N4490 G2 X13.5 Y325.85 I-1.38 J.235
N4500 G1 X7.
N4510 X4.1
N4520 G0 Z.6
N4530 Z5.
N4540 X58.598 Y371.9
N4550 G1 Z-2.2 F150.
N4560 Y369. F500.
N4570 Y362.5
N4580 G2 X57.349 Y361.021 I-1.5 J0.
N4590 G3 X57.308 Y360.972 I.009 J-.049
N4600 G1 Y359.485
N4610 G2 X58.089 Y358.644 I-.625 J-1.363
N4620 G3 X58.648 Y358.256 I.559 J.208
N4630 X59.208 Y358.644 I0. J.596
N4640 G2 X59.988 Y359.485 I1.406 J-.522
N4650 G1 Y360.972
N4660 G3 X59.947 Y361.021 I-.05 J0.
N4670 G2 X58.698 Y362.5 I.251 J1.479
N4680 G1 Y369.
N4690 Y371.9
N4700 X58.598
N4710 Z-4.4 F150.
N4720 Y369. F500.
N4730 Y362.5
N4740 G2 X57.349 Y361.021 I-1.5 J0.
N4750 G3 X57.308 Y360.972 I.009 J-.049
N4760 G1 Y359.485
N4770 G2 X58.089 Y358.644 I-.625 J-1.363
N4780 G3 X58.648 Y358.256 I.559 J.208
N4790 X59.208 Y358.644 I0. J.596
N4800 G2 X59.988 Y359.485 I1.406 J-.522
N4810 G1 Y360.972
N4820 G3 X59.947 Y361.021 I-.05 J0.
N4830 G2 X58.698 Y362.5 I.251 J1.479
N4840 G1 Y369.
N4850 Y371.9
N4860 G0 Z.6
N4870 Z2.8
N4880 X58.498
N4890 G1 Z-4.4 F150.
N4900 Y369. F500.
N4910 Y362.5
N4920 G2 X57.333 Y361.12 I-1.4 J0.
N4930 G3 X57.208 Y360.972 I.025 J-.148
N4940 G1 Y359.422
N4950 Y359.42
N4960 G2 X57.995 Y358.61 I-.525 J-1.298
N4970 G3 X58.648 Y358.156 I.653 J.242
N4980 X59.301 Y358.61 I0. J.696
N4990 G2 X60.088 Y359.42 I1.313 J-.488
N5000 G1 Y359.422
N5010 Y360.972
N5020 G3 X59.964 Y361.12 I-.15 J0.
N5030 G2 X58.798 Y362.5 I.234 J1.38
N5040 G1 Y369.
N5050 Y371.9
N5060 G0 Z.6
N5070 Z5.
N5080 X4.1 Y185.164
N5090 G1 Z-2.2 F150.
N5100 X7. F500.
N5110 X13.5
N5120 G2 X14.979 Y183.915 I0. J-1.5
N5130 G3 X15.028 Y183.874 I.049 J.009
N5140 G1 X16.515
N5150 G2 X17.356 Y184.655 I1.363 J-.625
N5160 G3 X17.744 Y185.214 I-.208 J.559
N5170 X17.356 Y185.774 I-.596 J0.
N5180 G2 X16.515 Y186.555 I.522 J1.406
N5190 G1 X15.028
N5200 G3 X14.979 Y186.513 I0. J-.05
N5210 G2 X13.5 Y185.264 I-1.479 J.251
N5220 G1 X7.
N5230 X4.1
N5240 Y185.164
N5250 Z-4.4 F150.
N5260 X7. F500.
N5270 X13.5
N5280 G2 X14.979 Y183.915 I0. J-1.5
N5290 G3 X15.028 Y183.874 I.049 J.009
N5300 G1 X16.515
N5310 G2 X17.356 Y184.655 I1.363 J-.625
N5320 G3 X17.744 Y185.214 I-.208 J.559
N5330 X17.356 Y185.774 I-.596 J0.
N5340 G2 X16.515 Y186.555 I.522 J1.406
N5350 G1 X15.028
N5360 G3 X14.979 Y186.513 I0. J-.05
N5370 G2 X13.5 Y185.264 I-1.479 J.251
N5380 G1 X7.
N5390 X4.1
N5400 G0 Z.6
N5410 Z2.8
N5420 Y185.064
N5430 G1 Z-4.4 F150.
N5440 X7. F500.
N5450 X13.5
N5460 G2 X14.88 Y183.899 I0. J-1.4
N5470 G3 X15.028 Y183.774 I.148 J.025
N5480 G1 X16.578
N5490 X16.58
N5500 G2 X17.39 Y184.561 I1.298 J-.525
N5510 G3 X17.844 Y185.214 I-.242 J.653
N5520 X17.39 Y185.867 I-.696 J0.
N5530 G2 X16.58 Y186.655 I.488 J1.313
N5540 G1 X16.578
N5550 X15.028
N5560 G3 X14.88 Y186.53 I0. J-.15
N5570 G2 X13.5 Y185.364 I-1.38 J.234
N5580 G1 X7.
N5590 X4.1
N5600 G0 Z.6
N5610 Z5.
N5620 X194.95 Y371.9
N5630 G1 Z-2.2 F150.
N5640 Y369. F500.
N5650 Y362.5
N5660 G2 X193.701 Y361.021 I-1.5 J0.
N5670 G3 X193.66 Y360.972 I.009 J-.049
N5680 G1 Y359.485
N5690 G2 X194.441 Y358.644 I-.626 J-1.363
N5700 G3 X195. Y358.256 I.559 J.208
N5710 X195.559 Y358.644 I0. J.596
N5720 G2 X196.34 Y359.485 I1.407 J-.522
N5730 G1 Y360.972
N5740 G3 X196.299 Y361.021 I-.05 J0.
N5750 G2 X195.05 Y362.5 I.251 J1.479
N5760 G1 Y369.
N5770 Y371.9
N5780 X194.95
N5790 Z-4.4 F150.
N5800 Y369. F500.
N5810 Y362.5
N5820 G2 X193.701 Y361.021 I-1.5 J0.
N5830 G3 X193.66 Y360.972 I.009 J-.049
N5840 G1 Y359.485
N5850 G2 X194.441 Y358.644 I-.626 J-1.363
N5860 G3 X195. Y358.256 I.559 J.208
N5870 X195.559 Y358.644 I0. J.596
N5880 G2 X196.34 Y359.485 I1.407 J-.522
N5890 G1 Y360.972
N5900 G3 X196.299 Y361.021 I-.05 J0.
N5910 G2 X195.05 Y362.5 I.251 J1.479
N5920 G1 Y369.
N5930 Y371.9
N5940 G0 Z.6
N5950 Z2.8
N5960 X194.85
N5970 G1 Z-4.4 F150.
N5980 Y369. F500.
N5990 Y362.5
N6000 G2 X193.685 Y361.12 I-1.4 J0.
N6010 G3 X193.56 Y360.972 I.025 J-.148
N6020 G1 Y359.422
N6030 Y359.42
N6040 G2 X194.347 Y358.61 I-.526 J-1.298
N6050 G3 X195. Y358.156 I.653 J.242
N6060 X195.653 Y358.61 I0. J.696
N6070 G2 X196.44 Y359.42 I1.313 J-.488
N6080 G1 Y359.422
N6090 Y360.972
N6100 G3 X196.315 Y361.12 I-.15 J0.
N6110 G2 X195.15 Y362.5 I.235 J1.38
N6120 G1 Y369.
N6130 Y371.9
N6140 G0 Z.6
N6150 Z5.
N6160 X331.3
N6170 G1 Z-2.2 F150.
N6180 Y369. F500.
N6190 Y362.5
N6200 G2 X330.051 Y361.021 I-1.5 J0.
N6210 G3 X330.01 Y360.972 I.009 J-.049
N6220 G1 Y359.485
N6230 G2 X330.791 Y358.644 I-.626 J-1.363
N6240 G3 X331.35 Y358.256 I.559 J.208
N6250 X331.909 Y358.644 I0. J.596
N6260 G2 X332.69 Y359.485 I1.407 J-.522
N6270 G1 Y360.972
N6280 G3 X332.649 Y361.021 I-.05 J0.
N6290 G2 X331.4 Y362.5 I.251 J1.479
N6300 G1 Y369.
N6310 Y371.9
N6320 X331.3
N6330 Z-4.4 F150.
N6340 Y369. F500.
N6350 Y362.5
N6360 G2 X330.051 Y361.021 I-1.5 J0.
N6370 G3 X330.01 Y360.972 I.009 J-.049
N6380 G1 Y359.485
N6390 G2 X330.791 Y358.644 I-.626 J-1.363
N6400 G3 X331.35 Y358.256 I.559 J.208
N6410 X331.909 Y358.644 I0. J.596
N6420 G2 X332.69 Y359.485 I1.407 J-.522
N6430 G1 Y360.972
N6440 G3 X332.649 Y361.021 I-.05 J0.
N6450 G2 X331.4 Y362.5 I.251 J1.479
N6460 G1 Y369.
N6470 Y371.9
N6480 G0 Z.6
N6490 Z2.8
N6500 X331.2
N6510 G1 Z-4.4 F150.
N6520 Y369. F500.
N6530 Y362.5
N6540 G2 X330.035 Y361.12 I-1.4 J0.
N6550 G3 X329.91 Y360.972 I.025 J-.148
N6560 G1 Y359.422
N6570 Y359.42
N6580 G2 X330.697 Y358.61 I-.526 J-1.298
N6590 G3 X331.35 Y358.156 I.653 J.242
N6600 X332.003 Y358.61 I0. J.696
N6610 G2 X332.79 Y359.42 I1.313 J-.488
N6620 G1 Y359.422
N6630 Y360.972
N6640 G3 X332.665 Y361.12 I-.15 J0.
N6650 G2 X331.5 Y362.5 I.235 J1.38
N6660 G1 Y369.
N6670 Y371.9
N6680 G0 Z.6
N6690 Z5.
N6700 X385.9 Y325.935
N6710 G1 Z-2.2 F150.
N6720 X383. F500.
N6730 X376.5
N6740 G2 X375.021 Y327.184 I0. J1.5
N6750 G3 X374.972 Y327.225 I-.049 J-.009
N6760 G1 X373.485
N6770 G2 X372.644 Y326.444 I-1.363 J.625
N6780 G3 X372.256 Y325.885 I.208 J-.559
N6790 X372.644 Y325.325 I.596 J0.
N6800 G2 X373.485 Y324.545 I-.522 J-1.406
N6810 G1 X374.972
N6820 G3 X375.021 Y324.586 I0. J.05
N6830 G2 X376.5 Y325.835 I1.479 J-.251
N6840 G1 X383.
N6850 X385.9
N6860 Y325.935
N6870 Z-4.4 F150.
N6880 X383. F500.
N6890 X376.5
N6900 G2 X375.021 Y327.184 I0. J1.5
N6910 G3 X374.972 Y327.225 I-.049 J-.009
N6920 G1 X373.485
N6930 G2 X372.644 Y326.444 I-1.363 J.625
N6940 G3 X372.256 Y325.885 I.208 J-.559
N6950 X372.644 Y325.325 I.596 J0.
N6960 G2 X373.485 Y324.545 I-.522 J-1.406
N6970 G1 X374.972
N6980 G3 X375.021 Y324.586 I0. J.05
N6990 G2 X376.5 Y325.835 I1.479 J-.251
N7000 G1 X383.
N7010 X385.9
N7020 G0 Z.6
N7030 Z2.8
N7040 Y326.035
N7050 G1 Z-4.4 F150.
N7060 X383. F500.
N7070 X376.5
N7080 G2 X375.12 Y327.2 I0. J1.4
N7090 G3 X374.972 Y327.325 I-.148 J-.025
N7100 G1 X373.422
N7110 X373.42
N7120 G2 X372.61 Y326.538 I-1.298 J.525
N7130 G3 X372.156 Y325.885 I.242 J-.653
N7140 X372.61 Y325.232 I.696 J0.
N7150 G2 X373.42 Y324.445 I-.488 J-1.313
N7160 G1 X373.422
N7170 X374.972
N7180 G3 X375.12 Y324.569 I0. J.15
N7190 G2 X376.5 Y325.735 I1.38 J-.234
N7200 G1 X383.
N7210 X385.9
N7220 G0 Z.6
N7230 Z5.
N7240 Y185.45
N7250 G1 Z-2.2 F150.
N7260 X383. F500.
N7270 X376.5
N7280 G2 X375.021 Y186.699 I0. J1.5
N7290 G3 X374.972 Y186.74 I-.049 J-.009
N7300 G1 X373.485
N7310 G2 X372.644 Y185.959 I-1.363 J.626
N7320 G3 X372.256 Y185.4 I.208 J-.559
N7330 X372.644 Y184.841 I.596 J0.
N7340 G2 X373.485 Y184.06 I-.522 J-1.407
N7350 G1 X374.972
N7360 G3 X375.021 Y184.101 I0. J.05
N7370 G2 X376.5 Y185.35 I1.479 J-.251
N7380 G1 X383.
N7390 X385.9
N7400 Y185.45
N7410 Z-4.4 F150.
N7420 X383. F500.
N7430 X376.5
N7440 G2 X375.021 Y186.699 I0. J1.5
N7450 G3 X374.972 Y186.74 I-.049 J-.009
N7460 G1 X373.485
N7470 G2 X372.644 Y185.959 I-1.363 J.626
N7480 G3 X372.256 Y185.4 I.208 J-.559
N7490 X372.644 Y184.841 I.596 J0.
N7500 G2 X373.485 Y184.06 I-.522 J-1.407
N7510 G1 X374.972
N7520 G3 X375.021 Y184.101 I0. J.05
N7530 G2 X376.5 Y185.35 I1.479 J-.251
N7540 G1 X383.
N7550 X385.9
N7560 G0 Z.6
N7570 Z2.8
N7580 Y185.55
N7590 G1 Z-4.4 F150.
N7600 X383. F500.
N7610 X376.5
N7620 G2 X375.12 Y186.715 I0. J1.4
N7630 G3 X374.972 Y186.84 I-.148 J-.025
N7640 G1 X373.422
N7650 X373.42
N7660 G2 X372.61 Y186.053 I-1.298 J.526
N7670 G3 X372.156 Y185.4 I.242 J-.653
N7680 X372.61 Y184.747 I.696 J0.
N7690 G2 X373.42 Y183.96 I-.488 J-1.313
N7700 G1 X373.422
N7710 X374.972
N7720 G3 X375.12 Y184.085 I0. J.15
N7730 G2 X376.5 Y185.25 I1.38 J-.235
N7740 G1 X383.
N7750 X385.9
N7760 G0 Z.6
N7770 Z5.
N7780 X195.05 Y-.9
N7790 G1 Z-2.2 F150.
N7800 Y2. F500.
N7810 Y8.5
N7820 G2 X196.299 Y9.979 I1.5 J0.
N7830 G3 X196.34 Y10.028 I-.009 J.049
N7840 G1 Y11.515
N7850 G2 X195.559 Y12.356 I.626 J1.363
N7860 G3 X195. Y12.744 I-.559 J-.208
N7870 X194.441 Y12.356 I0. J-.596
N7880 G2 X193.66 Y11.515 I-1.407 J.522
N7890 G1 Y10.028
N7900 G3 X193.701 Y9.979 I.05 J0.
N7910 G2 X194.95 Y8.5 I-.251 J-1.479
N7920 G1 Y2.
N7930 Y-.9
N7940 X195.05
N7950 Z-4.4 F150.
N7960 Y2. F500.
N7970 Y8.5
N7980 G2 X196.299 Y9.979 I1.5 J0.
N7990 G3 X196.34 Y10.028 I-.009 J.049
N8000 G1 Y11.515
N8010 G2 X195.559 Y12.356 I.626 J1.363
N8020 G3 X195. Y12.744 I-.559 J-.208
N8030 X194.441 Y12.356 I0. J-.596
N8040 G2 X193.66 Y11.515 I-1.407 J.522
N8050 G1 Y10.028
N8060 G3 X193.701 Y9.979 I.05 J0.
N8070 G2 X194.95 Y8.5 I-.251 J-1.479
N8080 G1 Y2.
N8090 Y-.9
N8100 G0 Z.6
N8110 Z2.8
N8120 X195.15
N8130 G1 Z-4.4 F150.
N8140 Y2. F500.
N8150 Y8.5
N8160 G2 X196.315 Y9.88 I1.4 J0.
N8170 G3 X196.44 Y10.028 I-.025 J.148
N8180 G1 Y11.578
N8190 Y11.58
N8200 G2 X195.653 Y12.39 I.526 J1.298
N8210 G3 X195. Y12.844 I-.653 J-.242
N8220 X194.347 Y12.39 I0. J-.696
N8230 G2 X193.56 Y11.58 I-1.313 J.488
N8240 G1 Y11.578
N8250 Y10.028
N8260 G3 X193.685 Y9.88 I.15 J0.
N8270 G2 X194.85 Y8.5 I-.235 J-1.38
N8280 G1 Y2.
N8290 Y-.9
N8300 G0 Z5.
N8310 X335. Y45.1
N8320 G1 Z-2.067 F150.
N8330 G3 X342.9 Y53. I0. J7.9 F500.
N8340 G1 Y296.
N8350 G3 X335. Y303.9 I-7.9 J0.
N8360 G1 X52.
N8370 G3 X44.1 Y296. I0. J-7.9
N8380 G1 Y53.
N8390 G3 X52. Y45.1 I7.9 J0.
N8400 G1 X335.
N8410 Z-4.133 F150.
N8420 G3 X342.9 Y53. I0. J7.9 F500.
N8430 G1 Y296.
N8440 G3 X335. Y303.9 I-7.9 J0.
N8450 G1 X52.
N8460 G3 X44.1 Y296. I0. J-7.9
N8470 G1 Y53.
N8480 G3 X52. Y45.1 I7.9 J0.
N8490 G1 X335.
N8500 Z-6.2 F150.
N8510 G3 X342.9 Y53. I0. J7.9 F500.
N8520 G1 Y168.338
N8530 Y169.738 Z-4.8
N8540 Y189.838
N8550 Y191.238 Z-6.2
N8560 Y296.
N8570 G3 X335. Y303.9 I-7.9 J0.
N8580 G1 X199.662
N8590 X198.262 Z-4.8
N8600 X178.162
N8610 X176.762 Z-6.2
N8620 X52.
N8630 G3 X44.1 Y296. I0. J-7.9
N8640 G1 Y180.662
N8650 Y179.262 Z-4.8
N8660 Y159.162
N8670 Y157.762 Z-6.2
N8680 Y53.
N8690 G3 X52. Y45.1 I7.9 J0.
N8700 G1 X187.338
N8710 X188.738 Z-4.8
N8720 X208.838
N8730 X210.238 Z-6.2
N8740 X335.
N8750 Y45.6
N8760 G3 X342.4 Y53. I0. J7.4
N8770 G1 Y168.338
N8780 Y169.738 Z-4.8
N8790 Y189.838
N8800 Y191.238 Z-6.2
N8810 Y296.
N8820 G3 X335. Y303.4 I-7.4 J0.
N8830 G1 X199.662
N8840 X198.262 Z-4.8
N8850 X178.162
N8860 X176.762 Z-6.2
N8870 X52.
N8880 G3 X44.6 Y296. I0. J-7.4
N8890 G1 Y180.662
N8900 Y179.262 Z-4.8
N8910 Y159.162
N8920 Y157.762 Z-6.2
N8930 Y53.
N8940 G3 X52. Y45.6 I7.4 J0.
N8950 G1 X187.338
N8960 X188.738 Z-4.8
N8970 X208.838
N8980 X210.238 Z-6.2
N8990 X335.
N9000 G0 Z5.
N9010 X40.021 Y320.1
N9020 G1 Z-2.067 F150.
N9030 G3 X35.9 Y315.979 I0. J-4.121 F500.
N9040 G1 Y35.
N9050 G3 X40. Y30.9 I4.1 J0.
N9060 G1 X350.
N9070 G3 X354.1 Y35. I0. J4.1
N9080 G1 Y315.958
N9090 G3 X349.958 Y320.1 I-4.142 J0.
N9100 G1 X40.021
N9110 Z-4.133 F150.
N9120 G3 X35.9 Y315.979 I0. J-4.121 F500.
N9130 G1 Y35.
N9140 G3 X40. Y30.9 I4.1 J0.
N9150 G1 X350.
N9160 G3 X354.1 Y35. I0. J4.1
N9170 G1 Y315.958
N9180 G3 X349.958 Y320.1 I-4.142 J0.
N9190 G1 X40.021
N9200 Z-6.2 F150.
N9210 G3 X35.9 Y315.979 I0. J-4.121 F500.
N9220 G1 Y214.919
N9230 Y213.219 Z-4.5
N9240 Y193.719
N9250 Y192.019 Z-6.2
N9260 Y35.
N9270 G3 X40. Y30.9 I4.1 J0.
N9280 G1 X94.59
N9290 X96.29 Z-4.5
N9300 X115.79
N9310 X117.49 Z-6.2
N9320 X338.525
N9330 X340.225 Z-4.5
N9340 X350.
N9350 G3 X354.1 Y35. I0. J4.1
N9360 G1 Y38.285
N9370 Y39.985 Z-6.2
N9380 Y258.035
N9390 Y259.735 Z-4.5
N9400 Y279.235
N9410 Y280.935 Z-6.2
N9420 Y315.958
N9430 G3 X349.958 Y320.1 I-4.142 J0.
N9440 G1 X173.438
N9450 X171.738 Z-4.5
N9460 X152.238
N9470 X150.538 Z-6.2
N9480 X40.021
N9490 Y320.6
N9500 G3 X35.4 Y315.979 I0. J-4.621
N9510 G1 Y214.919
N9520 Y213.219 Z-4.5
N9530 Y193.719
N9540 Y192.019 Z-6.2
N9550 Y35.
N9560 G3 X40. Y30.4 I4.6 J0.
N9570 G1 X94.59
N9580 X96.29 Z-4.5
N9590 X115.79
N9600 X117.49 Z-6.2
N9610 X338.525
N9620 X340.225 Z-4.5
N9630 X350.
N9640 G3 X354.6 Y35. I0. J4.6
N9650 G1 Y37.499
N9660 Y39.199 Z-6.2
N9670 Y258.035
N9680 Y259.735 Z-4.5
N9690 Y279.235
N9700 Y280.935 Z-6.2
N9710 Y315.958
N9720 G3 X349.958 Y320.6 I-4.642 J0.
N9730 G1 X173.438
N9740 X171.738 Z-4.5
N9750 X152.238
N9760 X150.538 Z-6.2
N9770 X40.021
N9780 G0 Z5.
N9790 X384.9 Y153.6
N9800 G1 Z-2.067 F150.
N9810 X387.5 F500.
N9820 G3 X389.4 Y155.5 I0. J1.9
N9830 G1 Y165.5
N9840 G3 X387.5 Y167.4 I-1.9 J0.
N9850 G1 X384.9
N9860 Y203.6
N9870 X387.5
N9880 G3 X389.4 Y205.5 I0. J1.9
N9890 G1 Y215.5
N9900 G3 X387.5 Y217.4 I-1.9 J0.
N9910 G1 X384.9
N9920 Y294.3
N9930 X387.5
N9940 G3 X389.4 Y296.2 I0. J1.9
N9950 G1 Y306.2
N9960 G3 X387.5 Y308.1 I-1.9 J0.
N9970 G1 X384.9
N9980 Y363.
N9990 G3 X377. Y370.9 I-7.9 J0.
N100 G1 X317.4
N110 Y373.5
N120 G3 X315.5 Y375.4 I-1.9 J0.
N130 G1 X305.5
N140 G3 X303.6 Y373.5 I0. J-1.9
N150 G1 Y370.9
N160 X226.9
N170 Y373.5
N180 G3 X225. Y375.4 I-1.9 J0.
N190 G1 X215.
N200 G3 X213.1 Y373.5 I0. J-1.9
N210 G1 Y370.9
N220 X176.9
N230 Y373.5
N240 G3 X175. Y375.4 I-1.9 J0.
N250 G1 X165.
N260 G3 X163.1 Y373.5 I0. J-1.9
N270 G1 Y370.9
N280 X86.4
N290 Y373.5
N300 G3 X84.5 Y375.4 I-1.9 J0.
N310 G1 X74.5
N320 G3 X72.6 Y373.5 I0. J-1.9
N330 G1 Y370.9
N340 X13.
N350 G3 X5.1 Y363. I0. J-7.9
N360 G1 Y308.1
N370 X2.5
N380 G3 X.6 Y306.2 I0. J-1.9
N390 G1 Y296.2
N400 G3 X2.5 Y294.3 I1.9 J0.
N410 G1 X5.1
N420 Y217.4
N430 X2.5
N440 G3 X.6 Y215.5 I0. J-1.9
N450 G1 Y205.5
N460 G3 X2.5 Y203.6 I1.9 J0.
N470 G1 X5.1
N480 Y167.4
N490 X2.5
N500 G3 X.6 Y165.5 I0. J-1.9
N510 G1 Y155.5
N520 G3 X2.5 Y153.6 I1.9 J0.
N530 G1 X5.1
N540 Y76.7
N550 X2.5
N560 G3 X.6 Y74.8 I0. J-1.9
N570 G1 Y64.8
N580 G3 X2.5 Y62.9 I1.9 J0.
N590 G1 X5.1
N600 Y8.
N610 G3 X13. Y.1 I7.9 J0.
N620 G1 X72.6
N630 Y-2.5
N640 G3 X74.5 Y-4.4 I1.9 J0.
N650 G1 X84.5
N660 G3 X86.4 Y-2.5 I0. J1.9
N670 G1 Y.1
N680 X163.1
N690 Y-2.5
N700 G3 X165. Y-4.4 I1.9 J0.
N710 G1 X175.
N720 G3 X176.9 Y-2.5 I0. J1.9
N730 G1 Y.1
N740 X213.1
N750 Y-2.5
N760 G3 X215. Y-4.4 I1.9 J0.
N770 G1 X225.
N780 G3 X226.9 Y-2.5 I0. J1.9
N790 G1 Y.1
N800 X303.6
N810 Y-2.5
N820 G3 X305.5 Y-4.4 I1.9 J0.
N830 G1 X315.5
N840 G3 X317.4 Y-2.5 I0. J1.9
N850 G1 Y.1
N860 X377.
N870 G3 X384.9 Y8. I0. J7.9
N880 G1 Y62.9
N890 X387.5
N900 G3 X389.4 Y64.8 I0. J1.9
N910 G1 Y74.8
N920 G3 X387.5 Y76.7 I-1.9 J0.
N930 G1 X384.9
N940 Y153.6
N950 Z-4.133 F150.
N960 X387.5 F500.
N970 G3 X389.4 Y155.5 I0. J1.9
N980 G1 Y165.5
N990 G3 X387.5 Y167.4 I-1.9 J0.
N1000 G1 X384.9
N1010 Y203.6
N1020 X387.5
N1030 G3 X389.4 Y205.5 I0. J1.9
N1040 G1 Y215.5
N1050 G3 X387.5 Y217.4 I-1.9 J0.
N1060 G1 X384.9
N1070 Y294.3
N1080 X387.5
N1090 G3 X389.4 Y296.2 I0. J1.9
N1100 G1 Y306.2
N1110 G3 X387.5 Y308.1 I-1.9 J0.
N1120 G1 X384.9
N1130 Y363.
N1140 G3 X377. Y370.9 I-7.9 J0.
N1150 G1 X317.4
N1160 Y373.5
N1170 G3 X315.5 Y375.4 I-1.9 J0.
N1180 G1 X305.5
N1190 G3 X303.6 Y373.5 I0. J-1.9
N1200 G1 Y370.9
N1210 X226.9
N1220 Y373.5
N1230 G3 X225. Y375.4 I-1.9 J0.
N1240 G1 X215.
N1250 G3 X213.1 Y373.5 I0. J-1.9
N1260 G1 Y370.9
N1270 X176.9
N1280 Y373.5
N1290 G3 X175. Y375.4 I-1.9 J0.
N1300 G1 X165.
N1310 G3 X163.1 Y373.5 I0. J-1.9
N1320 G1 Y370.9
N1330 X86.4
N1340 Y373.5
N1350 G3 X84.5 Y375.4 I-1.9 J0.
N1360 G1 X74.5
N1370 G3 X72.6 Y373.5 I0. J-1.9
N1380 G1 Y370.9
N1390 X13.
N1400 G3 X5.1 Y363. I0. J-7.9
N1410 G1 Y308.1
N1420 X2.5
N1430 G3 X.6 Y306.2 I0. J-1.9
N1440 G1 Y296.2
N1450 G3 X2.5 Y294.3 I1.9 J0.
N1460 G1 X5.1
N1470 Y217.4
N1480 X2.5
N1490 G3 X.6 Y215.5 I0. J-1.9
N1500 G1 Y205.5
N1510 G3 X2.5 Y203.6 I1.9 J0.
N1520 G1 X5.1
N1530 Y167.4
N1540 X2.5
N1550 G3 X.6 Y165.5 I0. J-1.9
N1560 G1 Y155.5
N1570 G3 X2.5 Y153.6 I1.9 J0.
N1580 G1 X5.1
N1590 Y76.7
N1600 X2.5
N1610 G3 X.6 Y74.8 I0. J-1.9
N1620 G1 Y64.8
N1630 G3 X2.5 Y62.9 I1.9 J0.
N1640 G1 X5.1
N1650 Y8.
N1660 G3 X13. Y.1 I7.9 J0.
N1670 G1 X72.6
N1680 Y-2.5
N1690 G3 X74.5 Y-4.4 I1.9 J0.
N1700 G1 X84.5
N1710 G3 X86.4 Y-2.5 I0. J1.9
N1720 G1 Y.1
N1730 X163.1
N1740 Y-2.5
N1750 G3 X165. Y-4.4 I1.9 J0.
N1760 G1 X175.
N1770 G3 X176.9 Y-2.5 I0. J1.9
N1780 G1 Y.1
N1790 X213.1
N1800 Y-2.5
N1810 G3 X215. Y-4.4 I1.9 J0.
N1820 G1 X225.
N1830 G3 X226.9 Y-2.5 I0. J1.9
N1840 G1 Y.1
N1850 X303.6
N1860 Y-2.5
N1870 G3 X305.5 Y-4.4 I1.9 J0.
N1880 G1 X315.5
N1890 G3 X317.4 Y-2.5 I0. J1.9
N1900 G1 Y.1
N1910 X377.
N1920 G3 X384.9 Y8. I0. J7.9
N1930 G1 Y62.9
N1940 X387.5
N1950 G3 X389.4 Y64.8 I0. J1.9
N1960 G1 Y74.8
N1970 G3 X387.5 Y76.7 I-1.9 J0.
N1980 G1 X384.9
N1990 Y153.6
N2000 Z-6.2 F150.
N2010 X387.5 F500.
N2020 G3 X389.4 Y155.5 I0. J1.9
N2030 G1 Y165.5
N2040 G3 X387.5 Y167.4 I-1.9 J0.
N2050 G1 X384.9
N2060 Y203.6
N2070 X387.5
N2080 G3 X389.4 Y205.5 I0. J1.9
N2090 G1 Y215.5
N2100 G3 X387.5 Y217.4 I-1.9 J0.
N2110 G1 X384.9
N2120 Y261.025
N2130 Y262.725 Z-4.5
N2140 Y282.225
N2150 Y283.925 Z-6.2
N2160 Y294.3
N2170 X387.5
N2180 G3 X389.4 Y296.2 I0. J1.9
N2190 G1 Y306.2
N2200 G3 X387.5 Y308.1 I-1.9 J0.
N2210 G1 X384.9
N2220 Y363.
N2230 G3 X377. Y370.9 I-7.9 J0.
N2240 G1 X317.4
N2250 Y373.5
N2260 G3 X315.5 Y375.4 I-1.9 J0.
N2270 G1 X305.5
N2280 G3 X303.6 Y373.5 I0. J-1.9
N2290 G1 Y370.9
N2300 X238.35
N2310 X236.65 Z-4.5
N2320 X226.9
N2330 Y373.5
N2340 G3 X225. Y375.4 I-1.9 J0.
N2350 G1 X220.835
N2360 X219.135 Z-6.2
N2370 X215.
N2380 G3 X213.1 Y373.5 I0. J-1.9
N2390 G1 Y370.9
N2400 X176.9
N2410 Y373.5
N2420 G3 X175. Y375.4 I-1.9 J0.
N2430 G1 X165.
N2440 G3 X163.1 Y373.5 I0. J-1.9
N2450 G1 Y370.9
N2460 X86.4
N2470 Y373.5
N2480 G3 X84.5 Y375.4 I-1.9 J0.
N2490 G1 X74.5
N2500 G3 X72.6 Y373.5 I0. J-1.9
N2510 G1 Y370.9
N2520 X13.
N2530 G3 X5.1 Y363. I0. J-7.9
N2540 G1 Y352.925
N2550 Y351.225 Z-4.5
N2560 Y331.725
N2570 Y330.025 Z-6.2
N2580 Y308.1
N2590 X2.5
N2600 G3 X.6 Y306.2 I0. J-1.9
N2610 G1 Y296.2
N2620 G3 X2.5 Y294.3 I1.9 J0.
N2630 G1 X5.1
N2640 Y217.4
N2650 X2.5
N2660 G3 X.6 Y215.5 I0. J-1.9
N2670 G1 Y205.5
N2680 G3 X2.5 Y203.6 I1.9 J0.
N2690 G1 X5.1
N2700 Y167.4
N2710 X2.5
N2720 G3 X.6 Y165.5 I0. J-1.9
N2730 G1 Y155.5
N2740 G3 X2.5 Y153.6 I1.9 J0.
N2750 G1 X5.1
N2760 Y109.975
N2770 Y108.275 Z-4.5
N2780 Y88.775
N2790 Y87.075 Z-6.2
N2800 Y76.7
N2810 X2.5
N2820 G3 X.6 Y74.8 I0. J-1.9
N2830 G1 Y64.8
N2840 G3 X2.5 Y62.9 I1.9 J0.
N2850 G1 X5.1
N2860 Y8.
N2870 G3 X13. Y.1 I7.9 J0.
N2880 G1 X72.6
N2890 Y-2.5
N2900 G3 X74.5 Y-4.4 I1.9 J0.
N2910 G1 X84.5
N2920 G3 X86.4 Y-2.5 I0. J1.9
N2930 G1 Y.1
N2940 X151.65
N2950 X153.35 Z-4.5
N2960 X163.1
N2970 Y-2.5
N2980 G3 X165. Y-4.4 I1.9 J0.
N2990 G1 X169.165
N3000 X170.865 Z-6.2
N3010 X175.
N3020 G3 X176.9 Y-2.5 I0. J1.9
N3030 G1 Y.1
N3040 X213.1
N3050 Y-2.5
N3060 G3 X215. Y-4.4 I1.9 J0.
N3070 G1 X225.
N3080 G3 X226.9 Y-2.5 I0. J1.9
N3090 G1 Y.1
N3100 X303.6
N3110 Y-2.5
N3120 G3 X305.5 Y-4.4 I1.9 J0.
N3130 G1 X315.5
N3140 G3 X317.4 Y-2.5 I0. J1.9
N3150 G1 Y.1
N3160 X377.
N3170 G3 X384.9 Y8. I0. J7.9
N3180 G1 Y18.075
N3190 Y19.775 Z-4.5
N3200 Y39.275
N3210 Y40.975 Z-6.2
N3220 Y62.9
N3230 X387.5
N3240 G3 X389.4 Y64.8 I0. J1.9
N3250 G1 Y74.8
N3260 G3 X387.5 Y76.7 I-1.9 J0.
N3270 G1 X384.9
N3280 Y153.6
N3290 X384.4 Y154.1
N3300 X387.5
N3310 G3 X388.9 Y155.5 I0. J1.4
N3320 G1 Y165.5
N3330 G3 X387.5 Y166.9 I-1.4 J0.
N3340 G1 X384.4
N3350 Y204.1
N3360 X387.5
N3370 G3 X388.9 Y205.5 I0. J1.4
N3380 G1 Y215.5
N3390 G3 X387.5 Y216.9 I-1.4 J0.
N3400 G1 X384.4
N3410 Y261.025
N3420 Y262.725 Z-4.5
N3430 Y282.225
N3440 Y283.925 Z-6.2
N3450 Y294.8
N3460 X387.5
N3470 G3 X388.9 Y296.2 I0. J1.4
N3480 G1 Y306.2
N3490 G3 X387.5 Y307.6 I-1.4 J0.
N3500 G1 X384.4
N3510 Y363.
N3520 G3 X377. Y370.4 I-7.4 J0.
N3530 G1 X316.9
N3540 Y373.5
N3550 G3 X315.5 Y374.9 I-1.4 J0.
N3560 G1 X305.5
N3570 G3 X304.1 Y373.5 I0. J-1.4
N3580 G1 Y370.4
N3590 X237.85
N3600 X236.15 Z-4.5
N3610 X226.4
N3620 Y373.5
N3630 G3 X225. Y374.9 I-1.4 J0.
N3640 G1 X220.549
N3650 X218.849 Z-6.2
N3660 X215.
N3670 G3 X213.6 Y373.5 I0. J-1.4
N3680 G1 Y370.4
N3690 X176.4
N3700 Y373.5
N3710 G3 X175. Y374.9 I-1.4 J0.
N3720 G1 X165.
N3730 G3 X163.6 Y373.5 I0. J-1.4
N3740 G1 Y370.4
N3750 X85.9
N3760 Y373.5
N3770 G3 X84.5 Y374.9 I-1.4 J0.
N3780 G1 X74.5
N3790 G3 X73.1 Y373.5 I0. J-1.4
N3800 G1 Y370.4
N3810 X13.
N3820 G3 X5.6 Y363. I0. J-7.4
N3830 G1 Y352.925
N3840 Y351.225 Z-4.5
N3850 Y331.725
N3860 Y330.025 Z-6.2
N3870 Y307.6
N3880 X2.5
N3890 G3 X1.1 Y306.2 I0. J-1.4
N3900 G1 Y296.2
N3910 G3 X2.5 Y294.8 I1.4 J0.
N3920 G1 X5.6
N3930 Y216.9
N3940 X2.5
N3950 G3 X1.1 Y215.5 I0. J-1.4
N3960 G1 Y205.5
N3970 G3 X2.5 Y204.1 I1.4 J0.
N3980 G1 X5.6
N3990 Y166.9
N4000 X2.5
N4010 G3 X1.1 Y165.5 I0. J-1.4
N4020 G1 Y155.5
N4030 G3 X2.5 Y154.1 I1.4 J0.
N4040 G1 X5.6
N4050 Y109.975
N4060 Y108.275 Z-4.5
N4070 Y88.775
N4080 Y87.075 Z-6.2
N4090 Y76.2
N4100 X2.5
N4110 G3 X1.1 Y74.8 I0. J-1.4
N4120 G1 Y64.8
N4130 G3 X2.5 Y63.4 I1.4 J0.
N4140 G1 X5.6
N4150 Y8.
N4160 G3 X13. Y.6 I7.4 J0.
N4170 G1 X73.1
N4180 Y-2.5
N4190 G3 X74.5 Y-3.9 I1.4 J0.
N4200 G1 X84.5
N4210 G3 X85.9 Y-2.5 I0. J1.4
N4220 G1 Y.6
N4230 X152.15
N4240 X153.85 Z-4.5
N4250 X163.6
N4260 Y-2.5
N4270 G3 X165. Y-3.9 I1.4 J0.
N4280 G1 X169.451
N4290 X171.151 Z-6.2
N4300 X175.
N4310 G3 X176.4 Y-2.5 I0. J1.4
N4320 G1 Y.6
N4330 X213.6
N4340 Y-2.5
N4350 G3 X215. Y-3.9 I1.4 J0.
N4360 G1 X225.
N4370 G3 X226.4 Y-2.5 I0. J1.4
N4380 G1 Y.6
N4390 X304.1
N4400 Y-2.5
N4410 G3 X305.5 Y-3.9 I1.4 J0.
N4420 G1 X315.5
N4430 G3 X316.9 Y-2.5 I0. J1.4
N4440 G1 Y.6
N4450 X377.
N4460 G3 X384.4 Y8. I0. J7.4
N4470 G1 Y18.075
N4480 Y19.775 Z-4.5
N4490 Y39.275
N4500 Y40.975 Z-6.2
N4510 Y63.4
N4520 X387.5
N4530 G3 X388.9 Y64.8 I0. J1.4
N4540 G1 Y74.8
N4550 G3 X387.5 Y76.2 I-1.4 J0.
N4560 G1 X384.4
N4570 Y154.1
N4580 G0 Z5.
N4590 X342.4 Y168.338
N4600 G1 Z-6.2
N4610 Y191.238
N4620 G0 Z5.
N4630 X199.662 Y303.4
N4640 G1 Z-6.2
N4650 X176.762
N4660 G0 Z5.
N4670 X44.6 Y180.662
N4680 G1 Z-6.2
N4690 Y157.762
N4700 G0 Z5.
N4710 X187.338 Y45.6
N4720 G1 Z-6.2
N4730 X210.238
N4740 G0 Z5.
N4750 X35.4 Y214.919
N4760 G1 Z-6.2
N4770 Y192.019
N4780 G0 Z5.
N4790 X94.59 Y30.4
N4800 G1 Z-6.2
N4810 X117.49
N4820 G0 Z5.
N4830 X338.525
N4840 G1 Z-6.2
N4850 X350.
N4860 G3 X354.6 Y35. I0. J4.6
N4870 G1 Y39.199
N4880 G0 Z5.
N4890 Y258.035
N4900 G1 Z-6.2
N4910 Y280.935
N4920 G0 Z5.
N4930 X173.438 Y320.6
N4940 G1 Z-6.2
N4950 X150.538
N4960 G0 Z5.
N4970 X384.4 Y261.025
N4980 G1 Z-6.2
N4990 Y283.925
N5000 G0 Z5.
N5010 X237.85 Y370.4
N5020 G1 Z-6.2
N5030 X226.4
N5040 Y373.5
N5050 G3 X225. Y374.9 I-1.4 J0.
N5060 G1 X218.849
N5070 G0 Z5.
N5080 X5.6 Y352.925
N5090 G1 Z-6.2
N5100 Y330.025
N5110 G0 Z5.
N5120 Y109.975
N5130 G1 Z-6.2
N5140 Y87.075
N5150 G0 Z5.
N5160 X152.15 Y.6
N5170 G1 Z-6.2
N5180 X163.6
N5190 Y-2.5
N5200 G3 X165. Y-3.9 I1.4 J0.
N5210 G1 X171.151
N5220 G0 Z5.
N5230 X384.4 Y18.075
N5240 G1 Z-6.2
N5250 Y40.975
N5260 G0 Z5.
N5270 M5
N5280 G91 Z10
N5300 M30
%
