%
O0000(CORTE NERVIOS)
(DATE=DD-MM-YY - 30-09-15 TIME=HH:MM - 22:25)
(MCX FILE - C:\USERS\CAMPY\DESKTOP\PANELES ULTICAMPY V3 CAM\PANEL_IZQUIERDO_V4.SLDPRT)
(NC FILE - C:\USERS\CAMPY\DESKTOP\PANELES ULTICAMPY V3 CAM\MACH3\PANEL IZQUIERDO\CORTE NERVIOS.NC)
(MATERIAL - ALUMINUM MM - 2024)
( T2 | FRESA 3MM CAJA AZUL | H2 | XY STOCK TO LEAVE - -.05 | Z STOCK TO LEAVE - 0. )
N100 G21
N110 G0 G17 G40 G49 G80 G90
N120 T2 M6 Z5
N130 G0 G90 G54 X387.4 Y127.415 A0. S15000 M3
N140 G43 H2 Z5.
N150 G1 Z-6.2 F500.
N160 Y150.315
N170 G0 Z5.
N180 Y393.261
N190 G1 Z-6.2
N200 Y404.098
N210 G3 X380. Y411.498 I-7.4 J0.
N220 G1 X379.561
N230 G0 Z5.
N240 X138.246 Y421.4
N250 G1 Z-6.2
N260 X115.346
N270 G0 Z5.
N280 X-.4 Y282.637
N290 G1 Z-6.2
N300 Y259.737
N310 G0 Z5.
N320 Y16.78
N330 G1 Z-6.2
N340 Y6.
N350 G3 X7. Y-1.4 I7.4 J0.
N360 G1 X7.496
N370 G0 Z5.
N380 X248.754 Y8.6
N390 G1 Z-6.2
N400 X271.654
N410 G0 Z5.
N420 M5
N430 G91 Z5
N440 X0. Y0. A0.
N450 M30
%
