%
O0000(PANEL_IZQUIERDO_V4)
(DATE=DD-MM-YY - 30-09-15 TIME=HH:MM - 22:24)
(MCX FILE - C:\USERS\CAMPY\DESKTOP\PANELES ULTICAMPY V3 CAM\PANEL_IZQUIERDO_V4.SLDPRT)
(NC FILE - C:\USERS\CAMPY\DESKTOP\PANELES ULTICAMPY V3 CAM\MACH3\PANEL IZQUIERDO\PANEL_IZQUIERDO_V4.NC)
(MATERIAL - ALUMINUM MM - 2024)
( T2 | FRESA 3MM CAJA AZUL | H2 | XY STOCK TO LEAVE - -.05 | Z STOCK TO LEAVE - 0. )
N100 G21
N110 G0 G17 G40 G49 G80 G90
N120 T2 M6 Z5
N130 G0 G90 G54 X53. Y70.15 A0. S15000 M3
N140 G43 H2 Z5.
N150 G1 Z-2.067 F150.
N160 G3 X52.85 Y70. I0. J-.15 F500.
N170 X53. Y69.85 I.15 J0.
N180 X53.15 Y70. I0. J.15
N190 X53. Y70.15 I-.15 J0.
N200 G1 Z-4.133 F150.
N210 G3 X52.85 Y70. I0. J-.15 F500.
N220 X53. Y69.85 I.15 J0.
N230 X53.15 Y70. I0. J.15
N240 X53. Y70.15 I-.15 J0.
N250 G1 Z-6.2 F150.
N260 G3 X52.85 Y70. I0. J-.15 F500.
N270 X53. Y69.85 I.15 J0.
N280 X53.15 Y70. I0. J.15
N290 X53. Y70.15 I-.15 J0.
N300 G0 Z-1.2
N310 Z5.
N320 X8.75 Y61.903
N330 G1 Z-2.067 F150.
N340 G3 X8.55 Y61.703 I0. J-.2 F500.
N350 X8.75 Y61.503 I.2 J0.
N360 X8.95 Y61.703 I0. J.2
N370 X8.75 Y61.903 I-.2 J0.
N380 G1 Z-4.133 F150.
N390 G3 X8.55 Y61.703 I0. J-.2 F500.
N400 X8.75 Y61.503 I.2 J0.
N410 X8.95 Y61.703 I0. J.2
N420 X8.75 Y61.903 I-.2 J0.
N430 G1 Z-6.2 F150.
N440 G3 X8.55 Y61.703 I0. J-.2 F500.
N450 X8.75 Y61.503 I.2 J0.
N460 X8.95 Y61.703 I0. J.2
N470 X8.75 Y61.903 I-.2 J0.
N480 G0 Z-1.2
N490 Z5.
N500 Y215.2
N510 G1 Z-2.067 F150.
N520 G3 X8.55 Y215. I0. J-.2 F500.
N530 X8.75 Y214.8 I.2 J0.
N540 X8.95 Y215. I0. J.2
N550 X8.75 Y215.2 I-.2 J0.
N560 G1 Z-4.133 F150.
N570 G3 X8.55 Y215. I0. J-.2 F500.
N580 X8.75 Y214.8 I.2 J0.
N590 X8.95 Y215. I0. J.2
N600 X8.75 Y215.2 I-.2 J0.
N610 G1 Z-6.2 F150.
N620 G3 X8.55 Y215. I0. J-.2 F500.
N630 X8.75 Y214.8 I.2 J0.
N640 X8.95 Y215. I0. J.2
N650 X8.75 Y215.2 I-.2 J0.
N660 G0 Z-1.2
N670 Z5.
N680 Y368.498
N690 G1 Z-2.067 F150.
N700 G3 X8.55 Y368.298 I0. J-.2 F500.
N710 X8.75 Y368.098 I.2 J0.
N720 X8.95 Y368.298 I0. J.2
N730 X8.75 Y368.498 I-.2 J0.
N740 G1 Z-4.133 F150.
N750 G3 X8.55 Y368.298 I0. J-.2 F500.
N760 X8.75 Y368.098 I.2 J0.
N770 X8.95 Y368.298 I0. J.2
N780 X8.75 Y368.498 I-.2 J0.
N790 G1 Z-6.2 F150.
N800 G3 X8.55 Y368.298 I0. J-.2 F500.
N810 X8.75 Y368.098 I.2 J0.
N820 X8.95 Y368.298 I0. J.2
N830 X8.75 Y368.498 I-.2 J0.
N840 G0 Z-1.2
N850 Z5.
N860 X53. Y412.15
N870 G1 Z-2.067 F150.
N880 G3 X52.85 Y412. I0. J-.15 F500.
N890 X53. Y411.85 I.15 J0.
N900 X53.15 Y412. I0. J.15
N910 X53. Y412.15 I-.15 J0.
N920 G1 Z-4.133 F150.
N930 G3 X52.85 Y412. I0. J-.15 F500.
N940 X53. Y411.85 I.15 J0.
N950 X53.15 Y412. I0. J.15
N960 X53. Y412.15 I-.15 J0.
N970 G1 Z-6.2 F150.
N980 G3 X52.85 Y412. I0. J-.15 F500.
N990 X53. Y411.85 I.15 J0.
N1000 X53.15 Y412. I0. J.15
N1010 X53. Y412.15 I-.15 J0.
N1020 G0 Z-1.2
N1030 Z5.
N1040 X193.5
N1050 G1 Z-2.067 F150.
N1060 G3 X193.35 Y412. I0. J-.15 F500.
N1070 X193.5 Y411.85 I.15 J0.
N1080 X193.65 Y412. I0. J.15
N1090 X193.5 Y412.15 I-.15 J0.
N1100 G1 Z-4.133 F150.
N1110 G3 X193.35 Y412. I0. J-.15 F500.
N1120 X193.5 Y411.85 I.15 J0.
N1130 X193.65 Y412. I0. J.15
N1140 X193.5 Y412.15 I-.15 J0.
N1150 G1 Z-6.2 F150.
N1160 G3 X193.35 Y412. I0. J-.15 F500.
N1170 X193.5 Y411.85 I.15 J0.
N1180 X193.65 Y412. I0. J.15
N1190 X193.5 Y412.15 I-.15 J0.
N1200 G0 Z-1.2
N1210 Z5.
N1220 X334.
N1230 G1 Z-2.067 F150.
N1240 G3 X333.85 Y412. I0. J-.15 F500.
N1250 X334. Y411.85 I.15 J0.
N1260 X334.15 Y412. I0. J.15
N1270 X334. Y412.15 I-.15 J0.
N1280 G1 Z-4.133 F150.
N1290 G3 X333.85 Y412. I0. J-.15 F500.
N1300 X334. Y411.85 I.15 J0.
N1310 X334.15 Y412. I0. J.15
N1320 X334. Y412.15 I-.15 J0.
N1330 G1 Z-6.2 F150.
N1340 G3 X333.85 Y412. I0. J-.15 F500.
N1350 X334. Y411.85 I.15 J0.
N1360 X334.15 Y412. I0. J.15
N1370 X334. Y412.15 I-.15 J0.
N1380 G0 Z-1.2
N1390 Z5.
N1400 X378.25 Y368.498
N1410 G1 Z-2.067 F150.
N1420 G3 X378.05 Y368.298 I0. J-.2 F500.
N1430 X378.25 Y368.098 I.2 J0.
N1440 X378.45 Y368.298 I0. J.2
N1450 X378.25 Y368.498 I-.2 J0.
N1460 G1 Z-4.133 F150.
N1470 G3 X378.05 Y368.298 I0. J-.2 F500.
N1480 X378.25 Y368.098 I.2 J0.
N1490 X378.45 Y368.298 I0. J.2
N1500 X378.25 Y368.498 I-.2 J0.
N1510 G1 Z-6.2 F150.
N1520 G3 X378.05 Y368.298 I0. J-.2 F500.
N1530 X378.25 Y368.098 I.2 J0.
N1540 X378.45 Y368.298 I0. J.2
N1550 X378.25 Y368.498 I-.2 J0.
N1560 G0 Z-1.2
N1570 Z5.
N1580 Y215.2
N1590 G1 Z-2.067 F150.
N1600 G3 X378.05 Y215. I0. J-.2 F500.
N1610 X378.25 Y214.8 I.2 J0.
N1620 X378.45 Y215. I0. J.2
N1630 X378.25 Y215.2 I-.2 J0.
N1640 G1 Z-4.133 F150.
N1650 G3 X378.05 Y215. I0. J-.2 F500.
N1660 X378.25 Y214.8 I.2 J0.
N1670 X378.45 Y215. I0. J.2
N1680 X378.25 Y215.2 I-.2 J0.
N1690 G1 Z-6.2 F150.
N1700 G3 X378.05 Y215. I0. J-.2 F500.
N1710 X378.25 Y214.8 I.2 J0.
N1720 X378.45 Y215. I0. J.2
N1730 X378.25 Y215.2 I-.2 J0.
N1740 G0 Z-1.2
N1750 Z5.
N1760 X334. Y70.15
N1770 G1 Z-2.067 F150.
N1780 G3 X333.85 Y70. I0. J-.15 F500.
N1790 X334. Y69.85 I.15 J0.
N1800 X334.15 Y70. I0. J.15
N1810 X334. Y70.15 I-.15 J0.
N1820 G1 Z-4.133 F150.
N1830 G3 X333.85 Y70. I0. J-.15 F500.
N1840 X334. Y69.85 I.15 J0.
N1850 X334.15 Y70. I0. J.15
N1860 X334. Y70.15 I-.15 J0.
N1870 G1 Z-6.2 F150.
N1880 G3 X333.85 Y70. I0. J-.15 F500.
N1890 X334. Y69.85 I.15 J0.
N1900 X334.15 Y70. I0. J.15
N1910 X334. Y70.15 I-.15 J0.
N1920 G0 Z-1.2
N1930 Z5.
N1940 X378.25 Y61.903
N1950 G1 Z-2.067 F150.
N1960 G3 X378.05 Y61.703 I0. J-.2 F500.
N1970 X378.25 Y61.503 I.2 J0.
N1980 X378.45 Y61.703 I0. J.2
N1990 X378.25 Y61.903 I-.2 J0.
N2000 G1 Z-4.133 F150.
N2010 G3 X378.05 Y61.703 I0. J-.2 F500.
N2020 X378.25 Y61.503 I.2 J0.
N2030 X378.45 Y61.703 I0. J.2
N2040 X378.25 Y61.903 I-.2 J0.
N2050 G1 Z-6.2 F150.
N2060 G3 X378.05 Y61.703 I0. J-.2 F500.
N2070 X378.25 Y61.503 I.2 J0.
N2080 X378.45 Y61.703 I0. J.2
N2090 X378.25 Y61.903 I-.2 J0.
N2100 G0 Z-1.2
N2110 Z5.
N2120 X193.5 Y70.15
N2130 G1 Z-2.067 F150.
N2140 G3 X193.35 Y70. I0. J-.15 F500.
N2150 X193.5 Y69.85 I.15 J0.
N2160 X193.65 Y70. I0. J.15
N2170 X193.5 Y70.15 I-.15 J0.
N2180 G1 Z-4.133 F150.
N2190 G3 X193.35 Y70. I0. J-.15 F500.
N2200 X193.5 Y69.85 I.15 J0.
N2210 X193.65 Y70. I0. J.15
N2220 X193.5 Y70.15 I-.15 J0.
N2230 G1 Z-6.2 F150.
N2240 G3 X193.35 Y70. I0. J-.15 F500.
N2250 X193.5 Y69.85 I.15 J0.
N2260 X193.65 Y70. I0. J.15
N2270 X193.5 Y70.15 I-.15 J0.
N2280 G0 Z5.
N2290 X22.159 Y88.
N2300 G1 Z-2.067 F150.
N2310 G3 X22.703 Y87.456 I.544 J0. F500.
N2320 X23.247 Y88. I0. J.544
N2330 G1 Y116.035
N2340 G3 X22.703 Y116.579 I-.544 J0.
N2350 X22.159 Y116.035 I0. J-.544
N2360 G1 Y88.
N2370 Z-4.133 F150.
N2380 G3 X22.703 Y87.456 I.544 J0. F500.
N2390 X23.247 Y88. I0. J.544
N2400 G1 Y116.035
N2410 G3 X22.703 Y116.579 I-.544 J0.
N2420 X22.159 Y116.035 I0. J-.544
N2430 G1 Y88.
N2440 Z-6.2 F150.
N2450 G3 X22.703 Y87.456 I.544 J0. F500.
N2460 X23.247 Y88. I0. J.544
N2470 G1 Y116.035
N2480 G3 X22.703 Y116.579 I-.544 J0.
N2490 X22.159 Y116.035 I0. J-.544
N2500 G1 Y88.
N2510 X22.059
N2520 G3 X22.703 Y87.356 I.644 J0.
N2530 X23.347 Y88. I0. J.644
N2540 G1 Y116.035
N2550 G3 X22.703 Y116.679 I-.644 J0.
N2560 X22.059 Y116.035 I0. J-.644
N2570 G1 Y88.
N2580 G0 Z-1.2
N2590 Z5.
N2600 X26.6 Y400.348
N2610 G1 Z-2.067 F150.
N2620 G3 X23.85 Y397.598 I0. J-2.75 F500.
N2630 X26.6 Y394.848 I2.75 J0.
N2640 X29.35 Y397.598 I0. J2.75
N2650 X26.6 Y400.348 I-2.75 J0.
N2660 G1 Z-4.133 F150.
N2670 G3 X23.85 Y397.598 I0. J-2.75 F500.
N2680 X26.6 Y394.848 I2.75 J0.
N2690 X29.35 Y397.598 I0. J2.75
N2700 X26.6 Y400.348 I-2.75 J0.
N2710 G1 Z-6.2 F150.
N2720 G3 X23.85 Y397.598 I0. J-2.75 F500.
N2730 X26.6 Y394.848 I2.75 J0.
N2740 X29.35 Y397.598 I0. J2.75
N2750 X26.6 Y400.348 I-2.75 J0.
N2760 G1 Y400.448
N2770 G3 X23.75 Y397.598 I0. J-2.85
N2780 X26.6 Y394.748 I2.85 J0.
N2790 X29.45 Y397.598 I0. J2.85
N2800 X26.6 Y400.448 I-2.85 J0.
N2810 G0 Z-1.2
N2820 Z5.
N2830 X338.7 Y400.348
N2840 G1 Z-2.067 F150.
N2850 G3 X335.95 Y397.598 I0. J-2.75 F500.
N2860 X338.7 Y394.848 I2.75 J0.
N2870 X341.45 Y397.598 I0. J2.75
N2880 X338.7 Y400.348 I-2.75 J0.
N2890 G1 Z-4.133 F150.
N2900 G3 X335.95 Y397.598 I0. J-2.75 F500.
N2910 X338.7 Y394.848 I2.75 J0.
N2920 X341.45 Y397.598 I0. J2.75
N2930 X338.7 Y400.348 I-2.75 J0.
N2940 G1 Z-6.2 F150.
N2950 G3 X335.95 Y397.598 I0. J-2.75 F500.
N2960 X338.7 Y394.848 I2.75 J0.
N2970 X341.45 Y397.598 I0. J2.75
N2980 X338.7 Y400.348 I-2.75 J0.
N2990 G1 Y400.448
N3000 G3 X335.85 Y397.598 I0. J-2.85
N3010 X338.7 Y394.748 I2.85 J0.
N3020 X341.55 Y397.598 I0. J2.85
N3030 X338.7 Y400.448 I-2.85 J0.
N3040 G0 Z-1.2
N3050 Z5.
N3060 X337. Y340.
N3070 G1 Z-2.067 F150.
N3080 G3 X336.9 Y340.1 I-.1 J0. F500.
N3090 X336.8 Y340. I0. J-.1
N3100 G1 Y331.5
N3110 G3 X336.9 Y331.4 I.1 J0.
N3120 X337. Y331.5 I0. J.1
N3130 G1 Y340.
N3140 Z-4.133 F150.
N3150 G3 X336.9 Y340.1 I-.1 J0. F500.
N3160 X336.8 Y340. I0. J-.1
N3170 G1 Y331.5
N3180 G3 X336.9 Y331.4 I.1 J0.
N3190 X337. Y331.5 I0. J.1
N3200 G1 Y340.
N3210 Z-6.2 F150.
N3220 G3 X336.9 Y340.1 I-.1 J0. F500.
N3230 X336.8 Y340. I0. J-.1
N3240 G1 Y331.5
N3250 G3 X336.9 Y331.4 I.1 J0.
N3260 X337. Y331.5 I0. J.1
N3270 G1 Y340.
N3280 X337.1
N3290 G3 X336.9 Y340.2 I-.2 J0.
N3300 X336.7 Y340. I0. J-.2
N3310 G1 Y331.5
N3320 G3 X336.9 Y331.3 I.2 J0.
N3330 X337.1 Y331.5 I0. J.2
N3340 G1 Y340.
N3350 G0 Z-1.2
N3360 Z5.
N3370 X367.8
N3380 G1 Z-2.067 F150.
N3390 Y331.5 F500.
N3400 G3 X367.9 Y331.4 I.1 J0.
N3410 X368. Y331.5 I0. J.1
N3420 G1 Y340.
N3430 G3 X367.9 Y340.1 I-.1 J0.
N3440 X367.8 Y340. I0. J-.1
N3450 G1 Z-4.133 F150.
N3460 Y331.5 F500.
N3470 G3 X367.9 Y331.4 I.1 J0.
N3480 X368. Y331.5 I0. J.1
N3490 G1 Y340.
N3500 G3 X367.9 Y340.1 I-.1 J0.
N3510 X367.8 Y340. I0. J-.1
N3520 G1 Z-6.2 F150.
N3530 Y331.5 F500.
N3540 G3 X367.9 Y331.4 I.1 J0.
N3550 X368. Y331.5 I0. J.1
N3560 G1 Y340.
N3570 G3 X367.9 Y340.1 I-.1 J0.
N3580 X367.8 Y340. I0. J-.1
N3590 G1 X367.7
N3600 Y331.5
N3610 G3 X367.9 Y331.3 I.2 J0.
N3620 X368.1 Y331.5 I0. J.2
N3630 G1 Y340.
N3640 G3 X367.9 Y340.2 I-.2 J0.
N3650 X367.7 Y340. I0. J-.2
N3660 G0 Z-1.2
N3670 Z5.
N3680 X367.8 Y309.
N3690 G1 Z-2.067 F150.
N3700 Y300.5 F500.
N3710 G3 X367.9 Y300.4 I.1 J0.
N3720 X368. Y300.5 I0. J.1
N3730 G1 Y309.
N3740 G3 X367.9 Y309.1 I-.1 J0.
N3750 X367.8 Y309. I0. J-.1
N3760 G1 Z-4.133 F150.
N3770 Y300.5 F500.
N3780 G3 X367.9 Y300.4 I.1 J0.
N3790 X368. Y300.5 I0. J.1
N3800 G1 Y309.
N3810 G3 X367.9 Y309.1 I-.1 J0.
N3820 X367.8 Y309. I0. J-.1
N3830 G1 Z-6.2 F150.
N3840 Y300.5 F500.
N3850 G3 X367.9 Y300.4 I.1 J0.
N3860 X368. Y300.5 I0. J.1
N3870 G1 Y309.
N3880 G3 X367.9 Y309.1 I-.1 J0.
N3890 X367.8 Y309. I0. J-.1
N3900 G1 X367.7
N3910 Y300.5
N3920 G3 X367.9 Y300.3 I.2 J0.
N3930 X368.1 Y300.5 I0. J.2
N3940 G1 Y309.
N3950 G3 X367.9 Y309.2 I-.2 J0.
N3960 X367.7 Y309. I0. J-.2
N3970 G0 Z-1.2
N3980 Z5.
N3990 X337.
N4000 G1 Z-2.067 F150.
N4010 G3 X336.9 Y309.1 I-.1 J0. F500.
N4020 X336.8 Y309. I0. J-.1
N4030 G1 Y300.5
N4040 G3 X336.9 Y300.4 I.1 J0.
N4050 X337. Y300.5 I0. J.1
N4060 G1 Y309.
N4070 Z-4.133 F150.
N4080 G3 X336.9 Y309.1 I-.1 J0. F500.
N4090 X336.8 Y309. I0. J-.1
N4100 G1 Y300.5
N4110 G3 X336.9 Y300.4 I.1 J0.
N4120 X337. Y300.5 I0. J.1
N4130 G1 Y309.
N4140 Z-6.2 F150.
N4150 G3 X336.9 Y309.1 I-.1 J0. F500.
N4160 X336.8 Y309. I0. J-.1
N4170 G1 Y300.5
N4180 G3 X336.9 Y300.4 I.1 J0.
N4190 X337. Y300.5 I0. J.1
N4200 G1 Y309.
N4210 X337.1
N4220 G3 X336.9 Y309.2 I-.2 J0.
N4230 X336.7 Y309. I0. J-.2
N4240 G1 Y300.5
N4250 G3 X336.9 Y300.3 I.2 J0.
N4260 X337.1 Y300.5 I0. J.2
N4270 G1 Y309.
N4280 G0 Z5.
N4290 X379.1 Y41.703
N4300 G1 Z-2.2 F150.
N4310 Y31.703 F500.
N4320 G3 X379.8 Y31.003 I.7 J0.
N4330 X380.5 Y31.703 I0. J.7
N4340 G1 Y41.703
N4350 G3 X379.8 Y42.403 I-.7 J0.
N4360 X379.1 Y41.703 I0. J-.7
N4370 G1 Z-4.4 F150.
N4380 Y31.703 F500.
N4390 G3 X379.8 Y31.003 I.7 J0.
N4400 X380.5 Y31.703 I0. J.7
N4410 G1 Y41.703
N4420 G3 X379.8 Y42.403 I-.7 J0.
N4430 X379.1 Y41.703 I0. J-.7
N4440 G1 X378.1
N4450 F150.
N4460 Y31.703 F500.
N4470 G3 X379.8 Y30.003 I1.7 J0.
N4480 X381.5 Y31.703 I0. J1.7
N4490 G1 Y41.703
N4500 G3 X379.8 Y43.403 I-1.7 J0.
N4510 X378.1 Y41.703 I0. J-1.7
N4520 G0 Z.6
N4530 Z5.
N4540 X379.1 Y81.703
N4550 G1 Z-2.2 F150.
N4560 G3 X379.8 Y81.003 I.7 J0. F500.
N4570 X380.5 Y81.703 I0. J.7
N4580 G1 Y91.703
N4590 G3 X379.8 Y92.403 I-.7 J0.
N4600 X379.1 Y91.703 I0. J-.7
N4610 G1 Y81.703
N4620 Z-4.4 F150.
N4630 G3 X379.8 Y81.003 I.7 J0. F500.
N4640 X380.5 Y81.703 I0. J.7
N4650 G1 Y91.703
N4660 G3 X379.8 Y92.403 I-.7 J0.
N4670 X379.1 Y91.703 I0. J-.7
N4680 G1 Y81.703
N4690 X378.1
N4700 F150.
N4710 G3 X379.8 Y80.003 I1.7 J0. F500.
N4720 X381.5 Y81.703 I0. J1.7
N4730 G1 Y91.703
N4740 G3 X379.8 Y93.403 I-1.7 J0.
N4750 X378.1 Y91.703 I0. J-1.7
N4760 G1 Y81.703
N4770 G0 Z.6
N4780 Z5.
N4790 X314. Y72.2
N4800 G1 Z-2.2 F150.
N4810 X304. F500.
N4820 G3 X303.3 Y71.5 I0. J-.7
N4830 X304. Y70.8 I.7 J0.
N4840 G1 X314.
N4850 G3 X314.7 Y71.5 I0. J.7
N4860 X314. Y72.2 I-.7 J0.
N4870 G1 Z-4.4 F150.
N4880 X304. F500.
N4890 G3 X303.3 Y71.5 I0. J-.7
N4900 X304. Y70.8 I.7 J0.
N4910 G1 X314.
N4920 G3 X314.7 Y71.5 I0. J.7
N4930 X314. Y72.2 I-.7 J0.
N4940 G1 Y73.2
N4950 F150.
N4960 X304. F500.
N4970 G3 X302.3 Y71.5 I0. J-1.7
N4980 X304. Y69.8 I1.7 J0.
N4990 G1 X314.
N5000 G3 X315.7 Y71.5 I0. J1.7
N5010 X314. Y73.2 I-1.7 J0.
N5020 G0 Z.6
N5030 Z5.
N5040 X223.5 Y72.2
N5050 G1 Z-2.2 F150.
N5060 X213.5 F500.
N5070 G3 X212.8 Y71.5 I0. J-.7
N5080 X213.5 Y70.8 I.7 J0.
N5090 G1 X223.5
N5100 G3 X224.2 Y71.5 I0. J.7
N5110 X223.5 Y72.2 I-.7 J0.
N5120 G1 Z-4.4 F150.
N5130 X213.5 F500.
N5140 G3 X212.8 Y71.5 I0. J-.7
N5150 X213.5 Y70.8 I.7 J0.
N5160 G1 X223.5
N5170 G3 X224.2 Y71.5 I0. J.7
N5180 X223.5 Y72.2 I-.7 J0.
N5190 G1 Y73.2
N5200 F150.
N5210 X213.5 F500.
N5220 G3 X211.8 Y71.5 I0. J-1.7
N5230 X213.5 Y69.8 I1.7 J0.
N5240 G1 X223.5
N5250 G3 X225.2 Y71.5 I0. J1.7
N5260 X223.5 Y73.2 I-1.7 J0.
N5270 G0 Z.6
N5280 Z5.
N5290 X173.5 Y72.2
N5300 G1 Z-2.2 F150.
N5310 X163.5 F500.
N5320 G3 X162.8 Y71.5 I0. J-.7
N5330 X163.5 Y70.8 I.7 J0.
N5340 G1 X173.5
N5350 G3 X174.2 Y71.5 I0. J.7
N5360 X173.5 Y72.2 I-.7 J0.
N5370 G1 Z-4.4 F150.
N5380 X163.5 F500.
N5390 G3 X162.8 Y71.5 I0. J-.7
N5400 X163.5 Y70.8 I.7 J0.
N5410 G1 X173.5
N5420 G3 X174.2 Y71.5 I0. J.7
N5430 X173.5 Y72.2 I-.7 J0.
N5440 G1 Y73.2
N5450 F150.
N5460 X163.5 F500.
N5470 G3 X161.8 Y71.5 I0. J-1.7
N5480 X163.5 Y69.8 I1.7 J0.
N5490 G1 X173.5
N5500 G3 X175.2 Y71.5 I0. J1.7
N5510 X173.5 Y73.2 I-1.7 J0.
N5520 G0 Z.6
N5530 Z5.
N5540 X83. Y72.2
N5550 G1 Z-2.2 F150.
N5560 X73. F500.
N5570 G3 X72.3 Y71.5 I0. J-.7
N5580 X73. Y70.8 I.7 J0.
N5590 G1 X83.
N5600 G3 X83.7 Y71.5 I0. J.7
N5610 X83. Y72.2 I-.7 J0.
N5620 G1 Z-4.4 F150.
N5630 X73. F500.
N5640 G3 X72.3 Y71.5 I0. J-.7
N5650 X73. Y70.8 I.7 J0.
N5660 G1 X83.
N5670 G3 X83.7 Y71.5 I0. J.7
N5680 X83. Y72.2 I-.7 J0.
N5690 G1 Y73.2
N5700 F150.
N5710 X73. F500.
N5720 G3 X71.3 Y71.5 I0. J-1.7
N5730 X73. Y69.8 I1.7 J0.
N5740 G1 X83.
N5750 G3 X84.7 Y71.5 I0. J1.7
N5760 X83. Y73.2 I-1.7 J0.
N5770 G0 Z.6
N5780 Z5.
N5790 X7.9 Y81.703
N5800 G1 Z-2.2 F150.
N5810 Y91.703 F500.
N5820 G3 X7.2 Y92.403 I-.7 J0.
N5830 X6.5 Y91.703 I0. J-.7
N5840 G1 Y81.703
N5850 G3 X7.2 Y81.003 I.7 J0.
N5860 X7.9 Y81.703 I0. J.7
N5870 G1 Z-4.4 F150.
N5880 Y91.703 F500.
N5890 G3 X7.2 Y92.403 I-.7 J0.
N5900 X6.5 Y91.703 I0. J-.7
N5910 G1 Y81.703
N5920 G3 X7.2 Y81.003 I.7 J0.
N5930 X7.9 Y81.703 I0. J.7
N5940 G1 X8.9
N5950 F150.
N5960 Y91.703 F500.
N5970 G3 X7.2 Y93.403 I-1.7 J0.
N5980 X5.5 Y91.703 I0. J-1.7
N5990 G1 Y81.703
N6000 G3 X7.2 Y80.003 I1.7 J0.
N6010 X8.9 Y81.703 I0. J1.7
N6020 G0 Z.6
N6030 Z5.
N6040 X7.9 Y41.703
N6050 G1 Z-2.2 F150.
N6060 G3 X7.2 Y42.403 I-.7 J0. F500.
N6070 X6.5 Y41.703 I0. J-.7
N6080 G1 Y31.703
N6090 G3 X7.2 Y31.003 I.7 J0.
N6100 X7.9 Y31.703 I0. J.7
N6110 G1 Y41.703
N6120 Z-4.4 F150.
N6130 G3 X7.2 Y42.403 I-.7 J0. F500.
N6140 X6.5 Y41.703 I0. J-.7
N6150 G1 Y31.703
N6160 G3 X7.2 Y31.003 I.7 J0.
N6170 X7.9 Y31.703 I0. J.7
N6180 G1 Y41.703
N6190 X8.9
N6200 F150.
N6210 G3 X7.2 Y43.403 I-1.7 J0. F500.
N6220 X5.5 Y41.703 I0. J-1.7
N6230 G1 Y31.703
N6240 G3 X7.2 Y30.003 I1.7 J0.
N6250 X8.9 Y31.703 I0. J1.7
N6260 G1 Y41.703
N6270 G0 Z.6
N6280 Z5.
N6290 X7.9 Y184.142
N6300 G1 Z-2.2 F150.
N6310 Y194.142 F500.
N6320 G3 X7.2 Y194.842 I-.7 J0.
N6330 X6.5 Y194.142 I0. J-.7
N6340 G1 Y184.142
N6350 G3 X7.2 Y183.442 I.7 J0.
N6360 X7.9 Y184.142 I0. J.7
N6370 G1 Z-4.4 F150.
N6380 Y194.142 F500.
N6390 G3 X7.2 Y194.842 I-.7 J0.
N6400 X6.5 Y194.142 I0. J-.7
N6410 G1 Y184.142
N6420 G3 X7.2 Y183.442 I.7 J0.
N6430 X7.9 Y184.142 I0. J.7
N6440 G1 X8.9
N6450 F150.
N6460 Y194.142 F500.
N6470 G3 X7.2 Y195.842 I-1.7 J0.
N6480 X5.5 Y194.142 I0. J-1.7
N6490 G1 Y184.142
N6500 G3 X7.2 Y182.442 I1.7 J0.
N6510 X8.9 Y184.142 I0. J1.7
N6520 G0 Z.6
N6530 Z5.
N6540 X7.9 Y235.858
N6550 G1 Z-2.2 F150.
N6560 Y245.858 F500.
N6570 G3 X7.2 Y246.558 I-.7 J0.
N6580 X6.5 Y245.858 I0. J-.7
N6590 G1 Y235.858
N6600 G3 X7.2 Y235.158 I.7 J0.
N6610 X7.9 Y235.858 I0. J.7
N6620 G1 Z-4.4 F150.
N6630 Y245.858 F500.
N6640 G3 X7.2 Y246.558 I-.7 J0.
N6650 X6.5 Y245.858 I0. J-.7
N6660 G1 Y235.858
N6670 G3 X7.2 Y235.158 I.7 J0.
N6680 X7.9 Y235.858 I0. J.7
N6690 G1 X8.9
N6700 F150.
N6710 Y245.858 F500.
N6720 G3 X7.2 Y247.558 I-1.7 J0.
N6730 X5.5 Y245.858 I0. J-1.7
N6740 G1 Y235.858
N6750 G3 X7.2 Y234.158 I1.7 J0.
N6760 X8.9 Y235.858 I0. J1.7
N6770 G0 Z.6
N6780 Z5.
N6790 X7.9 Y338.298
N6800 G1 Z-2.2 F150.
N6810 Y348.298 F500.
N6820 G3 X7.2 Y348.998 I-.7 J0.
N6830 X6.5 Y348.298 I0. J-.7
N6840 G1 Y338.298
N6850 G3 X7.2 Y337.598 I.7 J0.
N6860 X7.9 Y338.298 I0. J.7
N6870 G1 Z-4.4 F150.
N6880 Y348.298 F500.
N6890 G3 X7.2 Y348.998 I-.7 J0.
N6900 X6.5 Y348.298 I0. J-.7
N6910 G1 Y338.298
N6920 G3 X7.2 Y337.598 I.7 J0.
N6930 X7.9 Y338.298 I0. J.7
N6940 G1 X8.9
N6950 F150.
N6960 Y348.298 F500.
N6970 G3 X7.2 Y349.998 I-1.7 J0.
N6980 X5.5 Y348.298 I0. J-1.7
N6990 G1 Y338.298
N7000 G3 X7.2 Y336.598 I1.7 J0.
N7010 X8.9 Y338.298 I0. J1.7
N7020 G0 Z.6
N7030 Z5.
N7040 X7.9 Y388.298
N7050 G1 Z-2.2 F150.
N7060 Y398.298 F500.
N7070 G3 X7.2 Y398.998 I-.7 J0.
N7080 X6.5 Y398.298 I0. J-.7
N7090 G1 Y388.298
N7100 G3 X7.2 Y387.598 I.7 J0.
N7110 X7.9 Y388.298 I0. J.7
N7120 G1 Z-4.4 F150.
N7130 Y398.298 F500.
N7140 G3 X7.2 Y398.998 I-.7 J0.
N7150 X6.5 Y398.298 I0. J-.7
N7160 G1 Y388.298
N7170 G3 X7.2 Y387.598 I.7 J0.
N7180 X7.9 Y388.298 I0. J.7
N7190 G1 X8.9
N7200 F150.
N7210 Y398.298 F500.
N7220 G3 X7.2 Y399.998 I-1.7 J0.
N7230 X5.5 Y398.298 I0. J-1.7
N7240 G1 Y388.298
N7250 G3 X7.2 Y386.598 I1.7 J0.
N7260 X8.9 Y388.298 I0. J1.7
N7270 G0 Z.6
N7280 Z5.
N7290 X26.6 Y398.123
N7300 G1 Z-2.2 F150.
N7310 G3 X26.075 Y397.598 I0. J-.525 F500.
N7320 X26.6 Y397.073 I.525 J0.
N7330 X27.125 Y397.598 I0. J.525
N7340 X26.6 Y398.123 I-.525 J0.
N7350 G1 Y398.848
N7360 G3 X25.35 Y397.598 I0. J-1.25
N7370 X26.6 Y396.348 I1.25 J0.
N7380 X27.85 Y397.598 I0. J1.25
N7390 X26.6 Y398.848 I-1.25 J0.
N7400 G1 Y400.298
N7410 G3 X23.9 Y397.598 I0. J-2.7
N7420 X26.6 Y394.898 I2.7 J0.
N7430 X29.3 Y397.598 I0. J2.7
N7440 X26.6 Y400.298 I-2.7 J0.
N7450 G1 Y401.748
N7460 G3 X22.45 Y397.598 I0. J-4.15
N7470 X26.6 Y393.448 I4.15 J0.
N7480 X30.75 Y397.598 I0. J4.15
N7490 X26.6 Y401.748 I-4.15 J0.
N7500 G1 Y403.198
N7510 G3 X21. Y397.598 I0. J-5.6
N7520 X26.6 Y391.998 I5.6 J0.
N7530 X32.2 Y397.598 I0. J5.6
N7540 X26.6 Y403.198 I-5.6 J0.
N7550 G1 Y398.123
N7560 Z-4.4 F150.
N7570 G3 X26.075 Y397.598 I0. J-.525 F500.
N7580 X26.6 Y397.073 I.525 J0.
N7590 X27.125 Y397.598 I0. J.525
N7600 X26.6 Y398.123 I-.525 J0.
N7610 G1 Y398.848
N7620 G3 X25.35 Y397.598 I0. J-1.25
N7630 X26.6 Y396.348 I1.25 J0.
N7640 X27.85 Y397.598 I0. J1.25
N7650 X26.6 Y398.848 I-1.25 J0.
N7660 G1 Y400.298
N7670 G3 X23.9 Y397.598 I0. J-2.7
N7680 X26.6 Y394.898 I2.7 J0.
N7690 X29.3 Y397.598 I0. J2.7
N7700 X26.6 Y400.298 I-2.7 J0.
N7710 G1 Y401.748
N7720 G3 X22.45 Y397.598 I0. J-4.15
N7730 X26.6 Y393.448 I4.15 J0.
N7740 X30.75 Y397.598 I0. J4.15
N7750 X26.6 Y401.748 I-4.15 J0.
N7760 G1 Y403.198
N7770 G3 X21. Y397.598 I0. J-5.6
N7780 X26.6 Y391.998 I5.6 J0.
N7790 X32.2 Y397.598 I0. J5.6
N7800 X26.6 Y403.198 I-5.6 J0.
N7810 G1 Y404.198
N7820 F150.
N7830 G3 X20. Y397.598 I0. J-6.6 F500.
N7840 X26.6 Y390.998 I6.6 J0.
N7850 X33.2 Y397.598 I0. J6.6
N7860 X26.6 Y404.198 I-6.6 J0.
N7870 G0 Z.6
N7880 Z5.
N7890 X73. Y412.8
N7900 G1 Z-2.2 F150.
N7910 X83. F500.
N7920 G3 X83.7 Y413.5 I0. J.7
N7930 X83. Y414.2 I-.7 J0.
N7940 G1 X73.
N7950 G3 X72.3 Y413.5 I0. J-.7
N7960 X73. Y412.8 I.7 J0.
N7970 G1 Z-4.4 F150.
N7980 X83. F500.
N7990 G3 X83.7 Y413.5 I0. J.7
N8000 X83. Y414.2 I-.7 J0.
N8010 G1 X73.
N8020 G3 X72.3 Y413.5 I0. J-.7
N8030 X73. Y412.8 I.7 J0.
N8040 G1 Y411.8
N8050 F150.
N8060 X83. F500.
N8070 G3 X84.7 Y413.5 I0. J1.7
N8080 X83. Y415.2 I-1.7 J0.
N8090 G1 X73.
N8100 G3 X71.3 Y413.5 I0. J-1.7
N8110 X73. Y411.8 I1.7 J0.
N8120 G0 Z.6
N8130 Z5.
N8140 X163.5 Y412.8
N8150 G1 Z-2.2 F150.
N8160 X173.5 F500.
N8170 G3 X174.2 Y413.5 I0. J.7
N8180 X173.5 Y414.2 I-.7 J0.
N8190 G1 X163.5
N8200 G3 X162.8 Y413.5 I0. J-.7
N8210 X163.5 Y412.8 I.7 J0.
N8220 G1 Z-4.4 F150.
N8230 X173.5 F500.
N8240 G3 X174.2 Y413.5 I0. J.7
N8250 X173.5 Y414.2 I-.7 J0.
N8260 G1 X163.5
N8270 G3 X162.8 Y413.5 I0. J-.7
N8280 X163.5 Y412.8 I.7 J0.
N8290 G1 Y411.8
N8300 F150.
N8310 X173.5 F500.
N8320 G3 X175.2 Y413.5 I0. J1.7
N8330 X173.5 Y415.2 I-1.7 J0.
N8340 G1 X163.5
N8350 G3 X161.8 Y413.5 I0. J-1.7
N8360 X163.5 Y411.8 I1.7 J0.
N8370 G0 Z.6
N8380 Z5.
N8390 X213.5 Y412.8
N8400 G1 Z-2.2 F150.
N8410 X223.5 F500.
N8420 G3 X224.2 Y413.5 I0. J.7
N8430 X223.5 Y414.2 I-.7 J0.
N8440 G1 X213.5
N8450 G3 X212.8 Y413.5 I0. J-.7
N8460 X213.5 Y412.8 I.7 J0.
N8470 G1 Z-4.4 F150.
N8480 X223.5 F500.
N8490 G3 X224.2 Y413.5 I0. J.7
N8500 X223.5 Y414.2 I-.7 J0.
N8510 G1 X213.5
N8520 G3 X212.8 Y413.5 I0. J-.7
N8530 X213.5 Y412.8 I.7 J0.
N8540 G1 Y411.8
N8550 F150.
N8560 X223.5 F500.
N8570 G3 X225.2 Y413.5 I0. J1.7
N8580 X223.5 Y415.2 I-1.7 J0.
N8590 G1 X213.5
N8600 G3 X211.8 Y413.5 I0. J-1.7
N8610 X213.5 Y411.8 I1.7 J0.
N8620 G0 Z.6
N8630 Z5.
N8640 X304. Y412.8
N8650 G1 Z-2.2 F150.
N8660 X314. F500.
N8670 G3 X314.7 Y413.5 I0. J.7
N8680 X314. Y414.2 I-.7 J0.
N8690 G1 X304.
N8700 G3 X303.3 Y413.5 I0. J-.7
N8710 X304. Y412.8 I.7 J0.
N8720 G1 Z-4.4 F150.
N8730 X314. F500.
N8740 G3 X314.7 Y413.5 I0. J.7
N8750 X314. Y414.2 I-.7 J0.
N8760 G1 X304.
N8770 G3 X303.3 Y413.5 I0. J-.7
N8780 X304. Y412.8 I.7 J0.
N8790 G1 Y411.8
N8800 F150.
N8810 X314. F500.
N8820 G3 X315.7 Y413.5 I0. J1.7
N8830 X314. Y415.2 I-1.7 J0.
N8840 G1 X304.
N8850 G3 X302.3 Y413.5 I0. J-1.7
N8860 X304. Y411.8 I1.7 J0.
N8870 G0 Z.6
N8880 Z5.
N8890 X338.7 Y398.123
N8900 G1 Z-2.2 F150.
N8910 G3 X338.175 Y397.598 I0. J-.525 F500.
N8920 X338.7 Y397.073 I.525 J0.
N8930 X339.225 Y397.598 I0. J.525
N8940 X338.7 Y398.123 I-.525 J0.
N8950 G1 Y398.848
N8960 G3 X337.45 Y397.598 I0. J-1.25
N8970 X338.7 Y396.348 I1.25 J0.
N8980 X339.95 Y397.598 I0. J1.25
N8990 X338.7 Y398.848 I-1.25 J0.
N9000 G1 Y400.298
N9010 G3 X336. Y397.598 I0. J-2.7
N9020 X338.7 Y394.898 I2.7 J0.
N9030 X341.4 Y397.598 I0. J2.7
N9040 X338.7 Y400.298 I-2.7 J0.
N9050 G1 Y401.748
N9060 G3 X334.55 Y397.598 I0. J-4.15
N9070 X338.7 Y393.448 I4.15 J0.
N9080 X342.85 Y397.598 I0. J4.15
N9090 X338.7 Y401.748 I-4.15 J0.
N9100 G1 Y403.198
N9110 G3 X333.1 Y397.598 I0. J-5.6
N9120 X338.7 Y391.998 I5.6 J0.
N9130 X344.3 Y397.598 I0. J5.6
N9140 X338.7 Y403.198 I-5.6 J0.
N9150 G1 Y398.123
N9160 Z-4.4 F150.
N9170 G3 X338.175 Y397.598 I0. J-.525 F500.
N9180 X338.7 Y397.073 I.525 J0.
N9190 X339.225 Y397.598 I0. J.525
N9200 X338.7 Y398.123 I-.525 J0.
N9210 G1 Y398.848
N9220 G3 X337.45 Y397.598 I0. J-1.25
N9230 X338.7 Y396.348 I1.25 J0.
N9240 X339.95 Y397.598 I0. J1.25
N9250 X338.7 Y398.848 I-1.25 J0.
N9260 G1 Y400.298
N9270 G3 X336. Y397.598 I0. J-2.7
N9280 X338.7 Y394.898 I2.7 J0.
N9290 X341.4 Y397.598 I0. J2.7
N9300 X338.7 Y400.298 I-2.7 J0.
N9310 G1 Y401.748
N9320 G3 X334.55 Y397.598 I0. J-4.15
N9330 X338.7 Y393.448 I4.15 J0.
N9340 X342.85 Y397.598 I0. J4.15
N9350 X338.7 Y401.748 I-4.15 J0.
N9360 G1 Y403.198
N9370 G3 X333.1 Y397.598 I0. J-5.6
N9380 X338.7 Y391.998 I5.6 J0.
N9390 X344.3 Y397.598 I0. J5.6
N9400 X338.7 Y403.198 I-5.6 J0.
N9410 G1 Y404.198
N9420 F150.
N9430 G3 X332.1 Y397.598 I0. J-6.6 F500.
N9440 X338.7 Y390.998 I6.6 J0.
N9450 X345.3 Y397.598 I0. J6.6
N9460 X338.7 Y404.198 I-6.6 J0.
N9470 G0 Z.6
N9480 Z5.
N9490 X379.1 Y398.298
N9500 G1 Z-2.2 F150.
N9510 Y388.298 F500.
N9520 G3 X379.8 Y387.598 I.7 J0.
N9530 X380.5 Y388.298 I0. J.7
N9540 G1 Y398.298
N9550 G3 X379.8 Y398.998 I-.7 J0.
N9560 X379.1 Y398.298 I0. J-.7
N9570 G1 Z-4.4 F150.
N9580 Y388.298 F500.
N9590 G3 X379.8 Y387.598 I.7 J0.
N9600 X380.5 Y388.298 I0. J.7
N9610 G1 Y398.298
N9620 G3 X379.8 Y398.998 I-.7 J0.
N9630 X379.1 Y398.298 I0. J-.7
N9640 G1 X378.1
N9650 F150.
N9660 Y388.298 F500.
N9670 G3 X379.8 Y386.598 I1.7 J0.
N9680 X381.5 Y388.298 I0. J1.7
N9690 G1 Y398.298
N9700 G3 X379.8 Y399.998 I-1.7 J0.
N9710 X378.1 Y398.298 I0. J-1.7
N9720 G0 Z.6
N9730 Z5.
N9740 X379.1 Y348.298
N9750 G1 Z-2.2 F150.
N9760 Y338.298 F500.
N9770 G3 X379.8 Y337.598 I.7 J0.
N9780 X380.5 Y338.298 I0. J.7
N9790 G1 Y348.298
N9800 G3 X379.8 Y348.998 I-.7 J0.
N9810 X379.1 Y348.298 I0. J-.7
N9820 G1 Z-4.4 F150.
N9830 Y338.298 F500.
N9840 G3 X379.8 Y337.598 I.7 J0.
N9850 X380.5 Y338.298 I0. J.7
N9860 G1 Y348.298
N9870 G3 X379.8 Y348.998 I-.7 J0.
N9880 X379.1 Y348.298 I0. J-.7
N9890 G1 X378.1
N9900 F150.
N9910 Y338.298 F500.
N9920 G3 X379.8 Y336.598 I1.7 J0.
N9930 X381.5 Y338.298 I0. J1.7
N9940 G1 Y348.298
N9950 G3 X379.8 Y349.998 I-1.7 J0.
N9960 X378.1 Y348.298 I0. J-1.7
N9970 G0 Z.6
N9980 Z5.
N9990 X352.825 Y321.598
N100 G1 Z-2.2 F150.
N110 G3 X352.2 Y322.223 I-.625 J0. F500.
N120 X351.575 Y321.598 I0. J-.625
N130 G1 Y313.098
N140 G3 X352.2 Y312.473 I.625 J0.
N150 X352.825 Y313.098 I0. J.625
N160 G1 Y321.598
N170 X353.55
N180 G3 X352.2 Y322.948 I-1.35 J0.
N190 X350.85 Y321.598 I0. J-1.35
N200 G1 Y313.098
N210 G3 X352.2 Y311.748 I1.35 J0.
N220 X353.55 Y313.098 I0. J1.35
N230 G1 Y321.598
N240 X355.
N250 G3 X352.2 Y324.398 I-2.8 J0.
N260 X349.4 Y321.598 I0. J-2.8
N270 G1 Y313.098
N280 G3 X352.2 Y310.298 I2.8 J0.
N290 X355. Y313.098 I0. J2.8
N300 G1 Y321.598
N310 X356.45
N320 G3 X352.2 Y325.848 I-4.25 J0.
N330 X347.95 Y321.598 I0. J-4.25
N340 G1 Y313.098
N350 G3 X352.2 Y308.848 I4.25 J0.
N360 X356.45 Y313.098 I0. J4.25
N370 G1 Y321.598
N380 X357.9
N390 G3 X352.2 Y327.298 I-5.7 J0.
N400 X346.5 Y321.598 I0. J-5.7
N410 G1 Y313.098
N420 G3 X352.2 Y307.398 I5.7 J0.
N430 X357.9 Y313.098 I0. J5.7
N440 G1 Y321.598
N450 X359.35
N460 G3 X352.2 Y328.748 I-7.15 J0.
N470 X345.05 Y321.598 I0. J-7.15
N480 G1 Y313.098
N490 G3 X352.2 Y305.948 I7.15 J0.
N500 X359.35 Y313.098 I0. J7.15
N510 G1 Y321.598
N520 X360.8
N530 G3 X352.2 Y330.198 I-8.6 J0.
N540 X343.6 Y321.598 I0. J-8.6
N550 G1 Y313.098
N560 G3 X352.2 Y304.498 I8.6 J0.
N570 X360.8 Y313.098 I0. J8.6
N580 G1 Y321.598
N590 X352.825
N600 Z-4.4 F150.
N610 G3 X352.2 Y322.223 I-.625 J0. F500.
N620 X351.575 Y321.598 I0. J-.625
N630 G1 Y313.098
N640 G3 X352.2 Y312.473 I.625 J0.
N650 X352.825 Y313.098 I0. J.625
N660 G1 Y321.598
N670 X353.55
N680 G3 X352.2 Y322.948 I-1.35 J0.
N690 X350.85 Y321.598 I0. J-1.35
N700 G1 Y313.098
N710 G3 X352.2 Y311.748 I1.35 J0.
N720 X353.55 Y313.098 I0. J1.35
N730 G1 Y321.598
N740 X355.
N750 G3 X352.2 Y324.398 I-2.8 J0.
N760 X349.4 Y321.598 I0. J-2.8
N770 G1 Y313.098
N780 G3 X352.2 Y310.298 I2.8 J0.
N790 X355. Y313.098 I0. J2.8
N800 G1 Y321.598
N810 X356.45
N820 G3 X352.2 Y325.848 I-4.25 J0.
N830 X347.95 Y321.598 I0. J-4.25
N840 G1 Y313.098
N850 G3 X352.2 Y308.848 I4.25 J0.
N860 X356.45 Y313.098 I0. J4.25
N870 G1 Y321.598
N880 X357.9
N890 G3 X352.2 Y327.298 I-5.7 J0.
N900 X346.5 Y321.598 I0. J-5.7
N910 G1 Y313.098
N920 G3 X352.2 Y307.398 I5.7 J0.
N930 X357.9 Y313.098 I0. J5.7
N940 G1 Y321.598
N950 X359.35
N960 G3 X352.2 Y328.748 I-7.15 J0.
N970 X345.05 Y321.598 I0. J-7.15
N980 G1 Y313.098
N990 G3 X352.2 Y305.948 I7.15 J0.
N1000 X359.35 Y313.098 I0. J7.15
N1010 G1 Y321.598
N1020 X360.8
N1030 G3 X352.2 Y330.198 I-8.6 J0.
N1040 X343.6 Y321.598 I0. J-8.6
N1050 G1 Y313.098
N1060 G3 X352.2 Y304.498 I8.6 J0.
N1070 X360.8 Y313.098 I0. J8.6
N1080 G1 Y321.598
N1090 X361.8
N1100 F150.
N1110 G3 X352.2 Y331.198 I-9.6 J0. F500.
N1120 X342.6 Y321.598 I0. J-9.6
N1130 G1 Y313.098
N1140 G3 X352.2 Y303.498 I9.6 J0.
N1150 X361.8 Y313.098 I0. J9.6
N1160 G1 Y321.598
N1170 G0 Z.6
N1180 Z5.
N1190 X379.1 Y245.858
N1200 G1 Z-2.2 F150.
N1210 Y235.858 F500.
N1220 G3 X379.8 Y235.158 I.7 J0.
N1230 X380.5 Y235.858 I0. J.7
N1240 G1 Y245.858
N1250 G3 X379.8 Y246.558 I-.7 J0.
N1260 X379.1 Y245.858 I0. J-.7
N1270 G1 Z-4.4 F150.
N1280 Y235.858 F500.
N1290 G3 X379.8 Y235.158 I.7 J0.
N1300 X380.5 Y235.858 I0. J.7
N1310 G1 Y245.858
N1320 G3 X379.8 Y246.558 I-.7 J0.
N1330 X379.1 Y245.858 I0. J-.7
N1340 G1 X378.1
N1350 F150.
N1360 Y235.858 F500.
N1370 G3 X379.8 Y234.158 I1.7 J0.
N1380 X381.5 Y235.858 I0. J1.7
N1390 G1 Y245.858
N1400 G3 X379.8 Y247.558 I-1.7 J0.
N1410 X378.1 Y245.858 I0. J-1.7
N1420 G0 Z.6
N1430 Z5.
N1440 X379.1 Y194.142
N1450 G1 Z-2.2 F150.
N1460 Y184.142 F500.
N1470 G3 X379.8 Y183.442 I.7 J0.
N1480 X380.5 Y184.142 I0. J.7
N1490 G1 Y194.142
N1500 G3 X379.8 Y194.842 I-.7 J0.
N1510 X379.1 Y194.142 I0. J-.7
N1520 G1 Z-4.4 F150.
N1530 Y184.142 F500.
N1540 G3 X379.8 Y183.442 I.7 J0.
N1550 X380.5 Y184.142 I0. J.7
N1560 G1 Y194.142
N1570 G3 X379.8 Y194.842 I-.7 J0.
N1580 X379.1 Y194.142 I0. J-.7
N1590 G1 X378.1
N1600 F150.
N1610 Y184.142 F500.
N1620 G3 X379.8 Y182.442 I1.7 J0.
N1630 X381.5 Y184.142 I0. J1.7
N1640 G1 Y194.142
N1650 G3 X379.8 Y195.842 I-1.7 J0.
N1660 X378.1 Y194.142 I0. J-1.7
N1670 G0 Z5.
N1680 X387.9 Y6.
N1690 G1 Z-2.067 F150.
N1700 Y404.098 F500.
N1710 G3 X380. Y411.998 I-7.9 J0.
N1720 G1 X354.
N1730 G2 X348.944 Y414.355 I0. J6.6
N1740 G1 X345.731 Y418.185
N1750 G3 X337.764 Y421.9 I-7.967 J-6.685
N1760 G1 X49.236
N1770 G3 X41.269 Y418.185 I0. J-10.4
N1780 G1 X38.056 Y414.355
N1790 G2 X33. Y411.998 I-5.056 J4.243
N1800 G1 X7.
N1810 G3 X-.9 Y404.098 I0. J-7.9
N1820 G1 Y6.
N1830 G3 X7. Y-1.9 I7.9 J0.
N1840 G1 X33.036
N1850 G3 X41.003 Y1.815 I0. J10.4
N1860 G1 X44.299 Y5.743
N1870 G2 X49.355 Y8.1 I5.056 J-4.243
N1880 G1 X337.645
N1890 G2 X342.701 Y5.743 I0. J-6.6
N1900 G1 X345.997 Y1.815
N1910 G3 X353.964 Y-1.9 I7.967 J6.685
N1920 G1 X380.
N1930 G3 X387.9 Y6. I0. J7.9
N1940 G1 Z-4.133 F150.
N1950 Y404.098 F500.
N1960 G3 X380. Y411.998 I-7.9 J0.
N1970 G1 X354.
N1980 G2 X348.944 Y414.355 I0. J6.6
N1990 G1 X345.731 Y418.185
N2000 G3 X337.764 Y421.9 I-7.967 J-6.685
N2010 G1 X49.236
N2020 G3 X41.269 Y418.185 I0. J-10.4
N2030 G1 X38.056 Y414.355
N2040 G2 X33. Y411.998 I-5.056 J4.243
N2050 G1 X7.
N2060 G3 X-.9 Y404.098 I0. J-7.9
N2070 G1 Y6.
N2080 G3 X7. Y-1.9 I7.9 J0.
N2090 G1 X33.036
N2100 G3 X41.003 Y1.815 I0. J10.4
N2110 G1 X44.299 Y5.743
N2120 G2 X49.355 Y8.1 I5.056 J-4.243
N2130 G1 X337.645
N2140 G2 X342.701 Y5.743 I0. J-6.6
N2150 G1 X345.997 Y1.815
N2160 G3 X353.964 Y-1.9 I7.967 J6.685
N2170 G1 X380.
N2180 G3 X387.9 Y6. I0. J7.9
N2190 G1 Z-6.2 F150.
N2200 Y127.415 F500.
N2210 Y129.115 Z-4.5
N2220 Y148.615
N2230 Y150.315 Z-6.2
N2240 Y393.302
N2250 Y395.002 Z-4.5
N2260 Y404.098
N2270 G3 X381.983 Y411.745 I-7.9 J0.
N2280 X380.305 Y411.992 Z-6.2 I-1.983 J-7.647
N2290 X380. Y411.998 I-.305 J-7.894
N2300 G1 X354.
N2310 G2 X348.944 Y414.355 I0. J6.6
N2320 G1 X345.731 Y418.185
N2330 G3 X337.764 Y421.9 I-7.967 J-6.685
N2340 G1 X138.246
N2350 X136.546 Z-4.5
N2360 X117.046
N2370 X115.346 Z-6.2
N2380 X49.236
N2390 G3 X41.269 Y418.185 I0. J-10.4
N2400 G1 X38.056 Y414.355
N2410 G2 X33. Y411.998 I-5.056 J4.243
N2420 G1 X7.
N2430 G3 X-.9 Y404.098 I0. J-7.9
N2440 G1 Y282.637
N2450 Y280.937 Z-4.5
N2460 Y261.437
N2470 Y259.737 Z-6.2
N2480 Y16.735
N2490 Y15.035 Z-4.5
N2500 Y6.
N2510 G3 X5.075 Y-1.662 I7.9 J0.
N2520 X6.756 Y-1.896 Z-6.2 I1.925 J7.662
N2530 X7. Y-1.9 I.244 J7.896
N2540 G1 X33.036
N2550 G3 X41.003 Y1.815 I0. J10.4
N2560 G1 X44.299 Y5.743
N2570 G2 X49.355 Y8.1 I5.056 J-4.243
N2580 G1 X248.754
N2590 X250.454 Z-4.5
N2600 X269.954
N2610 X271.654 Z-6.2
N2620 X337.645
N2630 G2 X342.701 Y5.743 I0. J-6.6
N2640 G1 X345.997 Y1.815
N2650 G3 X353.964 Y-1.9 I7.967 J6.685
N2660 G1 X380.
N2670 G3 X387.9 Y6. I0. J7.9
N2680 G1 X387.4
N2690 Y127.415
N2700 Y129.115 Z-4.5
N2710 Y148.615
N2720 Y150.315 Z-6.2
N2730 Y393.261
N2740 Y394.961 Z-4.5
N2750 Y404.098
N2760 G3 X381.255 Y411.391 I-7.4 J0.
N2770 X380. Y411.498 Z-5.761 I-1.255 J-7.293
N2780 G1 X379.561 Z-6.2
N2790 X354.
N2800 G2 X348.561 Y414.034 I0. J7.1
N2810 G1 X345.348 Y417.864
N2820 G3 X337.764 Y421.4 I-7.584 J-6.364
N2830 G1 X138.246
N2840 X136.546 Z-4.5
N2850 X117.046
N2860 X115.346 Z-6.2
N2870 X49.236
N2880 G3 X41.652 Y417.864 I0. J-9.9
N2890 G1 X38.439 Y414.034
N2900 G2 X33. Y411.498 I-5.439 J4.564
N2910 G1 X7.
N2920 G3 X-.4 Y404.098 I0. J-7.4
N2930 G1 Y282.637
N2940 Y280.937 Z-4.5
N2950 Y261.437
N2960 Y259.737 Z-6.2
N2970 Y16.78
N2980 Y15.08 Z-4.5
N2990 Y6.
N3000 G3 X5.801 Y-1.302 I7.4 J0.
N3010 X7. Y-1.4 Z-5.704 I1.199 J7.302
N3020 G1 X7.496 Z-6.2
N3030 X33.036
N3040 G3 X40.62 Y2.136 I0. J9.9
N3050 G1 X43.916 Y6.064
N3060 G2 X49.355 Y8.6 I5.439 J-4.564
N3070 G1 X248.754
N3080 X250.454 Z-4.5
N3090 X269.954
N3100 X271.654 Z-6.2
N3110 X337.645
N3120 G2 X343.084 Y6.064 I0. J-7.1
N3130 G1 X346.38 Y2.136
N3140 G3 X353.964 Y-1.4 I7.584 J6.364
N3150 G1 X380.
N3160 G3 X387.4 Y6. I0. J7.4
N3170 G0 Z5.
N3180 M5
N3190 G91 Z5
N3200 X0. Y0. A0.
N3210 M30
%
