%
O0000(CORTE NERVIOS)
(DATE=DD-MM-YY - 30-09-15 TIME=HH:MM - 22:35)
(MCX FILE - C:\USERS\CAMPY\DESKTOP\PANELES ULTICAMPY V3 CAM\CAMPANELSUPERIOR1.SLDASM)
(NC FILE - C:\USERS\CAMPY\DESKTOP\PANELES ULTICAMPY V3 CAM\MACH3\PANEL SUPERIOR\CORTE NERVIOS.NC)
(MATERIAL - ALUMINUM MM - 2024)
( T2 | FRESA 3MM CAJA AZUL | H2 | XY STOCK TO LEAVE - -.05 | Z STOCK TO LEAVE - 0. )
N100 G21
N110 G0 G17 G40 G49 G80 G90
N120 T2 M6 Z5
N130 G0 G90 G54 X342.4 Y168.338 A0. S15000 M3
N140 G43 H2 Z5.
N150 G1 Z-6.2 F500.
N160 Y191.238
N170 G0 Z5.
N180 X199.662 Y303.4
N190 G1 Z-6.2
N200 X176.762
N210 G0 Z5.
N220 X44.6 Y180.662
N230 G1 Z-6.2
N240 Y157.762
N250 G0 Z5.
N260 X187.338 Y45.6
N270 G1 Z-6.2
N280 X210.238
N290 G0 Z5.
N300 X35.4 Y214.919
N310 G1 Z-6.2
N320 Y192.019
N330 G0 Z5.
N340 X94.59 Y30.4
N350 G1 Z-6.2
N360 X117.49
N370 G0 Z5.
N380 X338.525
N390 G1 Z-6.2
N400 X350.
N410 G3 X354.6 Y35. I0. J4.6
N420 G1 Y39.199
N430 G0 Z5.
N440 Y258.035
N450 G1 Z-6.2
N460 Y280.935
N470 G0 Z5.
N480 X173.438 Y320.6
N490 G1 Z-6.2
N500 X150.538
N510 G0 Z5.
N520 X384.4 Y261.025
N530 G1 Z-6.2
N540 Y283.925
N550 G0 Z5.
N560 X237.85 Y370.4
N570 G1 Z-6.2
N580 X226.4
N590 Y373.5
N600 G3 X225. Y374.9 I-1.4 J0.
N610 G1 X218.849
N620 G0 Z5.
N630 X5.6 Y352.925
N640 G1 Z-6.2
N650 Y330.025
N660 G0 Z5.
N670 Y109.975
N680 G1 Z-6.2
N690 Y87.075
N700 G0 Z5.
N710 X152.15 Y.6
N720 G1 Z-6.2
N730 X163.6
N740 Y-2.5
N750 G3 X165. Y-3.9 I1.4 J0.
N760 G1 X171.151
N770 G0 Z5.
N780 X384.4 Y18.075
N790 G1 Z-6.2
N800 Y40.975
N810 G0 Z5.
N820 M5
N830 G91 Z5
N840 X0. Y0. A0.
N850 M30
%
