%
O0000(CORTE NERVIOS)
(DATE=DD-MM-YY - 30-09-15 TIME=HH:MM - 22:22)
(MCX FILE - C:\USERS\CAMPY\DESKTOP\PANELES ULTICAMPY V3 CAM\CAM-PANELFRONTAL.SLDASM)
(NC FILE - C:\USERS\CAMPY\DESKTOP\PANELES ULTICAMPY V3 CAM\MACH3\PANEL FRONTAL\CORTE NERVIOS.NC)
(MATERIAL - ALUMINUM MM - 2024)
( T2 | FRESA 3MM CAJA AZUL | H2 | XY STOCK TO LEAVE - -.05 | Z STOCK TO LEAVE - 0. )
N100 G21
N110 G0 G17 G40 G49 G80 G90
N120 T2 M6 Z5
N130 G0 G90 G54 X296.037 Y226.949 A0. S15000 M3
N140 G43 H2 Z5.
N150 G1 Z-6.2 F500.
N160 X273.137
N170 G0 Z5.
N180 X95.845
N190 G1 Z-6.2
N200 X91.176
N210 G3 X79.776 Y215.549 I0. J-11.4
N220 X79.781 Y215.226 I11.4 J0.
N230 G0 Z5.
N240 X200.406 Y158.538
N250 G1 Z-6.2
N260 X223.306
N270 G0 Z5.
N280 X207.846 Y384.6
N290 G1 Z-6.2
N300 X184.946
N310 G0 Z5.
N320 X58.4 Y264.149
N330 G1 Z-6.2
N340 Y241.249
N350 G0 Z5.
N360 X190.158 Y110.677
N370 G1 Z-6.2
N380 G3 X197.549 Y110.625 I7.391 J528.746
N390 X213.055 Y110.853 I0. J528.798
N400 G0 Z5.
N410 X336.45 Y243.306
N420 G1 Z-6.2
N430 Y266.206
N440 G0 Z5.
N450 X385.1 Y296.829
N460 G1 Z-6.2
N470 Y319.729
N480 G0 Z5.
N490 X274.536 Y421.4
N500 G1 Z-6.2
N510 X251.636
N520 G0 Z5.
N530 X40.72 Y411.711
N540 G1 Z-6.2
N550 G2 X39. Y411.5 I-1.72 J6.889
N560 G1 X17.837
N570 G0 Z5.
N580 X5.6 Y224.774
N590 G1 Z-6.2
N600 Y201.874
N610 G0 Z5.
N620 Y6.148
N630 G1 Z-6.2
N640 Y6.
N650 G3 X13. Y-1.4 I7.4 J0.
N660 G1 X24.128
N670 G0 Z5.
N680 X234.862 Y8.6
N690 G1 Z-6.2
N700 X257.762
N710 G0 Z5.
N720 X385.206 Y80.293
N730 G1 Z-6.2
N740 G2 X385.25 Y80.3 I.044 J-.143
N750 G1 X387.85
N760 G3 X389.25 Y81.7 I0. J1.4
N770 G1 Y91.7
N780 G3 X387.85 Y93.1 I-1.4 J0.
N790 G1 X385.25
N800 G2 X385.1 Y93.25 I0. J.15
N810 G1 Y96.271
N820 G0 Z5.
N830 M5
N840 G91 Z5
N850 X0. Y0. A0.
N860 M30
%
